(G-CODE GENERATED BY FLATCAM v8.99 - www.flatcam.org - Version Date: 2019/12/15)

(Name: contour_multicapteur)
(Type: G-code from Geometry)
(Units: MM)

(Created on Tuesday, 24 December 2019 at 00:20)

(TOOL DIAMETER: 1.0 mm)
(Feedrate: 150.0 mm/min)
(Feedrate_Z: 76.2 mm/min)
(Feedrate rapids 76.2 mm/min)

(Z_Cut: -1.8 mm)
(DepthPerCut: 0.4 mm <=>5 passes)
(Z_Move: 1.0 mm)
(Z Toolchange: 12.7 mm)
(X,Y Toolchange: 0.0000, 0.0000 mm)
(Z Start: None mm)
(Z End: 30.0 mm)
(Steps per circle: 128)
(Preprocessor Geometry: default)

(X range:  -45.5750 ...    0.5750  mm)
(Y range:   -0.5750 ...   30.5750  mm)

(Spindle Speed: 12000 RPM)
G21
G90
G94




G01 F150.00
G00 Z1.0000

M03 S12000
G00 X0.5749 Y-0.0123
G01 F76.20
G01 Z-0.4000
G01 F150.00
G01 X0.5736 Y-0.0405
G01 X0.5709 Y-0.0686
G01 X0.5669 Y-0.0965
G01 X0.5614 Y-0.1242
G01 X0.5547 Y-0.1516
G01 X0.5466 Y-0.1786
G01 X0.5371 Y-0.2052
G01 X0.5264 Y-0.2313
G01 X0.5150 Y-0.2557
G01 X0.5012 Y-0.2818
G01 X0.4868 Y-0.3061
G01 X0.4712 Y-0.3296
G01 X0.4544 Y-0.3523
G01 X0.4366 Y-0.3742
G01 X0.4066 Y-0.4066
G01 X0.3742 Y-0.4366
G01 X0.3523 Y-0.4544
G01 X0.3296 Y-0.4712
G01 X0.3061 Y-0.4868
G01 X0.2818 Y-0.5012
G01 X0.2557 Y-0.5150
G01 X0.2313 Y-0.5264
G01 X0.2087 Y-0.5358
G01 X0.1821 Y-0.5454
G01 X0.1551 Y-0.5537
G01 X0.1278 Y-0.5606
G01 X0.1001 Y-0.5662
G01 X0.0722 Y-0.5705
G01 X0.0441 Y-0.5733
G01 X0.0160 Y-0.5748
G01 X-21.5000 Y-0.5750
G00 X-21.5000 Y-0.5750
G01 F76.20
G01 Z-0.8000
G01 F150.00
G01 X0.0160 Y-0.5748
G01 X0.0441 Y-0.5733
G01 X0.0722 Y-0.5705
G01 X0.1001 Y-0.5662
G01 X0.1278 Y-0.5606
G01 X0.1551 Y-0.5537
G01 X0.1821 Y-0.5454
G01 X0.2087 Y-0.5358
G01 X0.2313 Y-0.5264
G01 X0.2557 Y-0.5150
G01 X0.2818 Y-0.5012
G01 X0.3061 Y-0.4868
G01 X0.3296 Y-0.4712
G01 X0.3523 Y-0.4544
G01 X0.3742 Y-0.4366
G01 X0.4066 Y-0.4066
G01 X0.4366 Y-0.3742
G01 X0.4544 Y-0.3523
G01 X0.4712 Y-0.3296
G01 X0.4868 Y-0.3061
G01 X0.5012 Y-0.2818
G01 X0.5150 Y-0.2557
G01 X0.5264 Y-0.2313
G01 X0.5371 Y-0.2052
G01 X0.5466 Y-0.1786
G01 X0.5547 Y-0.1516
G01 X0.5614 Y-0.1242
G01 X0.5669 Y-0.0965
G01 X0.5709 Y-0.0686
G01 X0.5736 Y-0.0405
G01 X0.5749 Y-0.0123
G00 X0.5749 Y-0.0123
G01 F76.20
G01 Z-1.2000
G01 F150.00
G01 X0.5736 Y-0.0405
G01 X0.5709 Y-0.0686
G01 X0.5669 Y-0.0965
G01 X0.5614 Y-0.1242
G01 X0.5547 Y-0.1516
G01 X0.5466 Y-0.1786
G01 X0.5371 Y-0.2052
G01 X0.5264 Y-0.2313
G01 X0.5150 Y-0.2557
G01 X0.5012 Y-0.2818
G01 X0.4868 Y-0.3061
G01 X0.4712 Y-0.3296
G01 X0.4544 Y-0.3523
G01 X0.4366 Y-0.3742
G01 X0.4066 Y-0.4066
G01 X0.3742 Y-0.4366
G01 X0.3523 Y-0.4544
G01 X0.3296 Y-0.4712
G01 X0.3061 Y-0.4868
G01 X0.2818 Y-0.5012
G01 X0.2557 Y-0.5150
G01 X0.2313 Y-0.5264
G01 X0.2087 Y-0.5358
G01 X0.1821 Y-0.5454
G01 X0.1551 Y-0.5537
G01 X0.1278 Y-0.5606
G01 X0.1001 Y-0.5662
G01 X0.0722 Y-0.5705
G01 X0.0441 Y-0.5733
G01 X0.0160 Y-0.5748
G01 X-21.5000 Y-0.5750
G00 X-21.5000 Y-0.5750
G01 F76.20
G01 Z-1.6000
G01 F150.00
G01 X0.0160 Y-0.5748
G01 X0.0441 Y-0.5733
G01 X0.0722 Y-0.5705
G01 X0.1001 Y-0.5662
G01 X0.1278 Y-0.5606
G01 X0.1551 Y-0.5537
G01 X0.1821 Y-0.5454
G01 X0.2087 Y-0.5358
G01 X0.2313 Y-0.5264
G01 X0.2557 Y-0.5150
G01 X0.2818 Y-0.5012
G01 X0.3061 Y-0.4868
G01 X0.3296 Y-0.4712
G01 X0.3523 Y-0.4544
G01 X0.3742 Y-0.4366
G01 X0.4066 Y-0.4066
G01 X0.4366 Y-0.3742
G01 X0.4544 Y-0.3523
G01 X0.4712 Y-0.3296
G01 X0.4868 Y-0.3061
G01 X0.5012 Y-0.2818
G01 X0.5150 Y-0.2557
G01 X0.5264 Y-0.2313
G01 X0.5371 Y-0.2052
G01 X0.5466 Y-0.1786
G01 X0.5547 Y-0.1516
G01 X0.5614 Y-0.1242
G01 X0.5669 Y-0.0965
G01 X0.5709 Y-0.0686
G01 X0.5736 Y-0.0405
G01 X0.5749 Y-0.0123
G00 X0.5749 Y-0.0123
G01 F76.20
G01 Z-1.8000
G01 F150.00
G01 X0.5736 Y-0.0405
G01 X0.5709 Y-0.0686
G01 X0.5669 Y-0.0965
G01 X0.5614 Y-0.1242
G01 X0.5547 Y-0.1516
G01 X0.5466 Y-0.1786
G01 X0.5371 Y-0.2052
G01 X0.5264 Y-0.2313
G01 X0.5150 Y-0.2557
G01 X0.5012 Y-0.2818
G01 X0.4868 Y-0.3061
G01 X0.4712 Y-0.3296
G01 X0.4544 Y-0.3523
G01 X0.4366 Y-0.3742
G01 X0.4066 Y-0.4066
G01 X0.3742 Y-0.4366
G01 X0.3523 Y-0.4544
G01 X0.3296 Y-0.4712
G01 X0.3061 Y-0.4868
G01 X0.2818 Y-0.5012
G01 X0.2557 Y-0.5150
G01 X0.2313 Y-0.5264
G01 X0.2087 Y-0.5358
G01 X0.1821 Y-0.5454
G01 X0.1551 Y-0.5537
G01 X0.1278 Y-0.5606
G01 X0.1001 Y-0.5662
G01 X0.0722 Y-0.5705
G01 X0.0441 Y-0.5733
G01 X0.0160 Y-0.5748
G01 X-21.5000 Y-0.5750
G00 Z1.0000
G00 X-23.5000 Y-0.5750
G01 F76.20
G01 Z-0.4000
G01 F150.00
G01 X-45.0000 Y-0.5750
G01 X-45.0405 Y-0.5736
G01 X-45.0722 Y-0.5705
G01 X-45.1127 Y-0.5639
G01 X-45.1551 Y-0.5537
G01 X-45.1821 Y-0.5454
G01 X-45.2052 Y-0.5371
G01 X-45.2347 Y-0.5249
G01 X-45.2602 Y-0.5128
G01 X-45.2818 Y-0.5012
G01 X-45.3092 Y-0.4848
G01 X-45.3447 Y-0.4603
G01 X-45.3742 Y-0.4366
G01 X-45.3978 Y-0.4152
G01 X-45.4177 Y-0.3952
G01 X-45.4366 Y-0.3742
G01 X-45.4603 Y-0.3447
G01 X-45.4848 Y-0.3092
G01 X-45.5012 Y-0.2818
G01 X-45.5151 Y-0.2557
G01 X-45.5336 Y-0.2144
G01 X-45.5454 Y-0.1821
G01 X-45.5547 Y-0.1516
G01 X-45.5639 Y-0.1127
G01 X-45.5705 Y-0.0722
G01 X-45.5733 Y-0.0441
G01 X-45.5749 Y-0.0123
G01 X-45.5750 Y14.0000
G00 X-45.5750 Y14.0000
G01 F76.20
G01 Z-0.8000
G01 F150.00
G01 X-45.5749 Y-0.0123
G01 X-45.5733 Y-0.0441
G01 X-45.5705 Y-0.0722
G01 X-45.5639 Y-0.1127
G01 X-45.5547 Y-0.1516
G01 X-45.5454 Y-0.1821
G01 X-45.5336 Y-0.2144
G01 X-45.5151 Y-0.2557
G01 X-45.5012 Y-0.2818
G01 X-45.4848 Y-0.3092
G01 X-45.4603 Y-0.3447
G01 X-45.4366 Y-0.3742
G01 X-45.4177 Y-0.3952
G01 X-45.3978 Y-0.4152
G01 X-45.3742 Y-0.4366
G01 X-45.3447 Y-0.4603
G01 X-45.3092 Y-0.4848
G01 X-45.2818 Y-0.5012
G01 X-45.2602 Y-0.5128
G01 X-45.2347 Y-0.5249
G01 X-45.2052 Y-0.5371
G01 X-45.1821 Y-0.5454
G01 X-45.1551 Y-0.5537
G01 X-45.1127 Y-0.5639
G01 X-45.0722 Y-0.5705
G01 X-45.0405 Y-0.5736
G01 X-45.0000 Y-0.5750
G01 X-23.5000 Y-0.5750
G00 X-23.5000 Y-0.5750
G01 F76.20
G01 Z-1.2000
G01 F150.00
G01 X-45.0000 Y-0.5750
G01 X-45.0405 Y-0.5736
G01 X-45.0722 Y-0.5705
G01 X-45.1127 Y-0.5639
G01 X-45.1551 Y-0.5537
G01 X-45.1821 Y-0.5454
G01 X-45.2052 Y-0.5371
G01 X-45.2347 Y-0.5249
G01 X-45.2602 Y-0.5128
G01 X-45.2818 Y-0.5012
G01 X-45.3092 Y-0.4848
G01 X-45.3447 Y-0.4603
G01 X-45.3742 Y-0.4366
G01 X-45.3978 Y-0.4152
G01 X-45.4177 Y-0.3952
G01 X-45.4366 Y-0.3742
G01 X-45.4603 Y-0.3447
G01 X-45.4848 Y-0.3092
G01 X-45.5012 Y-0.2818
G01 X-45.5151 Y-0.2557
G01 X-45.5336 Y-0.2144
G01 X-45.5454 Y-0.1821
G01 X-45.5547 Y-0.1516
G01 X-45.5639 Y-0.1127
G01 X-45.5705 Y-0.0722
G01 X-45.5733 Y-0.0441
G01 X-45.5749 Y-0.0123
G01 X-45.5750 Y14.0000
G00 X-45.5750 Y14.0000
G01 F76.20
G01 Z-1.6000
G01 F150.00
G01 X-45.5749 Y-0.0123
G01 X-45.5733 Y-0.0441
G01 X-45.5705 Y-0.0722
G01 X-45.5639 Y-0.1127
G01 X-45.5547 Y-0.1516
G01 X-45.5454 Y-0.1821
G01 X-45.5336 Y-0.2144
G01 X-45.5151 Y-0.2557
G01 X-45.5012 Y-0.2818
G01 X-45.4848 Y-0.3092
G01 X-45.4603 Y-0.3447
G01 X-45.4366 Y-0.3742
G01 X-45.4177 Y-0.3952
G01 X-45.3978 Y-0.4152
G01 X-45.3742 Y-0.4366
G01 X-45.3447 Y-0.4603
G01 X-45.3092 Y-0.4848
G01 X-45.2818 Y-0.5012
G01 X-45.2602 Y-0.5128
G01 X-45.2347 Y-0.5249
G01 X-45.2052 Y-0.5371
G01 X-45.1821 Y-0.5454
G01 X-45.1551 Y-0.5537
G01 X-45.1127 Y-0.5639
G01 X-45.0722 Y-0.5705
G01 X-45.0405 Y-0.5736
G01 X-45.0000 Y-0.5750
G01 X-23.5000 Y-0.5750
G00 X-23.5000 Y-0.5750
G01 F76.20
G01 Z-1.8000
G01 F150.00
G01 X-45.0000 Y-0.5750
G01 X-45.0405 Y-0.5736
G01 X-45.0722 Y-0.5705
G01 X-45.1127 Y-0.5639
G01 X-45.1551 Y-0.5537
G01 X-45.1821 Y-0.5454
G01 X-45.2052 Y-0.5371
G01 X-45.2347 Y-0.5249
G01 X-45.2602 Y-0.5128
G01 X-45.2818 Y-0.5012
G01 X-45.3092 Y-0.4848
G01 X-45.3447 Y-0.4603
G01 X-45.3742 Y-0.4366
G01 X-45.3978 Y-0.4152
G01 X-45.4177 Y-0.3952
G01 X-45.4366 Y-0.3742
G01 X-45.4603 Y-0.3447
G01 X-45.4848 Y-0.3092
G01 X-45.5012 Y-0.2818
G01 X-45.5151 Y-0.2557
G01 X-45.5336 Y-0.2144
G01 X-45.5454 Y-0.1821
G01 X-45.5547 Y-0.1516
G01 X-45.5639 Y-0.1127
G01 X-45.5705 Y-0.0722
G01 X-45.5733 Y-0.0441
G01 X-45.5749 Y-0.0123
G01 X-45.5750 Y14.0000
G00 Z1.0000
G00 X-45.5750 Y16.0000
G01 F76.20
G01 Z-0.4000
G01 F150.00
G01 X-45.5749 Y30.0123
G01 X-45.5733 Y30.0441
G01 X-45.5705 Y30.0722
G01 X-45.5639 Y30.1127
G01 X-45.5547 Y30.1516
G01 X-45.5454 Y30.1821
G01 X-45.5336 Y30.2144
G01 X-45.5151 Y30.2557
G01 X-45.5012 Y30.2818
G01 X-45.4848 Y30.3092
G01 X-45.4603 Y30.3447
G01 X-45.4366 Y30.3742
G01 X-45.4177 Y30.3952
G01 X-45.3978 Y30.4152
G01 X-45.3742 Y30.4366
G01 X-45.3447 Y30.4603
G01 X-45.3092 Y30.4848
G01 X-45.2818 Y30.5012
G01 X-45.2602 Y30.5128
G01 X-45.2347 Y30.5249
G01 X-45.2052 Y30.5371
G01 X-45.1821 Y30.5454
G01 X-45.1551 Y30.5537
G01 X-45.1127 Y30.5639
G01 X-45.0722 Y30.5705
G01 X-45.0405 Y30.5736
G01 X-45.0000 Y30.5750
G01 X-23.5000 Y30.5750
G00 X-23.5000 Y30.5750
G01 F76.20
G01 Z-0.8000
G01 F150.00
G01 X-45.0000 Y30.5750
G01 X-45.0405 Y30.5736
G01 X-45.0722 Y30.5705
G01 X-45.1127 Y30.5639
G01 X-45.1551 Y30.5537
G01 X-45.1821 Y30.5454
G01 X-45.2052 Y30.5371
G01 X-45.2347 Y30.5249
G01 X-45.2602 Y30.5128
G01 X-45.2818 Y30.5012
G01 X-45.3092 Y30.4848
G01 X-45.3447 Y30.4603
G01 X-45.3742 Y30.4366
G01 X-45.3978 Y30.4152
G01 X-45.4177 Y30.3952
G01 X-45.4366 Y30.3742
G01 X-45.4603 Y30.3447
G01 X-45.4848 Y30.3092
G01 X-45.5012 Y30.2818
G01 X-45.5151 Y30.2557
G01 X-45.5336 Y30.2144
G01 X-45.5454 Y30.1821
G01 X-45.5547 Y30.1516
G01 X-45.5639 Y30.1127
G01 X-45.5705 Y30.0722
G01 X-45.5733 Y30.0441
G01 X-45.5749 Y30.0123
G01 X-45.5750 Y16.0000
G00 X-45.5750 Y16.0000
G01 F76.20
G01 Z-1.2000
G01 F150.00
G01 X-45.5749 Y30.0123
G01 X-45.5733 Y30.0441
G01 X-45.5705 Y30.0722
G01 X-45.5639 Y30.1127
G01 X-45.5547 Y30.1516
G01 X-45.5454 Y30.1821
G01 X-45.5336 Y30.2144
G01 X-45.5151 Y30.2557
G01 X-45.5012 Y30.2818
G01 X-45.4848 Y30.3092
G01 X-45.4603 Y30.3447
G01 X-45.4366 Y30.3742
G01 X-45.4177 Y30.3952
G01 X-45.3978 Y30.4152
G01 X-45.3742 Y30.4366
G01 X-45.3447 Y30.4603
G01 X-45.3092 Y30.4848
G01 X-45.2818 Y30.5012
G01 X-45.2602 Y30.5128
G01 X-45.2347 Y30.5249
G01 X-45.2052 Y30.5371
G01 X-45.1821 Y30.5454
G01 X-45.1551 Y30.5537
G01 X-45.1127 Y30.5639
G01 X-45.0722 Y30.5705
G01 X-45.0405 Y30.5736
G01 X-45.0000 Y30.5750
G01 X-23.5000 Y30.5750
G00 X-23.5000 Y30.5750
G01 F76.20
G01 Z-1.6000
G01 F150.00
G01 X-45.0000 Y30.5750
G01 X-45.0405 Y30.5736
G01 X-45.0722 Y30.5705
G01 X-45.1127 Y30.5639
G01 X-45.1551 Y30.5537
G01 X-45.1821 Y30.5454
G01 X-45.2052 Y30.5371
G01 X-45.2347 Y30.5249
G01 X-45.2602 Y30.5128
G01 X-45.2818 Y30.5012
G01 X-45.3092 Y30.4848
G01 X-45.3447 Y30.4603
G01 X-45.3742 Y30.4366
G01 X-45.3978 Y30.4152
G01 X-45.4177 Y30.3952
G01 X-45.4366 Y30.3742
G01 X-45.4603 Y30.3447
G01 X-45.4848 Y30.3092
G01 X-45.5012 Y30.2818
G01 X-45.5151 Y30.2557
G01 X-45.5336 Y30.2144
G01 X-45.5454 Y30.1821
G01 X-45.5547 Y30.1516
G01 X-45.5639 Y30.1127
G01 X-45.5705 Y30.0722
G01 X-45.5733 Y30.0441
G01 X-45.5749 Y30.0123
G01 X-45.5750 Y16.0000
G00 X-45.5750 Y16.0000
G01 F76.20
G01 Z-1.8000
G01 F150.00
G01 X-45.5749 Y30.0123
G01 X-45.5733 Y30.0441
G01 X-45.5705 Y30.0722
G01 X-45.5639 Y30.1127
G01 X-45.5547 Y30.1516
G01 X-45.5454 Y30.1821
G01 X-45.5336 Y30.2144
G01 X-45.5151 Y30.2557
G01 X-45.5012 Y30.2818
G01 X-45.4848 Y30.3092
G01 X-45.4603 Y30.3447
G01 X-45.4366 Y30.3742
G01 X-45.4177 Y30.3952
G01 X-45.3978 Y30.4152
G01 X-45.3742 Y30.4366
G01 X-45.3447 Y30.4603
G01 X-45.3092 Y30.4848
G01 X-45.2818 Y30.5012
G01 X-45.2602 Y30.5128
G01 X-45.2347 Y30.5249
G01 X-45.2052 Y30.5371
G01 X-45.1821 Y30.5454
G01 X-45.1551 Y30.5537
G01 X-45.1127 Y30.5639
G01 X-45.0722 Y30.5705
G01 X-45.0405 Y30.5736
G01 X-45.0000 Y30.5750
G01 X-23.5000 Y30.5750
G00 Z1.0000
G00 X-21.5000 Y30.5750
G01 F76.20
G01 Z-0.4000
G01 F150.00
G01 X0.0000 Y30.5750
G01 X0.0405 Y30.5736
G01 X0.0722 Y30.5705
G01 X0.1127 Y30.5639
G01 X0.1551 Y30.5537
G01 X0.1821 Y30.5454
G01 X0.2052 Y30.5371
G01 X0.2347 Y30.5249
G01 X0.2602 Y30.5128
G01 X0.2818 Y30.5012
G01 X0.3092 Y30.4848
G01 X0.3447 Y30.4603
G01 X0.3742 Y30.4366
G01 X0.3978 Y30.4152
G01 X0.4177 Y30.3952
G01 X0.4366 Y30.3742
G01 X0.4603 Y30.3447
G01 X0.4848 Y30.3092
G01 X0.5012 Y30.2818
G01 X0.5150 Y30.2557
G01 X0.5336 Y30.2144
G01 X0.5454 Y30.1821
G01 X0.5547 Y30.1516
G01 X0.5639 Y30.1127
G01 X0.5705 Y30.0722
G01 X0.5733 Y30.0441
G01 X0.5749 Y30.0123
G01 X0.5750 Y16.0000
G00 X0.5750 Y16.0000
G01 F76.20
G01 Z-0.8000
G01 F150.00
G01 X0.5749 Y30.0123
G01 X0.5733 Y30.0441
G01 X0.5705 Y30.0722
G01 X0.5639 Y30.1127
G01 X0.5547 Y30.1516
G01 X0.5454 Y30.1821
G01 X0.5336 Y30.2144
G01 X0.5150 Y30.2557
G01 X0.5012 Y30.2818
G01 X0.4848 Y30.3092
G01 X0.4603 Y30.3447
G01 X0.4366 Y30.3742
G01 X0.4177 Y30.3952
G01 X0.3978 Y30.4152
G01 X0.3742 Y30.4366
G01 X0.3447 Y30.4603
G01 X0.3092 Y30.4848
G01 X0.2818 Y30.5012
G01 X0.2602 Y30.5128
G01 X0.2347 Y30.5249
G01 X0.2052 Y30.5371
G01 X0.1821 Y30.5454
G01 X0.1551 Y30.5537
G01 X0.1127 Y30.5639
G01 X0.0722 Y30.5705
G01 X0.0405 Y30.5736
G01 X0.0000 Y30.5750
G01 X-21.5000 Y30.5750
G00 X-21.5000 Y30.5750
G01 F76.20
G01 Z-1.2000
G01 F150.00
G01 X0.0000 Y30.5750
G01 X0.0405 Y30.5736
G01 X0.0722 Y30.5705
G01 X0.1127 Y30.5639
G01 X0.1551 Y30.5537
G01 X0.1821 Y30.5454
G01 X0.2052 Y30.5371
G01 X0.2347 Y30.5249
G01 X0.2602 Y30.5128
G01 X0.2818 Y30.5012
G01 X0.3092 Y30.4848
G01 X0.3447 Y30.4603
G01 X0.3742 Y30.4366
G01 X0.3978 Y30.4152
G01 X0.4177 Y30.3952
G01 X0.4366 Y30.3742
G01 X0.4603 Y30.3447
G01 X0.4848 Y30.3092
G01 X0.5012 Y30.2818
G01 X0.5150 Y30.2557
G01 X0.5336 Y30.2144
G01 X0.5454 Y30.1821
G01 X0.5547 Y30.1516
G01 X0.5639 Y30.1127
G01 X0.5705 Y30.0722
G01 X0.5733 Y30.0441
G01 X0.5749 Y30.0123
G01 X0.5750 Y16.0000
G00 X0.5750 Y16.0000
G01 F76.20
G01 Z-1.6000
G01 F150.00
G01 X0.5749 Y30.0123
G01 X0.5733 Y30.0441
G01 X0.5705 Y30.0722
G01 X0.5639 Y30.1127
G01 X0.5547 Y30.1516
G01 X0.5454 Y30.1821
G01 X0.5336 Y30.2144
G01 X0.5150 Y30.2557
G01 X0.5012 Y30.2818
G01 X0.4848 Y30.3092
G01 X0.4603 Y30.3447
G01 X0.4366 Y30.3742
G01 X0.4177 Y30.3952
G01 X0.3978 Y30.4152
G01 X0.3742 Y30.4366
G01 X0.3447 Y30.4603
G01 X0.3092 Y30.4848
G01 X0.2818 Y30.5012
G01 X0.2602 Y30.5128
G01 X0.2347 Y30.5249
G01 X0.2052 Y30.5371
G01 X0.1821 Y30.5454
G01 X0.1551 Y30.5537
G01 X0.1127 Y30.5639
G01 X0.0722 Y30.5705
G01 X0.0405 Y30.5736
G01 X0.0000 Y30.5750
G01 X-21.5000 Y30.5750
G00 X-21.5000 Y30.5750
G01 F76.20
G01 Z-1.8000
G01 F150.00
G01 X0.0000 Y30.5750
G01 X0.0405 Y30.5736
G01 X0.0722 Y30.5705
G01 X0.1127 Y30.5639
G01 X0.1551 Y30.5537
G01 X0.1821 Y30.5454
G01 X0.2052 Y30.5371
G01 X0.2347 Y30.5249
G01 X0.2602 Y30.5128
G01 X0.2818 Y30.5012
G01 X0.3092 Y30.4848
G01 X0.3447 Y30.4603
G01 X0.3742 Y30.4366
G01 X0.3978 Y30.4152
G01 X0.4177 Y30.3952
G01 X0.4366 Y30.3742
G01 X0.4603 Y30.3447
G01 X0.4848 Y30.3092
G01 X0.5012 Y30.2818
G01 X0.5150 Y30.2557
G01 X0.5336 Y30.2144
G01 X0.5454 Y30.1821
G01 X0.5547 Y30.1516
G01 X0.5639 Y30.1127
G01 X0.5705 Y30.0722
G01 X0.5733 Y30.0441
G01 X0.5749 Y30.0123
G01 X0.5750 Y16.0000
G00 Z1.0000
G00 X0.5750 Y14.0000
G01 F76.20
G01 Z-0.4000
G01 F150.00
G01 X0.5749 Y-0.0123
G00 X0.5749 Y-0.0123
G01 F76.20
G01 Z-0.8000
G01 F150.00
G01 X0.5750 Y14.0000
G00 X0.5750 Y14.0000
G01 F76.20
G01 Z-1.2000
G01 F150.00
G01 X0.5749 Y-0.0123
G00 X0.5749 Y-0.0123
G01 F76.20
G01 Z-1.6000
G01 F150.00
G01 X0.5750 Y14.0000
G00 X0.5750 Y14.0000
G01 F76.20
G01 Z-1.8000
G01 F150.00
G01 X0.5749 Y-0.0123
G00 Z1.0000
M05
G00 Z1.0000
G00 Z30.00
G00 X0.0 Y0.0

