(G-CODE GENERATED BY FLATCAM v8.99 - www.flatcam.org - Version Date: 2019/12/15)

(Name: cuivre_multicapteur)
(Type: G-code from Geometry)
(Units: MM)

(Created on Tuesday, 24 December 2019 at 00:17)

(TOOL DIAMETER: 0.6 mm)
(Feedrate: 150.0 mm/min)
(Feedrate_Z: 76.2 mm/min)
(Feedrate rapids 76.2 mm/min)

(Z_Cut: -0.2 mm)
(Z_Move: 1.0 mm)
(Z Toolchange: 12.7 mm)
(X,Y Toolchange: 0.0000, 0.0000 mm)
(Z Start: None mm)
(Z End: 20.0 mm)
(Steps per circle: 128)
(Preprocessor Geometry: default)

(X range:  -44.5251 ...   -0.4749  mm)
(Y range:    0.4749 ...   29.5251  mm)

(Spindle Speed: 12000 RPM)
G21
G90
G94




G01 F150.00
G00 Z1.0000

M03 S12000
G00 X-8.4184 Y3.9362
G01 F76.20
G01 Z-0.2000
G01 F150.00
G01 X-8.4122 Y3.8506
G01 X-8.4031 Y3.7800
G01 X-8.3906 Y3.7099
G01 X-8.3747 Y3.6406
G01 X-8.3553 Y3.5721
G01 X-8.3327 Y3.5046
G01 X-8.3067 Y3.4383
G01 X-8.2779 Y3.3741
G01 X-8.2452 Y3.3100
G01 X-8.2098 Y3.2483
G01 X-8.1715 Y3.1884
G01 X-8.1337 Y3.1349
G01 X-8.0861 Y3.0745
G01 X-8.0394 Y3.0208
G01 X-7.9953 Y2.9747
G01 X-7.9492 Y2.9306
G01 X-7.8941 Y2.8827
G01 X-7.8351 Y2.8363
G01 X-7.7816 Y2.7985
G01 X-7.7091 Y2.7526
G01 X-7.6470 Y2.7178
G01 X-7.5833 Y2.6861
G01 X-7.5215 Y2.6590
G01 X-7.4515 Y2.6324
G01 X-7.3838 Y2.6104
G01 X-7.3152 Y2.5918
G01 X-7.2532 Y2.5779
G01 X-7.1755 Y2.5647
G01 X-7.1177 Y2.5576
G01 X-7.0485 Y2.5522
G01 X-6.9626 Y2.5501
G01 X-6.8915 Y2.5522
G01 X-6.8206 Y2.5578
G01 X-6.7500 Y2.5669
G01 X-6.6868 Y2.5779
G01 X-6.6106 Y2.5953
G01 X-6.5421 Y2.6147
G01 X-6.4746 Y2.6373
G01 X-6.4185 Y2.6590
G01 X-6.3441 Y2.6921
G01 X-6.2800 Y2.7248
G01 X-6.2183 Y2.7602
G01 X-6.1584 Y2.7985
G01 X-6.1049 Y2.8363
G01 X-6.0559 Y2.8745
G01 X-5.9908 Y2.9306
G01 X-5.9447 Y2.9747
G01 X-5.8907 Y3.0318
G01 X-5.8527 Y3.0759
G01 X-5.8063 Y3.1349
G01 X-5.7604 Y3.2006
G01 X-5.7226 Y3.2609
G01 X-5.6878 Y3.3230
G01 X-5.6561 Y3.3867
G01 X-5.6290 Y3.4485
G01 X-5.6024 Y3.5185
G01 X-5.5804 Y3.5862
G01 X-5.5618 Y3.6548
G01 X-5.5479 Y3.7168
G01 X-5.5347 Y3.7945
G01 X-5.5276 Y3.8523
G01 X-5.5222 Y3.9215
G01 X-5.5200 Y4.0000
G01 X-5.5215 Y4.0638
G01 X-5.5264 Y4.1348
G01 X-5.5369 Y4.2200
G01 X-5.5479 Y4.2832
G01 X-5.5618 Y4.3452
G01 X-5.5847 Y4.4279
G01 X-5.6073 Y4.4954
G01 X-5.6290 Y4.5515
G01 X-5.6561 Y4.6133
G01 X-5.6948 Y4.6900
G01 X-5.7302 Y4.7517
G01 X-5.7685 Y4.8116
G01 X-5.8010 Y4.8578
G01 X-5.8539 Y4.9255
G01 X-5.9006 Y4.9792
G01 X-5.9396 Y5.0200
G01 X-6.0018 Y5.0793
G01 X-6.0459 Y5.1173
G01 X-6.1004 Y5.1602
G01 X-6.1697 Y5.2091
G01 X-6.1697 Y21.6985
G01 X-4.8235 Y23.0447
G01 X-3.0428 Y23.0447
G01 X-3.0130 Y23.0195
G01 X-2.9717 Y22.9877
G01 X-2.9288 Y22.9580
G01 X-2.8846 Y22.9304
G01 X-2.8391 Y22.9050
G01 X-2.8050 Y22.8878
G01 X-2.7582 Y22.8667
G01 X-2.7097 Y22.8476
G01 X-2.6462 Y22.8267
G01 X-2.5959 Y22.8131
G01 X-2.5449 Y22.8021
G01 X-2.4935 Y22.7935
G01 X-2.4547 Y22.7887
G01 X-2.4045 Y22.7847
G01 X-2.3524 Y22.7831
G01 X-2.2855 Y22.7847
G01 X-2.2336 Y22.7889
G01 X-2.1819 Y22.7957
G01 X-2.1375 Y22.8035
G01 X-2.0941 Y22.8131
G01 X-2.0297 Y22.8310
G01 X-1.9803 Y22.8476
G01 X-1.9420 Y22.8625
G01 X-1.8976 Y22.8819
G01 X-1.8509 Y22.9050
G01 X-1.7928 Y22.9380
G01 X-1.7489 Y22.9661
G01 X-1.7111 Y22.9930
G01 X-1.6770 Y23.0195
G01 X-1.6373 Y23.0532
G01 X-1.5941 Y23.0941
G01 X-1.5532 Y23.1373
G01 X-1.5276 Y23.1670
G01 X-1.4965 Y23.2065
G01 X-1.4580 Y23.2612
G01 X-1.4304 Y23.3054
G01 X-1.4050 Y23.3509
G01 X-1.3878 Y23.3850
G01 X-1.3625 Y23.4420
G01 X-1.3427 Y23.4942
G01 X-1.3267 Y23.5438
G01 X-1.3167 Y23.5798
G01 X-1.3021 Y23.6451
G01 X-1.2935 Y23.6965
G01 X-1.2887 Y23.7353
G01 X-1.2840 Y23.8002
G01 X-1.2830 Y23.8450
G01 X-1.2840 Y23.8898
G01 X-1.2875 Y23.9418
G01 X-1.2957 Y24.0081
G01 X-1.3035 Y24.0525
G01 X-1.3131 Y24.0959
G01 X-1.3310 Y24.1603
G01 X-1.3476 Y24.2097
G01 X-1.3625 Y24.2480
G01 X-1.3819 Y24.2924
G01 X-1.4120 Y24.3521
G01 X-1.4380 Y24.3972
G01 X-1.4580 Y24.4288
G01 X-1.4930 Y24.4789
G01 X-1.5288 Y24.5244
G01 X-1.5631 Y24.5636
G01 X-1.5889 Y24.5907
G01 X-1.6264 Y24.6269
G01 X-1.6770 Y24.6705
G01 X-1.7111 Y24.6970
G01 X-1.7489 Y24.7239
G01 X-1.8054 Y24.7596
G01 X-1.8509 Y24.7850
G01 X-1.8850 Y24.8022
G01 X-1.9420 Y24.8275
G01 X-1.9803 Y24.8424
G01 X-2.0297 Y24.8590
G01 X-2.0941 Y24.8769
G01 X-2.1451 Y24.8879
G01 X-2.1965 Y24.8965
G01 X-2.2353 Y24.9013
G01 X-2.2855 Y24.9053
G01 X-2.3450 Y24.9070
G01 X-2.4045 Y24.9053
G01 X-2.4564 Y24.9011
G01 X-2.4935 Y24.8965
G01 X-2.5525 Y24.8865
G01 X-2.6102 Y24.8733
G01 X-2.6603 Y24.8590
G01 X-2.6958 Y24.8473
G01 X-2.7480 Y24.8275
G01 X-2.8050 Y24.8022
G01 X-2.8521 Y24.7780
G01 X-2.8972 Y24.7520
G01 X-2.9288 Y24.7320
G01 X-2.9789 Y24.6970
G01 X-3.0130 Y24.6705
G01 X-3.0428 Y24.6452
G01 X-5.1550 Y24.6452
G01 X-5.1869 Y24.6446
G01 X-5.2261 Y24.6420
G01 X-5.2651 Y24.6376
G01 X-5.3114 Y24.6298
G01 X-5.3423 Y24.6230
G01 X-5.3802 Y24.6128
G01 X-5.4176 Y24.6009
G01 X-5.4579 Y24.5857
G01 X-5.4905 Y24.5715
G01 X-5.5387 Y24.5472
G01 X-5.5727 Y24.5275
G01 X-5.6057 Y24.5062
G01 X-5.6330 Y24.4868
G01 X-5.6569 Y24.4682
G01 X-5.6869 Y24.4428
G01 X-5.7156 Y24.4160
G01 X-7.5410 Y22.5906
G01 X-7.5678 Y22.5619
G01 X-7.5839 Y22.5433
G01 X-7.6083 Y22.5126
G01 X-7.6312 Y22.4807
G01 X-7.6533 Y22.4465
G01 X-7.6791 Y22.4007
G01 X-7.6965 Y22.3655
G01 X-7.7107 Y22.3329
G01 X-7.7209 Y22.3065
G01 X-7.7336 Y22.2693
G01 X-7.7480 Y22.2173
G01 X-7.7548 Y22.1864
G01 X-7.7604 Y22.1547
G01 X-7.7670 Y22.1011
G01 X-7.7696 Y22.0619
G01 X-7.7703 Y22.0300
G01 X-7.7703 Y5.2090
G01 X-7.8396 Y5.1602
G01 X-7.8955 Y5.1161
G01 X-7.9382 Y5.0793
G01 X-7.9953 Y5.0253
G01 X-8.0493 Y4.9682
G01 X-8.0955 Y4.9141
G01 X-8.1337 Y4.8651
G01 X-8.1715 Y4.8116
G01 X-8.2106 Y4.7505
G01 X-8.2522 Y4.6770
G01 X-8.2779 Y4.6259
G01 X-8.3067 Y4.5617
G01 X-8.3376 Y4.4815
G01 X-8.3596 Y4.4138
G01 X-8.3747 Y4.3594
G01 X-8.3906 Y4.2901
G01 X-8.4053 Y4.2055
G01 X-8.4136 Y4.1348
G01 X-8.4185 Y4.0638
G01 X-8.4199 Y4.0074
G01 X-8.4184 Y3.9362
G00 Z1.0000
G00 X-5.7994 Y9.9681
G01 F76.20
G01 Z-0.2000
G01 F150.00
G01 X-5.7956 Y9.9142
G01 X-5.7904 Y9.8753
G01 X-5.7848 Y9.8436
G01 X-5.7780 Y9.8127
G01 X-5.7678 Y9.7748
G01 X-5.7509 Y9.7235
G01 X-5.7364 Y9.6870
G01 X-5.7205 Y9.6520
G01 X-5.7091 Y9.6293
G01 X-5.6901 Y9.5950
G01 X-5.6694 Y9.5616
G01 X-5.6471 Y9.5293
G01 X-5.6139 Y9.4867
G01 X-5.5879 Y9.4572
G01 X-5.5659 Y9.4341
G01 X-4.2703 Y8.1385
G01 X-4.2703 Y5.4500
G01 X-4.6339 Y5.4497
G01 X-4.6617 Y5.4471
G01 X-4.6891 Y5.4419
G01 X-4.7159 Y5.4343
G01 X-4.7418 Y5.4241
G01 X-4.7681 Y5.4109
G01 X-4.7929 Y5.3952
G01 X-4.8046 Y5.3864
G01 X-4.8160 Y5.3771
G01 X-4.8373 Y5.3569
G01 X-4.8471 Y5.3460
G01 X-4.8652 Y5.3229
G01 X-4.8809 Y5.2981
G01 X-4.8879 Y5.2851
G01 X-4.8995 Y5.2590
G01 X-4.9084 Y5.2326
G01 X-4.9119 Y5.2191
G01 X-4.9148 Y5.2054
G01 X-4.9187 Y5.1778
G01 X-4.9200 Y5.1500
G01 X-4.9200 Y2.8500
G01 X-4.9187 Y2.8222
G01 X-4.9171 Y2.8083
G01 X-4.9119 Y2.7809
G01 X-4.9043 Y2.7541
G01 X-4.8995 Y2.7410
G01 X-4.8879 Y2.7149
G01 X-4.8734 Y2.6894
G01 X-4.8652 Y2.6771
G01 X-4.8564 Y2.6654
G01 X-4.8373 Y2.6431
G01 X-4.8160 Y2.6229
G01 X-4.7929 Y2.6048
G01 X-4.7806 Y2.5966
G01 X-4.7551 Y2.5821
G01 X-4.7418 Y2.5759
G01 X-4.7159 Y2.5657
G01 X-4.6891 Y2.5581
G01 X-4.6754 Y2.5552
G01 X-4.6478 Y2.5513
G01 X-4.6339 Y2.5503
G01 X-2.3200 Y2.5500
G01 X-2.2922 Y2.5513
G01 X-2.2646 Y2.5552
G01 X-2.2509 Y2.5581
G01 X-2.2374 Y2.5616
G01 X-2.2110 Y2.5705
G01 X-2.1849 Y2.5821
G01 X-2.1594 Y2.5966
G01 X-2.1354 Y2.6136
G01 X-2.1240 Y2.6229
G01 X-2.1131 Y2.6327
G01 X-2.0929 Y2.6540
G01 X-2.0748 Y2.6771
G01 X-2.0666 Y2.6894
G01 X-2.0521 Y2.7149
G01 X-2.0459 Y2.7282
G01 X-2.0357 Y2.7541
G01 X-2.0316 Y2.7674
G01 X-2.0252 Y2.7946
G01 X-2.0213 Y2.8222
G01 X-2.0203 Y2.8361
G01 X-2.0200 Y5.1500
G01 X-2.0213 Y5.1778
G01 X-2.0252 Y5.2054
G01 X-2.0281 Y5.2191
G01 X-2.0357 Y5.2459
G01 X-2.0405 Y5.2590
G01 X-2.0521 Y5.2851
G01 X-2.0591 Y5.2981
G01 X-2.0748 Y5.3229
G01 X-2.0929 Y5.3460
G01 X-2.1027 Y5.3569
G01 X-2.1131 Y5.3673
G01 X-2.1354 Y5.3864
G01 X-2.1594 Y5.4034
G01 X-2.1849 Y5.4179
G01 X-2.1982 Y5.4241
G01 X-2.2241 Y5.4343
G01 X-2.2509 Y5.4419
G01 X-2.2783 Y5.4471
G01 X-2.3061 Y5.4497
G01 X-2.6697 Y5.4500
G01 X-2.6697 Y8.4700
G01 X-2.6712 Y8.5166
G01 X-2.6744 Y8.5558
G01 X-2.6774 Y8.5801
G01 X-2.6852 Y8.6264
G01 X-2.6956 Y8.6716
G01 X-2.7064 Y8.7093
G01 X-2.7141 Y8.7326
G01 X-2.7293 Y8.7729
G01 X-2.7495 Y8.8180
G01 X-2.7678 Y8.8537
G01 X-2.7875 Y8.8877
G01 X-2.8088 Y8.9207
G01 X-2.8229 Y8.9407
G01 X-2.8468 Y8.9719
G01 X-2.8722 Y9.0019
G01 X-2.9041 Y9.0359
G01 X-4.1997 Y10.3315
G01 X-4.1997 Y19.6685
G01 X-3.3635 Y20.5047
G01 X-3.0428 Y20.5047
G01 X-3.0130 Y20.4795
G01 X-2.9717 Y20.4477
G01 X-2.9288 Y20.4180
G01 X-2.8846 Y20.3904
G01 X-2.8391 Y20.3650
G01 X-2.7924 Y20.3419
G01 X-2.7480 Y20.3225
G01 X-2.6958 Y20.3027
G01 X-2.6462 Y20.2867
G01 X-2.5959 Y20.2731
G01 X-2.5525 Y20.2635
G01 X-2.4935 Y20.2535
G01 X-2.4418 Y20.2475
G01 X-2.3898 Y20.2440
G01 X-2.3450 Y20.2430
G01 X-2.2855 Y20.2447
G01 X-2.2336 Y20.2489
G01 X-2.1819 Y20.2557
G01 X-2.1375 Y20.2635
G01 X-2.0798 Y20.2767
G01 X-2.0297 Y20.2910
G01 X-1.9942 Y20.3027
G01 X-1.9454 Y20.3211
G01 X-1.8976 Y20.3419
G01 X-1.8509 Y20.3650
G01 X-1.8054 Y20.3904
G01 X-1.7612 Y20.4180
G01 X-1.7111 Y20.4530
G01 X-1.6770 Y20.4795
G01 X-1.6373 Y20.5132
G01 X-1.5941 Y20.5541
G01 X-1.5631 Y20.5864
G01 X-1.5276 Y20.6270
G01 X-1.4930 Y20.6711
G01 X-1.4580 Y20.7212
G01 X-1.4372 Y20.7540
G01 X-1.4120 Y20.7979
G01 X-1.3878 Y20.8450
G01 X-1.3625 Y20.9020
G01 X-1.3427 Y20.9542
G01 X-1.3267 Y21.0038
G01 X-1.3167 Y21.0398
G01 X-1.3035 Y21.0975
G01 X-1.2935 Y21.1565
G01 X-1.2875 Y21.2082
G01 X-1.2840 Y21.2602
G01 X-1.2831 Y21.2976
G01 X-1.2840 Y21.3498
G01 X-1.2875 Y21.4018
G01 X-1.2957 Y21.4681
G01 X-1.3049 Y21.5194
G01 X-1.3167 Y21.5702
G01 X-1.3267 Y21.6062
G01 X-1.3476 Y21.6697
G01 X-1.3667 Y21.7182
G01 X-1.3882 Y21.7657
G01 X-1.4120 Y21.8121
G01 X-1.4304 Y21.8446
G01 X-1.4661 Y21.9011
G01 X-1.4965 Y21.9435
G01 X-1.5288 Y21.9844
G01 X-1.5532 Y22.0127
G01 X-1.5941 Y22.0559
G01 X-1.6373 Y22.0968
G01 X-1.6770 Y22.1305
G01 X-1.7111 Y22.1570
G01 X-1.7489 Y22.1839
G01 X-1.7940 Y22.2128
G01 X-1.8509 Y22.2450
G01 X-1.8976 Y22.2681
G01 X-1.9420 Y22.2875
G01 X-1.9803 Y22.3024
G01 X-2.0297 Y22.3190
G01 X-2.0798 Y22.3333
G01 X-2.1375 Y22.3465
G01 X-2.1965 Y22.3565
G01 X-2.2482 Y22.3625
G01 X-2.3002 Y22.3660
G01 X-2.3376 Y22.3669
G01 X-2.3898 Y22.3660
G01 X-2.4418 Y22.3625
G01 X-2.5081 Y22.3543
G01 X-2.5525 Y22.3465
G01 X-2.5959 Y22.3369
G01 X-2.6603 Y22.3190
G01 X-2.7097 Y22.3024
G01 X-2.7480 Y22.2875
G01 X-2.7924 Y22.2681
G01 X-2.8521 Y22.2380
G01 X-2.8972 Y22.2120
G01 X-2.9288 Y22.1920
G01 X-2.9789 Y22.1570
G01 X-3.0130 Y22.1305
G01 X-3.0428 Y22.1052
G01 X-3.6950 Y22.1052
G01 X-3.7269 Y22.1046
G01 X-3.7661 Y22.1020
G01 X-3.8051 Y22.0976
G01 X-3.8514 Y22.0898
G01 X-3.8966 Y22.0794
G01 X-3.9343 Y22.0686
G01 X-3.9715 Y22.0559
G01 X-4.0080 Y22.0414
G01 X-4.0431 Y22.0255
G01 X-4.0787 Y22.0072
G01 X-4.1127 Y21.9875
G01 X-4.1334 Y21.9744
G01 X-4.1730 Y21.9468
G01 X-4.2083 Y21.9189
G01 X-4.2378 Y21.8929
G01 X-4.2556 Y21.8760
G01 X-5.5710 Y20.5606
G01 X-5.5978 Y20.5319
G01 X-5.6139 Y20.5133
G01 X-5.6383 Y20.4826
G01 X-5.6612 Y20.4507
G01 X-5.6833 Y20.4165
G01 X-5.7091 Y20.3707
G01 X-5.7265 Y20.3355
G01 X-5.7407 Y20.3029
G01 X-5.7509 Y20.2765
G01 X-5.7636 Y20.2393
G01 X-5.7780 Y20.1873
G01 X-5.7848 Y20.1564
G01 X-5.7904 Y20.1247
G01 X-5.7970 Y20.0711
G01 X-5.7996 Y20.0319
G01 X-5.8003 Y20.0000
G01 X-5.8003 Y10.0000
G01 X-5.7994 Y9.9681
G00 Z1.0000
G00 X-3.4059 Y16.1803
G01 F76.20
G01 Z-0.2000
G01 F150.00
G01 X-3.4025 Y16.1282
G01 X-3.3965 Y16.0765
G01 X-3.3865 Y16.0175
G01 X-3.3769 Y15.9741
G01 X-3.3633 Y15.9238
G01 X-3.3473 Y15.8742
G01 X-3.3275 Y15.8220
G01 X-3.3081 Y15.7776
G01 X-3.2850 Y15.7309
G01 X-3.2596 Y15.6854
G01 X-3.2320 Y15.6412
G01 X-3.1970 Y15.5911
G01 X-3.1705 Y15.5570
G01 X-3.1368 Y15.5173
G01 X-3.0959 Y15.4741
G01 X-3.0636 Y15.4431
G01 X-3.0230 Y15.4076
G01 X-2.9789 Y15.3730
G01 X-2.9411 Y15.3461
G01 X-2.8960 Y15.3172
G01 X-2.8521 Y15.2919
G01 X-2.8050 Y15.2678
G01 X-2.7582 Y15.2467
G01 X-2.7097 Y15.2276
G01 X-2.6603 Y15.2110
G01 X-2.6102 Y15.1967
G01 X-2.5525 Y15.1835
G01 X-2.5081 Y15.1757
G01 X-2.4547 Y15.1687
G01 X-2.4045 Y15.1647
G01 X-2.3450 Y15.1630
G01 X-2.3002 Y15.1640
G01 X-2.2482 Y15.1675
G01 X-2.1965 Y15.1735
G01 X-2.1375 Y15.1835
G01 X-2.0941 Y15.1931
G01 X-2.0438 Y15.2067
G01 X-1.9942 Y15.2227
G01 X-1.9420 Y15.2425
G01 X-1.8976 Y15.2619
G01 X-1.8509 Y15.2850
G01 X-1.8054 Y15.3104
G01 X-1.7612 Y15.3380
G01 X-1.7111 Y15.3730
G01 X-1.6770 Y15.3995
G01 X-1.6373 Y15.4332
G01 X-1.5941 Y15.4741
G01 X-1.5631 Y15.5064
G01 X-1.5276 Y15.5470
G01 X-1.4930 Y15.5911
G01 X-1.4661 Y15.6289
G01 X-1.4372 Y15.6740
G01 X-1.4120 Y15.7179
G01 X-1.3878 Y15.7650
G01 X-1.3667 Y15.8118
G01 X-1.3476 Y15.8603
G01 X-1.3310 Y15.9097
G01 X-1.3167 Y15.9598
G01 X-1.3035 Y16.0175
G01 X-1.2957 Y16.0619
G01 X-1.2887 Y16.1153
G01 X-1.2847 Y16.1655
G01 X-1.2830 Y16.2250
G01 X-1.2840 Y16.2698
G01 X-1.2875 Y16.3218
G01 X-1.2935 Y16.3735
G01 X-1.3035 Y16.4325
G01 X-1.3131 Y16.4759
G01 X-1.3267 Y16.5262
G01 X-1.3427 Y16.5758
G01 X-1.3625 Y16.6280
G01 X-1.3819 Y16.6724
G01 X-1.4050 Y16.7191
G01 X-1.4304 Y16.7646
G01 X-1.4580 Y16.8088
G01 X-1.4930 Y16.8589
G01 X-1.5195 Y16.8930
G01 X-1.5532 Y16.9327
G01 X-1.5941 Y16.9759
G01 X-1.6264 Y17.0069
G01 X-1.6670 Y17.0424
G01 X-1.7111 Y17.0770
G01 X-1.7489 Y17.1039
G01 X-1.7940 Y17.1328
G01 X-1.8379 Y17.1580
G01 X-1.8850 Y17.1822
G01 X-1.9318 Y17.2033
G01 X-1.9803 Y17.2224
G01 X-2.0297 Y17.2390
G01 X-2.0798 Y17.2533
G01 X-2.1375 Y17.2665
G01 X-2.1819 Y17.2743
G01 X-2.2353 Y17.2813
G01 X-2.2855 Y17.2853
G01 X-2.3450 Y17.2870
G01 X-2.3898 Y17.2860
G01 X-2.4418 Y17.2825
G01 X-2.4935 Y17.2765
G01 X-2.5525 Y17.2665
G01 X-2.5959 Y17.2569
G01 X-2.6462 Y17.2433
G01 X-2.6958 Y17.2273
G01 X-2.7480 Y17.2075
G01 X-2.7924 Y17.1881
G01 X-2.8391 Y17.1650
G01 X-2.8846 Y17.1396
G01 X-2.9288 Y17.1120
G01 X-2.9789 Y17.0770
G01 X-3.0130 Y17.0505
G01 X-3.0527 Y17.0168
G01 X-3.0960 Y16.9759
G01 X-3.1269 Y16.9436
G01 X-3.1624 Y16.9030
G01 X-3.1970 Y16.8589
G01 X-3.2239 Y16.8211
G01 X-3.2528 Y16.7760
G01 X-3.2781 Y16.7321
G01 X-3.3022 Y16.6850
G01 X-3.3233 Y16.6382
G01 X-3.3424 Y16.5897
G01 X-3.3590 Y16.5403
G01 X-3.3733 Y16.4902
G01 X-3.3865 Y16.4325
G01 X-3.3943 Y16.3881
G01 X-3.4013 Y16.3347
G01 X-3.4053 Y16.2845
G01 X-3.4070 Y16.2250
G01 X-3.4059 Y16.1803
G00 Z1.0000
G00 X-3.4059 Y18.7203
G01 F76.20
G01 Z-0.2000
G01 F150.00
G01 X-3.4025 Y18.6682
G01 X-3.3965 Y18.6165
G01 X-3.3865 Y18.5575
G01 X-3.3769 Y18.5141
G01 X-3.3633 Y18.4638
G01 X-3.3473 Y18.4142
G01 X-3.3275 Y18.3620
G01 X-3.3081 Y18.3176
G01 X-3.2850 Y18.2709
G01 X-3.2596 Y18.2254
G01 X-3.2320 Y18.1812
G01 X-3.1970 Y18.1311
G01 X-3.1705 Y18.0970
G01 X-3.1368 Y18.0573
G01 X-3.0960 Y18.0141
G01 X-3.0636 Y17.9831
G01 X-3.0230 Y17.9476
G01 X-2.9789 Y17.9130
G01 X-2.9411 Y17.8861
G01 X-2.8960 Y17.8572
G01 X-2.8521 Y17.8319
G01 X-2.8050 Y17.8078
G01 X-2.7582 Y17.7867
G01 X-2.7097 Y17.7676
G01 X-2.6603 Y17.7510
G01 X-2.6102 Y17.7367
G01 X-2.5525 Y17.7235
G01 X-2.5081 Y17.7157
G01 X-2.4547 Y17.7087
G01 X-2.4045 Y17.7047
G01 X-2.3450 Y17.7030
G01 X-2.3002 Y17.7040
G01 X-2.2482 Y17.7075
G01 X-2.1965 Y17.7135
G01 X-2.1375 Y17.7235
G01 X-2.0941 Y17.7331
G01 X-2.0438 Y17.7467
G01 X-1.9942 Y17.7627
G01 X-1.9420 Y17.7825
G01 X-1.8976 Y17.8019
G01 X-1.8509 Y17.8250
G01 X-1.8054 Y17.8504
G01 X-1.7612 Y17.8780
G01 X-1.7111 Y17.9130
G01 X-1.6770 Y17.9395
G01 X-1.6373 Y17.9732
G01 X-1.5941 Y18.0141
G01 X-1.5631 Y18.0464
G01 X-1.5276 Y18.0870
G01 X-1.4930 Y18.1311
G01 X-1.4661 Y18.1689
G01 X-1.4372 Y18.2140
G01 X-1.4120 Y18.2579
G01 X-1.3878 Y18.3050
G01 X-1.3667 Y18.3518
G01 X-1.3476 Y18.4003
G01 X-1.3310 Y18.4497
G01 X-1.3167 Y18.4998
G01 X-1.3035 Y18.5575
G01 X-1.2957 Y18.6019
G01 X-1.2887 Y18.6553
G01 X-1.2847 Y18.7055
G01 X-1.2830 Y18.7650
G01 X-1.2840 Y18.8098
G01 X-1.2875 Y18.8618
G01 X-1.2935 Y18.9135
G01 X-1.3035 Y18.9725
G01 X-1.3131 Y19.0159
G01 X-1.3267 Y19.0662
G01 X-1.3427 Y19.1158
G01 X-1.3625 Y19.1680
G01 X-1.3819 Y19.2124
G01 X-1.4050 Y19.2591
G01 X-1.4304 Y19.3046
G01 X-1.4580 Y19.3488
G01 X-1.4930 Y19.3989
G01 X-1.5195 Y19.4330
G01 X-1.5532 Y19.4727
G01 X-1.5941 Y19.5159
G01 X-1.6264 Y19.5469
G01 X-1.6670 Y19.5824
G01 X-1.7111 Y19.6170
G01 X-1.7489 Y19.6439
G01 X-1.7940 Y19.6728
G01 X-1.8379 Y19.6980
G01 X-1.8850 Y19.7222
G01 X-1.9318 Y19.7433
G01 X-1.9803 Y19.7624
G01 X-2.0297 Y19.7790
G01 X-2.0798 Y19.7933
G01 X-2.1375 Y19.8065
G01 X-2.1819 Y19.8143
G01 X-2.2353 Y19.8213
G01 X-2.2855 Y19.8253
G01 X-2.3450 Y19.8270
G01 X-2.3898 Y19.8260
G01 X-2.4418 Y19.8225
G01 X-2.4935 Y19.8165
G01 X-2.5525 Y19.8065
G01 X-2.5959 Y19.7969
G01 X-2.6462 Y19.7833
G01 X-2.6958 Y19.7673
G01 X-2.7480 Y19.7475
G01 X-2.7924 Y19.7281
G01 X-2.8391 Y19.7050
G01 X-2.8846 Y19.6796
G01 X-2.9288 Y19.6520
G01 X-2.9789 Y19.6170
G01 X-3.0130 Y19.5905
G01 X-3.0527 Y19.5568
G01 X-3.0959 Y19.5159
G01 X-3.1269 Y19.4836
G01 X-3.1624 Y19.4430
G01 X-3.1970 Y19.3989
G01 X-3.2239 Y19.3611
G01 X-3.2528 Y19.3160
G01 X-3.2781 Y19.2721
G01 X-3.3022 Y19.2250
G01 X-3.3233 Y19.1782
G01 X-3.3424 Y19.1297
G01 X-3.3590 Y19.0803
G01 X-3.3733 Y19.0302
G01 X-3.3865 Y18.9725
G01 X-3.3943 Y18.9281
G01 X-3.4013 Y18.8747
G01 X-3.4053 Y18.8245
G01 X-3.4070 Y18.7650
G01 X-3.4059 Y18.7203
G00 Z1.0000
G00 X-3.4059 Y26.3403
G01 F76.20
G01 Z-0.2000
G01 F150.00
G01 X-3.4025 Y26.2882
G01 X-3.3965 Y26.2365
G01 X-3.3865 Y26.1775
G01 X-3.3769 Y26.1341
G01 X-3.3633 Y26.0838
G01 X-3.3473 Y26.0342
G01 X-3.3275 Y25.9820
G01 X-3.3081 Y25.9376
G01 X-3.2850 Y25.8909
G01 X-3.2596 Y25.8454
G01 X-3.2320 Y25.8012
G01 X-3.1970 Y25.7511
G01 X-3.1705 Y25.7170
G01 X-3.1368 Y25.6773
G01 X-3.0959 Y25.6341
G01 X-3.0636 Y25.6031
G01 X-3.0230 Y25.5676
G01 X-2.9789 Y25.5330
G01 X-2.9411 Y25.5061
G01 X-2.8960 Y25.4772
G01 X-2.8521 Y25.4519
G01 X-2.8050 Y25.4278
G01 X-2.7582 Y25.4067
G01 X-2.7097 Y25.3876
G01 X-2.6603 Y25.3710
G01 X-2.6102 Y25.3567
G01 X-2.5525 Y25.3435
G01 X-2.5081 Y25.3357
G01 X-2.4547 Y25.3287
G01 X-2.4045 Y25.3247
G01 X-2.3450 Y25.3230
G01 X-2.3002 Y25.3240
G01 X-2.2482 Y25.3275
G01 X-2.1965 Y25.3335
G01 X-2.1375 Y25.3435
G01 X-2.0941 Y25.3531
G01 X-2.0438 Y25.3667
G01 X-1.9942 Y25.3827
G01 X-1.9420 Y25.4025
G01 X-1.8976 Y25.4219
G01 X-1.8509 Y25.4450
G01 X-1.8054 Y25.4704
G01 X-1.7612 Y25.4980
G01 X-1.7111 Y25.5330
G01 X-1.6770 Y25.5595
G01 X-1.6373 Y25.5932
G01 X-1.5941 Y25.6341
G01 X-1.5631 Y25.6664
G01 X-1.5276 Y25.7070
G01 X-1.4930 Y25.7511
G01 X-1.4661 Y25.7889
G01 X-1.4372 Y25.8340
G01 X-1.4120 Y25.8779
G01 X-1.3878 Y25.9250
G01 X-1.3667 Y25.9718
G01 X-1.3476 Y26.0203
G01 X-1.3310 Y26.0697
G01 X-1.3167 Y26.1198
G01 X-1.3035 Y26.1775
G01 X-1.2957 Y26.2219
G01 X-1.2887 Y26.2753
G01 X-1.2847 Y26.3255
G01 X-1.2830 Y26.3850
G01 X-1.2840 Y26.4298
G01 X-1.2875 Y26.4818
G01 X-1.2935 Y26.5335
G01 X-1.3035 Y26.5925
G01 X-1.3131 Y26.6359
G01 X-1.3267 Y26.6862
G01 X-1.3427 Y26.7358
G01 X-1.3625 Y26.7880
G01 X-1.3819 Y26.8324
G01 X-1.4050 Y26.8791
G01 X-1.4304 Y26.9246
G01 X-1.4580 Y26.9688
G01 X-1.4930 Y27.0189
G01 X-1.5195 Y27.0530
G01 X-1.5532 Y27.0927
G01 X-1.5941 Y27.1359
G01 X-1.6264 Y27.1669
G01 X-1.6670 Y27.2024
G01 X-1.7111 Y27.2370
G01 X-1.7489 Y27.2639
G01 X-1.7940 Y27.2928
G01 X-1.8379 Y27.3180
G01 X-1.8850 Y27.3422
G01 X-1.9318 Y27.3633
G01 X-1.9803 Y27.3824
G01 X-2.0297 Y27.3990
G01 X-2.0798 Y27.4133
G01 X-2.1375 Y27.4265
G01 X-2.1819 Y27.4343
G01 X-2.2353 Y27.4413
G01 X-2.2855 Y27.4453
G01 X-2.3450 Y27.4470
G01 X-2.3898 Y27.4460
G01 X-2.4418 Y27.4425
G01 X-2.4935 Y27.4365
G01 X-2.5525 Y27.4265
G01 X-2.5959 Y27.4169
G01 X-2.6462 Y27.4033
G01 X-2.6958 Y27.3873
G01 X-2.7480 Y27.3675
G01 X-2.7924 Y27.3481
G01 X-2.8391 Y27.3250
G01 X-2.8846 Y27.2996
G01 X-2.9288 Y27.2720
G01 X-2.9789 Y27.2370
G01 X-3.0130 Y27.2105
G01 X-3.0527 Y27.1768
G01 X-3.0960 Y27.1359
G01 X-3.1269 Y27.1036
G01 X-3.1624 Y27.0630
G01 X-3.1970 Y27.0189
G01 X-3.2239 Y26.9811
G01 X-3.2528 Y26.9360
G01 X-3.2781 Y26.8921
G01 X-3.3022 Y26.8450
G01 X-3.3233 Y26.7982
G01 X-3.3424 Y26.7497
G01 X-3.3590 Y26.7003
G01 X-3.3733 Y26.6502
G01 X-3.3865 Y26.5925
G01 X-3.3943 Y26.5481
G01 X-3.4013 Y26.4947
G01 X-3.4053 Y26.4445
G01 X-3.4070 Y26.3850
G01 X-3.4059 Y26.3403
G00 Z1.0000
G00 X-32.6159 Y21.2603
G01 F76.20
G01 Z-0.2000
G01 F150.00
G01 X-32.6125 Y21.2082
G01 X-32.6065 Y21.1565
G01 X-32.5965 Y21.0975
G01 X-32.5869 Y21.0541
G01 X-32.5733 Y21.0038
G01 X-32.5573 Y20.9542
G01 X-32.5375 Y20.9020
G01 X-32.5181 Y20.8576
G01 X-32.4950 Y20.8109
G01 X-32.4696 Y20.7654
G01 X-32.4420 Y20.7212
G01 X-32.4070 Y20.6711
G01 X-32.3805 Y20.6370
G01 X-32.3468 Y20.5973
G01 X-32.3059 Y20.5541
G01 X-32.2736 Y20.5231
G01 X-32.2330 Y20.4876
G01 X-32.1889 Y20.4530
G01 X-32.1511 Y20.4261
G01 X-32.1060 Y20.3972
G01 X-32.0621 Y20.3719
G01 X-32.0150 Y20.3478
G01 X-31.9682 Y20.3267
G01 X-31.9197 Y20.3076
G01 X-31.8703 Y20.2910
G01 X-31.8202 Y20.2767
G01 X-31.7625 Y20.2635
G01 X-31.7181 Y20.2557
G01 X-31.6647 Y20.2487
G01 X-31.6145 Y20.2447
G01 X-31.5550 Y20.2430
G01 X-31.5102 Y20.2440
G01 X-31.4582 Y20.2475
G01 X-31.4065 Y20.2535
G01 X-31.3475 Y20.2635
G01 X-31.3041 Y20.2731
G01 X-31.2538 Y20.2867
G01 X-31.2042 Y20.3027
G01 X-31.1520 Y20.3225
G01 X-31.1076 Y20.3419
G01 X-31.0609 Y20.3650
G01 X-31.0154 Y20.3904
G01 X-30.9712 Y20.4180
G01 X-30.9211 Y20.4530
G01 X-30.8870 Y20.4795
G01 X-30.8473 Y20.5132
G01 X-30.8041 Y20.5541
G01 X-30.7731 Y20.5864
G01 X-30.7376 Y20.6270
G01 X-30.7030 Y20.6711
G01 X-30.6761 Y20.7089
G01 X-30.6472 Y20.7540
G01 X-30.6220 Y20.7979
G01 X-30.5978 Y20.8450
G01 X-30.5767 Y20.8918
G01 X-30.5576 Y20.9403
G01 X-30.5410 Y20.9897
G01 X-30.5267 Y21.0398
G01 X-30.5135 Y21.0975
G01 X-30.5057 Y21.1419
G01 X-30.4987 Y21.1953
G01 X-30.4947 Y21.2455
G01 X-30.4930 Y21.3050
G01 X-30.4940 Y21.3498
G01 X-30.4975 Y21.4018
G01 X-30.5035 Y21.4535
G01 X-30.5135 Y21.5125
G01 X-30.5231 Y21.5559
G01 X-30.5367 Y21.6062
G01 X-30.5527 Y21.6558
G01 X-30.5725 Y21.7080
G01 X-30.5919 Y21.7524
G01 X-30.6150 Y21.7991
G01 X-30.6404 Y21.8446
G01 X-30.6680 Y21.8888
G01 X-30.7030 Y21.9389
G01 X-30.7295 Y21.9730
G01 X-30.7632 Y22.0127
G01 X-30.8041 Y22.0559
G01 X-30.8364 Y22.0869
G01 X-30.8770 Y22.1224
G01 X-30.9211 Y22.1570
G01 X-30.9589 Y22.1839
G01 X-31.0040 Y22.2128
G01 X-31.0479 Y22.2380
G01 X-31.0950 Y22.2622
G01 X-31.1418 Y22.2833
G01 X-31.1903 Y22.3024
G01 X-31.2397 Y22.3190
G01 X-31.2898 Y22.3333
G01 X-31.3475 Y22.3465
G01 X-31.3919 Y22.3543
G01 X-31.4453 Y22.3613
G01 X-31.4955 Y22.3653
G01 X-31.5550 Y22.3670
G01 X-31.5998 Y22.3660
G01 X-31.6518 Y22.3625
G01 X-31.7035 Y22.3565
G01 X-31.7625 Y22.3465
G01 X-31.8059 Y22.3369
G01 X-31.8562 Y22.3233
G01 X-31.9058 Y22.3073
G01 X-31.9580 Y22.2875
G01 X-32.0024 Y22.2681
G01 X-32.0491 Y22.2450
G01 X-32.0946 Y22.2196
G01 X-32.1388 Y22.1920
G01 X-32.1889 Y22.1570
G01 X-32.2230 Y22.1305
G01 X-32.2627 Y22.0968
G01 X-32.3059 Y22.0559
G01 X-32.3369 Y22.0236
G01 X-32.3724 Y21.9830
G01 X-32.4070 Y21.9389
G01 X-32.4339 Y21.9011
G01 X-32.4628 Y21.8560
G01 X-32.4881 Y21.8121
G01 X-32.5122 Y21.7650
G01 X-32.5333 Y21.7182
G01 X-32.5524 Y21.6697
G01 X-32.5690 Y21.6203
G01 X-32.5833 Y21.5702
G01 X-32.5965 Y21.5125
G01 X-32.6043 Y21.4681
G01 X-32.6113 Y21.4147
G01 X-32.6153 Y21.3645
G01 X-32.6170 Y21.3050
G01 X-32.6159 Y21.2603
G00 Z1.0000
G00 X-32.6159 Y18.7203
G01 F76.20
G01 Z-0.2000
G01 F150.00
G01 X-32.6125 Y18.6682
G01 X-32.6065 Y18.6165
G01 X-32.5965 Y18.5575
G01 X-32.5869 Y18.5141
G01 X-32.5733 Y18.4638
G01 X-32.5573 Y18.4142
G01 X-32.5375 Y18.3620
G01 X-32.5181 Y18.3176
G01 X-32.4950 Y18.2709
G01 X-32.4696 Y18.2254
G01 X-32.4420 Y18.1812
G01 X-32.4070 Y18.1311
G01 X-32.3805 Y18.0970
G01 X-32.3468 Y18.0573
G01 X-32.3059 Y18.0141
G01 X-32.2736 Y17.9831
G01 X-32.2330 Y17.9476
G01 X-32.1889 Y17.9130
G01 X-32.1511 Y17.8861
G01 X-32.1060 Y17.8572
G01 X-32.0621 Y17.8319
G01 X-32.0150 Y17.8078
G01 X-31.9682 Y17.7867
G01 X-31.9197 Y17.7676
G01 X-31.8703 Y17.7510
G01 X-31.8202 Y17.7367
G01 X-31.7625 Y17.7235
G01 X-31.7181 Y17.7157
G01 X-31.6647 Y17.7087
G01 X-31.6145 Y17.7047
G01 X-31.5550 Y17.7030
G01 X-31.5102 Y17.7040
G01 X-31.4582 Y17.7075
G01 X-31.4065 Y17.7135
G01 X-31.3475 Y17.7235
G01 X-31.3041 Y17.7331
G01 X-31.2538 Y17.7467
G01 X-31.2042 Y17.7627
G01 X-31.1520 Y17.7825
G01 X-31.1076 Y17.8019
G01 X-31.0609 Y17.8250
G01 X-31.0154 Y17.8504
G01 X-30.9712 Y17.8780
G01 X-30.9211 Y17.9130
G01 X-30.8870 Y17.9395
G01 X-30.8473 Y17.9732
G01 X-30.8041 Y18.0141
G01 X-30.7731 Y18.0464
G01 X-30.7376 Y18.0870
G01 X-30.7030 Y18.1311
G01 X-30.6761 Y18.1689
G01 X-30.6472 Y18.2140
G01 X-30.6220 Y18.2579
G01 X-30.5978 Y18.3050
G01 X-30.5767 Y18.3518
G01 X-30.5576 Y18.4003
G01 X-30.5410 Y18.4497
G01 X-30.5267 Y18.4998
G01 X-30.5135 Y18.5575
G01 X-30.5057 Y18.6019
G01 X-30.4987 Y18.6553
G01 X-30.4947 Y18.7055
G01 X-30.4930 Y18.7650
G01 X-30.4940 Y18.8098
G01 X-30.4975 Y18.8618
G01 X-30.5035 Y18.9135
G01 X-30.5135 Y18.9725
G01 X-30.5231 Y19.0159
G01 X-30.5367 Y19.0662
G01 X-30.5527 Y19.1158
G01 X-30.5725 Y19.1680
G01 X-30.5919 Y19.2124
G01 X-30.6150 Y19.2591
G01 X-30.6404 Y19.3046
G01 X-30.6680 Y19.3488
G01 X-30.7030 Y19.3989
G01 X-30.7295 Y19.4330
G01 X-30.7632 Y19.4727
G01 X-30.8041 Y19.5159
G01 X-30.8364 Y19.5469
G01 X-30.8770 Y19.5824
G01 X-30.9211 Y19.6170
G01 X-30.9589 Y19.6439
G01 X-31.0040 Y19.6728
G01 X-31.0479 Y19.6980
G01 X-31.0950 Y19.7222
G01 X-31.1418 Y19.7433
G01 X-31.1903 Y19.7624
G01 X-31.2397 Y19.7790
G01 X-31.2898 Y19.7933
G01 X-31.3475 Y19.8065
G01 X-31.3919 Y19.8143
G01 X-31.4453 Y19.8213
G01 X-31.4955 Y19.8253
G01 X-31.5550 Y19.8270
G01 X-31.5998 Y19.8260
G01 X-31.6518 Y19.8225
G01 X-31.7035 Y19.8165
G01 X-31.7625 Y19.8065
G01 X-31.8059 Y19.7969
G01 X-31.8562 Y19.7833
G01 X-31.9058 Y19.7673
G01 X-31.9580 Y19.7475
G01 X-32.0024 Y19.7281
G01 X-32.0491 Y19.7050
G01 X-32.0946 Y19.6796
G01 X-32.1388 Y19.6520
G01 X-32.1889 Y19.6170
G01 X-32.2230 Y19.5905
G01 X-32.2627 Y19.5568
G01 X-32.3059 Y19.5159
G01 X-32.3369 Y19.4836
G01 X-32.3724 Y19.4430
G01 X-32.4070 Y19.3989
G01 X-32.4339 Y19.3611
G01 X-32.4628 Y19.3160
G01 X-32.4881 Y19.2721
G01 X-32.5122 Y19.2250
G01 X-32.5333 Y19.1782
G01 X-32.5524 Y19.1297
G01 X-32.5690 Y19.0803
G01 X-32.5833 Y19.0302
G01 X-32.5965 Y18.9725
G01 X-32.6043 Y18.9281
G01 X-32.6113 Y18.8747
G01 X-32.6153 Y18.8245
G01 X-32.6170 Y18.7650
G01 X-32.6159 Y18.7203
G00 Z1.0000
G00 X-42.6047 Y21.4003
G01 F76.20
G01 Z-0.2000
G01 F150.00
G01 X-42.5996 Y21.3286
G01 X-42.5922 Y21.2720
G01 X-42.5836 Y21.2227
G01 X-42.5693 Y21.1601
G01 X-42.5537 Y21.1052
G01 X-42.5404 Y21.0650
G01 X-42.5145 Y20.9979
G01 X-42.4914 Y20.9466
G01 X-42.4720 Y20.9080
G01 X-42.4366 Y20.8455
G01 X-42.4057 Y20.7975
G01 X-42.3761 Y20.7556
G01 X-42.3465 Y20.7176
G01 X-42.3094 Y20.6741
G01 X-42.2652 Y20.6272
G01 X-42.2183 Y20.5830
G01 X-42.1848 Y20.5541
G01 X-42.1368 Y20.5164
G01 X-42.0827 Y20.4785
G01 X-42.0457 Y20.4550
G01 X-41.9974 Y20.4273
G01 X-41.9332 Y20.3951
G01 X-41.8843 Y20.3736
G01 X-41.8413 Y20.3570
G01 X-41.7872 Y20.3387
G01 X-41.7323 Y20.3231
G01 X-41.6697 Y20.3088
G01 X-41.6204 Y20.3002
G01 X-41.5620 Y20.2926
G01 X-41.5068 Y20.2883
G01 X-41.4498 Y20.2865
G01 X-41.3835 Y20.2864
G01 X-41.3443 Y20.2645
G01 X-41.3091 Y20.2471
G01 X-41.2765 Y20.2329
G01 X-41.2501 Y20.2227
G01 X-41.2129 Y20.2100
G01 X-41.1752 Y20.1992
G01 X-41.1300 Y20.1888
G01 X-41.0837 Y20.1810
G01 X-41.0447 Y20.1766
G01 X-41.0055 Y20.1741
G01 X-40.9736 Y20.1734
G01 X-39.4030 Y20.1734
G01 X-29.6638 Y10.4341
G01 X-29.6298 Y10.4022
G01 X-29.6098 Y10.3849
G01 X-29.5759 Y10.3582
G01 X-29.5486 Y10.3388
G01 X-29.5144 Y10.3167
G01 X-29.4686 Y10.2909
G01 X-29.4460 Y10.2795
G01 X-29.4109 Y10.2636
G01 X-29.3744 Y10.2491
G01 X-29.3373 Y10.2364
G01 X-29.2852 Y10.2220
G01 X-29.2544 Y10.2152
G01 X-29.2226 Y10.2096
G01 X-29.1819 Y10.2042
G01 X-29.1446 Y10.2012
G01 X-29.0979 Y10.1997
G01 X-20.9835 Y10.1997
G01 X-18.2703 Y7.4865
G01 X-18.2703 Y5.2090
G01 X-18.3351 Y5.1637
G01 X-18.3955 Y5.1161
G01 X-18.4492 Y5.0694
G01 X-18.5004 Y5.0200
G01 X-18.5493 Y4.9682
G01 X-18.5873 Y4.9241
G01 X-18.6302 Y4.8696
G01 X-18.6715 Y4.8116
G01 X-18.7106 Y4.7505
G01 X-18.7522 Y4.6770
G01 X-18.7839 Y4.6133
G01 X-18.8110 Y4.5515
G01 X-18.8327 Y4.4954
G01 X-18.8553 Y4.4279
G01 X-18.8747 Y4.3594
G01 X-18.8921 Y4.2832
G01 X-18.9053 Y4.2055
G01 X-18.9136 Y4.1348
G01 X-18.9185 Y4.0638
G01 X-18.9200 Y4.0000
G01 X-18.9185 Y3.9362
G01 X-18.9136 Y3.8652
G01 X-18.9031 Y3.7800
G01 X-18.8921 Y3.7168
G01 X-18.8747 Y3.6406
G01 X-18.8553 Y3.5721
G01 X-18.8327 Y3.5046
G01 X-18.8110 Y3.4485
G01 X-18.7839 Y3.3867
G01 X-18.7522 Y3.3230
G01 X-18.7174 Y3.2609
G01 X-18.6715 Y3.1884
G01 X-18.6337 Y3.1349
G01 X-18.5955 Y3.0859
G01 X-18.5493 Y3.0318
G01 X-18.4953 Y2.9747
G01 X-18.4382 Y2.9207
G01 X-18.3841 Y2.8745
G01 X-18.3351 Y2.8363
G01 X-18.2816 Y2.7985
G01 X-18.2205 Y2.7594
G01 X-18.1470 Y2.7178
G01 X-18.0833 Y2.6861
G01 X-18.0215 Y2.6590
G01 X-17.9654 Y2.6373
G01 X-17.8979 Y2.6147
G01 X-17.8152 Y2.5918
G01 X-17.7532 Y2.5779
G01 X-17.6900 Y2.5669
G01 X-17.6194 Y2.5578
G01 X-17.5485 Y2.5522
G01 X-17.4700 Y2.5500
G01 X-17.3915 Y2.5522
G01 X-17.3206 Y2.5578
G01 X-17.2500 Y2.5669
G01 X-17.1868 Y2.5779
G01 X-17.1248 Y2.5918
G01 X-17.0421 Y2.6147
G01 X-16.9746 Y2.6373
G01 X-16.9185 Y2.6590
G01 X-16.8567 Y2.6861
G01 X-16.7930 Y2.7178
G01 X-16.7309 Y2.7526
G01 X-16.6584 Y2.7985
G01 X-16.6049 Y2.8363
G01 X-16.5559 Y2.8745
G01 X-16.5018 Y2.9207
G01 X-16.4447 Y2.9747
G01 X-16.3907 Y3.0318
G01 X-16.3445 Y3.0859
G01 X-16.3063 Y3.1349
G01 X-16.2685 Y3.1884
G01 X-16.2226 Y3.2609
G01 X-16.1878 Y3.3230
G01 X-16.1561 Y3.3867
G01 X-16.1290 Y3.4485
G01 X-16.1024 Y3.5185
G01 X-16.0804 Y3.5862
G01 X-16.0653 Y3.6406
G01 X-16.0479 Y3.7168
G01 X-16.0369 Y3.7800
G01 X-16.0264 Y3.8652
G01 X-16.0215 Y3.9362
G01 X-16.0200 Y4.0000
G01 X-16.0215 Y4.0638
G01 X-16.0264 Y4.1348
G01 X-16.0347 Y4.2055
G01 X-16.0479 Y4.2832
G01 X-16.0653 Y4.3594
G01 X-16.0847 Y4.4279
G01 X-16.1073 Y4.4954
G01 X-16.1333 Y4.5617
G01 X-16.1624 Y4.6266
G01 X-16.1948 Y4.6900
G01 X-16.2226 Y4.7391
G01 X-16.2604 Y4.7994
G01 X-16.3063 Y4.8651
G01 X-16.3539 Y4.9255
G01 X-16.4006 Y4.9792
G01 X-16.4447 Y5.0253
G01 X-16.4908 Y5.0694
G01 X-16.5459 Y5.1173
G01 X-16.6049 Y5.1637
G01 X-16.6697 Y5.2091
G01 X-16.6697 Y7.8180
G01 X-16.6704 Y7.8499
G01 X-16.6730 Y7.8891
G01 X-16.6774 Y7.9281
G01 X-16.6852 Y7.9744
G01 X-16.6920 Y8.0053
G01 X-16.7022 Y8.0432
G01 X-16.7141 Y8.0806
G01 X-16.7293 Y8.1208
G01 X-16.7435 Y8.1534
G01 X-16.7678 Y8.2017
G01 X-16.7875 Y8.2357
G01 X-16.8088 Y8.2687
G01 X-16.8282 Y8.2960
G01 X-16.8561 Y8.3313
G01 X-16.8821 Y8.3608
G01 X-16.9041 Y8.3839
G01 X-20.0861 Y11.5659
G01 X-20.1092 Y11.5879
G01 X-20.1401 Y11.6151
G01 X-20.1740 Y11.6418
G01 X-20.2013 Y11.6612
G01 X-20.2470 Y11.6901
G01 X-20.2813 Y11.7091
G01 X-20.3040 Y11.7205
G01 X-20.3492 Y11.7407
G01 X-20.3755 Y11.7509
G01 X-20.4127 Y11.7636
G01 X-20.4647 Y11.7780
G01 X-20.4956 Y11.7848
G01 X-20.5273 Y11.7904
G01 X-20.5809 Y11.7970
G01 X-20.6201 Y11.7996
G01 X-20.6446 Y11.8002
G01 X-28.7665 Y11.8003
G01 X-38.5057 Y21.5395
G01 X-38.5287 Y21.5615
G01 X-38.5596 Y21.5887
G01 X-38.5935 Y21.6154
G01 X-38.6209 Y21.6348
G01 X-38.6551 Y21.6569
G01 X-38.7009 Y21.6828
G01 X-38.7235 Y21.6942
G01 X-38.7585 Y21.7100
G01 X-38.7951 Y21.7245
G01 X-38.8322 Y21.7372
G01 X-38.8843 Y21.7516
G01 X-38.9151 Y21.7584
G01 X-38.9469 Y21.7640
G01 X-38.9875 Y21.7694
G01 X-39.0249 Y21.7724
G01 X-39.0715 Y21.7739
G01 X-40.0202 Y21.7739
G01 X-40.0396 Y21.8350
G01 X-40.0612 Y21.8919
G01 X-40.0827 Y21.9408
G01 X-40.1080 Y21.9920
G01 X-40.1358 Y22.0418
G01 X-40.1661 Y22.0903
G01 X-40.2039 Y22.1444
G01 X-40.2335 Y22.1824
G01 X-40.2706 Y22.2259
G01 X-40.3148 Y22.2728
G01 X-40.3508 Y22.3072
G01 X-40.3952 Y22.3459
G01 X-40.4432 Y22.3836
G01 X-40.4851 Y22.4133
G01 X-40.5343 Y22.4450
G01 X-40.5826 Y22.4727
G01 X-40.6342 Y22.4990
G01 X-40.6855 Y22.5221
G01 X-40.7526 Y22.5480
G01 X-40.8069 Y22.5655
G01 X-40.8620 Y22.5804
G01 X-40.9103 Y22.5912
G01 X-40.9596 Y22.5998
G01 X-41.0309 Y22.6086
G01 X-41.0879 Y22.6125
G01 X-41.1302 Y22.6135
G01 X-41.4424 Y22.6136
G01 X-41.5068 Y22.6117
G01 X-41.5638 Y22.6072
G01 X-41.6204 Y22.5998
G01 X-41.6697 Y22.5912
G01 X-41.7323 Y22.5769
G01 X-41.7872 Y22.5613
G01 X-41.8413 Y22.5430
G01 X-41.8843 Y22.5264
G01 X-41.9458 Y22.4990
G01 X-41.9974 Y22.4727
G01 X-42.0469 Y22.4442
G01 X-42.0949 Y22.4133
G01 X-42.1368 Y22.3836
G01 X-42.1862 Y22.3447
G01 X-42.2292 Y22.3072
G01 X-42.2652 Y22.2728
G01 X-42.3094 Y22.2259
G01 X-42.3383 Y22.1924
G01 X-42.3761 Y22.1444
G01 X-42.4139 Y22.0903
G01 X-42.4442 Y22.0418
G01 X-42.4720 Y21.9920
G01 X-42.4973 Y21.9408
G01 X-42.5188 Y21.8919
G01 X-42.5404 Y21.8350
G01 X-42.5579 Y21.7807
G01 X-42.5728 Y21.7256
G01 X-42.5836 Y21.6773
G01 X-42.5944 Y21.6134
G01 X-42.6010 Y21.5567
G01 X-42.6049 Y21.4997
G01 X-42.6060 Y21.4500
G01 X-42.6047 Y21.4003
G00 Z1.0000
G00 X-44.5248 Y5.5577
G01 F76.20
G01 Z-0.2000
G01 F150.00
G01 X-44.5230 Y5.5294
G01 X-44.5193 Y5.5013
G01 X-44.5140 Y5.4747
G01 X-44.5067 Y5.4473
G01 X-44.5001 Y5.4274
G01 X-44.4897 Y5.4011
G01 X-44.4780 Y5.3765
G01 X-44.4643 Y5.3517
G01 X-44.4531 Y5.3340
G01 X-44.4366 Y5.3110
G01 X-44.4193 Y5.2900
G01 X-44.4000 Y5.2693
G01 X-44.3793 Y5.2500
G01 X-44.3583 Y5.2327
G01 X-44.3353 Y5.2162
G01 X-44.3112 Y5.2013
G01 X-44.2865 Y5.1881
G01 X-44.2614 Y5.1767
G01 X-44.2419 Y5.1692
G01 X-44.2149 Y5.1605
G01 X-44.1885 Y5.1539
G01 X-44.1607 Y5.1488
G01 X-44.1325 Y5.1456
G01 X-44.1054 Y5.1443
G01 X-44.0770 Y5.1447
G01 X-44.0488 Y5.1471
G01 X-44.0219 Y5.1511
G01 X-43.9942 Y5.1570
G01 X-43.9740 Y5.1626
G01 X-43.9472 Y5.1717
G01 X-43.9221 Y5.1821
G01 X-43.8967 Y5.1946
G01 X-43.8669 Y5.2122
G01 X-43.7875 Y5.2654
G01 X-43.7594 Y5.2874
G01 X-43.7392 Y5.3056
G01 X-42.3150 Y6.7297
G01 X-42.2957 Y6.7504
G01 X-42.2823 Y6.7665
G01 X-42.2661 Y6.7883
G01 X-42.2470 Y6.8185
G01 X-42.2338 Y6.8432
G01 X-42.2211 Y6.8716
G01 X-42.2105 Y6.9007
G01 X-42.2010 Y6.9351
G01 X-42.1957 Y6.9617
G01 X-42.1914 Y6.9971
G01 X-42.1899 Y7.0317
G01 X-42.1902 Y7.9770
G01 X-42.1928 Y8.0126
G01 X-42.1982 Y8.0470
G01 X-42.2063 Y8.0803
G01 X-42.2175 Y8.1142
G01 X-42.3899 Y8.5312
G01 X-42.3899 Y8.9688
G01 X-42.2225 Y9.3731
G01 X-41.9131 Y9.6825
G01 X-41.5088 Y9.8499
G01 X-41.0712 Y9.8499
G01 X-40.6669 Y9.6825
G01 X-40.3575 Y9.3731
G01 X-40.1901 Y8.9688
G01 X-40.1901 Y8.5312
G01 X-40.3625 Y8.1142
G01 X-40.3737 Y8.0803
G01 X-40.3790 Y8.0600
G01 X-40.3843 Y8.0333
G01 X-40.3886 Y7.9979
G01 X-40.3901 Y7.9634
G01 X-40.3901 Y6.6127
G01 X-40.3891 Y6.5844
G01 X-40.3864 Y6.5573
G01 X-40.3832 Y6.5366
G01 X-40.3724 Y6.4820
G01 X-40.4423 Y6.1309
G01 X-40.6412 Y5.8332
G01 X-40.6998 Y5.7933
G01 X-40.7206 Y5.7766
G01 X-40.7408 Y5.7584
G01 X-41.0735 Y5.4258
G01 X-41.0929 Y5.4051
G01 X-41.1063 Y5.3890
G01 X-41.1225 Y5.3671
G01 X-41.1416 Y5.3370
G01 X-41.1547 Y5.3123
G01 X-41.1675 Y5.2838
G01 X-41.1760 Y5.2607
G01 X-41.1839 Y5.2347
G01 X-41.1903 Y5.2074
G01 X-41.1960 Y5.1712
G01 X-41.1976 Y5.1521
G01 X-41.1986 Y5.1238
G01 X-41.1976 Y5.0955
G01 X-41.1957 Y5.0746
G01 X-41.1928 Y5.0539
G01 X-41.1875 Y5.0272
G01 X-41.1823 Y5.0069
G01 X-41.1760 Y4.9869
G01 X-41.1675 Y4.9637
G01 X-41.1547 Y4.9353
G01 X-41.1446 Y4.9160
G01 X-41.1340 Y4.8980
G01 X-41.1225 Y4.8805
G01 X-41.1063 Y4.8586
G01 X-41.0929 Y4.8425
G01 X-41.0735 Y4.8218
G01 X-41.0528 Y4.8025
G01 X-41.0272 Y4.7817
G01 X-40.9962 Y4.7606
G01 X-40.9663 Y4.7438
G01 X-40.9417 Y4.7321
G01 X-40.9085 Y4.7193
G01 X-40.8824 Y4.7114
G01 X-40.8610 Y4.7062
G01 X-40.7521 Y4.6338
G01 X-40.7222 Y4.6170
G01 X-40.7034 Y4.6079
G01 X-40.6782 Y4.5975
G01 X-40.6585 Y4.5905
G01 X-40.6384 Y4.5846
G01 X-40.6111 Y4.5782
G01 X-40.5749 Y4.5726
G01 X-40.5558 Y4.5709
G01 X-40.5275 Y4.5699
G01 X-29.2783 Y4.5699
G01 X-29.2500 Y4.5709
G01 X-29.2291 Y4.5728
G01 X-29.2084 Y4.5757
G01 X-29.1878 Y4.5797
G01 X-29.1674 Y4.5846
G01 X-29.1414 Y4.5925
G01 X-29.1081 Y4.6053
G01 X-29.0835 Y4.6170
G01 X-29.0651 Y4.6270
G01 X-29.0350 Y4.6461
G01 X-29.0131 Y4.6623
G01 X-28.9861 Y4.6856
G01 X-28.4721 Y5.1996
G01 X-28.4570 Y5.2166
G01 X-28.4450 Y5.2315
G01 X-28.4326 Y5.2484
G01 X-28.4203 Y5.2671
G01 X-28.4003 Y5.3033
G01 X-28.3840 Y5.3410
G01 X-28.3728 Y5.3748
G01 X-28.3676 Y5.3951
G01 X-28.3623 Y5.4218
G01 X-28.3579 Y5.4572
G01 X-28.3565 Y5.4917
G01 X-28.3574 Y5.5201
G01 X-28.3601 Y5.5471
G01 X-28.3662 Y5.5823
G01 X-28.3728 Y5.6086
G01 X-28.3790 Y5.6287
G01 X-28.3863 Y5.6483
G01 X-28.5199 Y5.9713
G01 X-28.5199 Y6.4487
G01 X-28.3373 Y6.8897
G01 X-27.9997 Y7.2273
G01 X-27.5587 Y7.4099
G01 X-27.0813 Y7.4099
G01 X-26.6398 Y7.2271
G01 X-26.6113 Y7.2023
G01 X-26.5945 Y7.1897
G01 X-26.5772 Y7.1779
G01 X-26.5593 Y7.1670
G01 X-26.5409 Y7.1570
G01 X-26.5163 Y7.1453
G01 X-26.4968 Y7.1375
G01 X-26.4771 Y7.1305
G01 X-26.4427 Y7.1210
G01 X-26.4160 Y7.1157
G01 X-26.3806 Y7.1114
G01 X-26.3461 Y7.1099
G01 X-26.3120 Y7.1100
G01 X-26.2848 Y7.1114
G01 X-26.2494 Y7.1157
G01 X-26.1886 Y7.1276
G01 X-26.1340 Y7.1168
G01 X-26.1133 Y7.1136
G01 X-26.0862 Y7.1109
G01 X-26.0579 Y7.1099
G01 X-23.3107 Y7.1099
G01 X-23.2824 Y7.1109
G01 X-23.2553 Y7.1136
G01 X-23.2346 Y7.1168
G01 X-23.1800 Y7.1276
G01 X-22.8289 Y7.0577
G01 X-22.5312 Y6.8588
G01 X-22.4913 Y6.8002
G01 X-22.4706 Y6.7746
G01 X-22.4512 Y6.7539
G01 X-21.3723 Y5.6750
G01 X-21.3455 Y5.6504
G01 X-21.3188 Y5.6297
G01 X-21.3014 Y5.6179
G01 X-21.2781 Y5.6039
G01 X-21.2588 Y5.5938
G01 X-21.2269 Y5.5797
G01 X-21.2013 Y5.5705
G01 X-21.1669 Y5.5610
G01 X-21.1403 Y5.5557
G01 X-21.1195 Y5.5528
G01 X-21.0986 Y5.5509
G01 X-21.0703 Y5.5499
G01 X-20.6617 Y5.5499
G01 X-20.0920 Y5.3140
G01 X-19.6560 Y4.8780
G01 X-19.6117 Y4.7711
G01 X-19.6032 Y4.7528
G01 X-19.5931 Y4.7335
G01 X-19.5791 Y4.7102
G01 X-19.5621 Y4.6856
G01 X-19.5413 Y4.6600
G01 X-19.5220 Y4.6393
G01 X-19.5013 Y4.6200
G01 X-19.4757 Y4.5992
G01 X-19.4511 Y4.5822
G01 X-19.4278 Y4.5682
G01 X-19.3959 Y4.5522
G01 X-19.3708 Y4.5417
G01 X-19.3510 Y4.5348
G01 X-19.3166 Y4.5253
G01 X-19.2899 Y4.5200
G01 X-19.2674 Y4.5169
G01 X-19.2483 Y4.5152
G01 X-19.2200 Y4.5142
G01 X-19.1917 Y4.5152
G01 X-19.1708 Y4.5171
G01 X-19.1501 Y4.5200
G01 X-19.1295 Y4.5239
G01 X-19.1031 Y4.5306
G01 X-19.0831 Y4.5368
G01 X-19.0600 Y4.5453
G01 X-19.0315 Y4.5581
G01 X-19.0122 Y4.5682
G01 X-18.9942 Y4.5788
G01 X-18.9716 Y4.5939
G01 X-18.9548 Y4.6066
G01 X-18.9278 Y4.6299
G01 X-18.9129 Y4.6446
G01 X-18.8987 Y4.6600
G01 X-18.8779 Y4.6856
G01 X-18.8568 Y4.7167
G01 X-18.8400 Y4.7465
G01 X-18.8309 Y4.7654
G01 X-18.7840 Y4.8780
G01 X-18.4899 Y5.1722
G01 X-18.4757 Y5.1876
G01 X-18.4584 Y5.2086
G01 X-18.4461 Y5.2256
G01 X-18.4338 Y5.2443
G01 X-18.4170 Y5.2741
G01 X-18.4053 Y5.2987
G01 X-18.3975 Y5.3181
G01 X-18.3863 Y5.3520
G01 X-18.3782 Y5.3853
G01 X-18.3736 Y5.4135
G01 X-18.3709 Y5.4406
G01 X-18.3699 Y5.4689
G01 X-18.3700 Y7.2757
G01 X-18.3714 Y7.3029
G01 X-18.3736 Y7.3237
G01 X-18.3782 Y7.3520
G01 X-18.3846 Y7.3792
G01 X-18.3905 Y7.3993
G01 X-18.3997 Y7.4249
G01 X-18.4079 Y7.4442
G01 X-18.4170 Y7.4631
G01 X-18.4346 Y7.4942
G01 X-18.4549 Y7.5240
G01 X-18.4757 Y7.5496
G01 X-18.4950 Y7.5703
G01 X-20.8997 Y9.9750
G01 X-20.9204 Y9.9943
G01 X-20.9365 Y10.0077
G01 X-20.9532 Y10.0203
G01 X-20.9706 Y10.0321
G01 X-20.9939 Y10.0461
G01 X-21.0258 Y10.0621
G01 X-21.0509 Y10.0725
G01 X-21.0848 Y10.0837
G01 X-21.1180 Y10.0918
G01 X-21.1463 Y10.0964
G01 X-21.1734 Y10.0991
G01 X-21.2017 Y10.1001
G01 X-28.9672 Y10.1001
G01 X-28.9956 Y10.0991
G01 X-29.0226 Y10.0964
G01 X-29.0433 Y10.0932
G01 X-29.0979 Y10.0824
G01 X-29.4491 Y10.1523
G01 X-29.7468 Y10.3512
G01 X-29.7866 Y10.4098
G01 X-29.8074 Y10.4354
G01 X-29.8267 Y10.4561
G01 X-39.3192 Y19.9486
G01 X-39.3460 Y19.9732
G01 X-39.3728 Y19.9939
G01 X-39.3966 Y20.0098
G01 X-39.4264 Y20.0266
G01 X-39.4612 Y20.0425
G01 X-39.4902 Y20.0531
G01 X-39.5246 Y20.0626
G01 X-39.5513 Y20.0679
G01 X-39.5738 Y20.0710
G01 X-39.5929 Y20.0727
G01 X-39.6212 Y20.0737
G01 X-40.8429 Y20.0737
G01 X-40.8712 Y20.0727
G01 X-40.8983 Y20.0700
G01 X-40.9190 Y20.0668
G01 X-40.9569 Y20.0594
G01 X-41.0180 Y20.0674
G01 X-41.0404 Y20.0693
G01 X-41.3262 Y20.1262
G01 X-41.3565 Y20.1426
G01 X-41.3942 Y20.1589
G01 X-41.4281 Y20.1701
G01 X-41.4613 Y20.1782
G01 X-41.4896 Y20.1828
G01 X-41.5104 Y20.1850
G01 X-41.5314 Y20.1862
G01 X-41.5668 Y20.1865
G01 X-41.9354 Y20.2598
G01 X-42.3534 Y20.5390
G01 X-42.6326 Y20.9570
G01 X-42.7058 Y21.3247
G01 X-42.7058 Y21.5753
G01 X-42.6326 Y21.9430
G01 X-42.3534 Y22.3610
G01 X-42.3195 Y22.3853
G01 X-42.3034 Y22.3987
G01 X-42.2827 Y22.4180
G01 X-42.2634 Y22.4387
G01 X-42.2500 Y22.4548
G01 X-42.2338 Y22.4767
G01 X-42.2215 Y22.4954
G01 X-42.2047 Y22.5252
G01 X-42.1931 Y22.5498
G01 X-42.1802 Y22.5831
G01 X-42.1723 Y22.6091
G01 X-42.1659 Y22.6364
G01 X-42.1613 Y22.6646
G01 X-42.1586 Y22.6917
G01 X-42.1577 Y22.7274
G01 X-42.1591 Y22.7545
G01 X-42.1634 Y22.7899
G01 X-42.1674 Y22.8105
G01 X-42.1740 Y22.8369
G01 X-42.1852 Y22.8708
G01 X-42.1931 Y22.8902
G01 X-42.2047 Y22.9148
G01 X-42.2223 Y22.9458
G01 X-42.2374 Y22.9684
G01 X-42.2500 Y22.9852
G01 X-42.2634 Y23.0013
G01 X-42.2827 Y23.0220
G01 X-42.3034 Y23.0413
G01 X-42.3195 Y23.0547
G01 X-42.3534 Y23.0790
G01 X-42.6326 Y23.4970
G01 X-42.7058 Y23.8647
G01 X-42.7058 Y24.1153
G01 X-42.6326 Y24.4830
G01 X-42.3534 Y24.9010
G01 X-41.9354 Y25.1802
G01 X-41.5668 Y25.2535
G01 X-41.0132 Y25.2535
G01 X-40.6446 Y25.1802
G01 X-40.3052 Y24.9538
G01 X-40.2754 Y24.9370
G01 X-40.2508 Y24.9253
G01 X-40.2175 Y24.9125
G01 X-40.1915 Y24.9046
G01 X-40.1642 Y24.8982
G01 X-40.1360 Y24.8936
G01 X-40.1089 Y24.8909
G01 X-40.0806 Y24.8899
G01 X-39.8101 Y24.8902
G01 X-39.7891 Y24.8914
G01 X-39.7683 Y24.8936
G01 X-39.7331 Y24.8997
G01 X-39.7068 Y24.9063
G01 X-39.6729 Y24.9175
G01 X-39.6478 Y24.9279
G01 X-39.6289 Y24.9370
G01 X-39.5978 Y24.9546
G01 X-39.5752 Y24.9697
G01 X-39.5471 Y24.9916
G01 X-39.5315 Y25.0056
G01 X-38.1858 Y26.3509
G01 X-38.1664 Y26.3716
G01 X-38.1457 Y26.3972
G01 X-38.1058 Y26.4558
G01 X-37.8081 Y26.6547
G01 X-37.4570 Y26.7246
G01 X-37.4024 Y26.7138
G01 X-37.3817 Y26.7106
G01 X-37.3546 Y26.7079
G01 X-37.3263 Y26.7069
G01 X-32.9647 Y26.7069
G01 X-32.9364 Y26.7079
G01 X-32.9093 Y26.7106
G01 X-32.8811 Y26.7152
G01 X-32.8478 Y26.7233
G01 X-32.8139 Y26.7345
G01 X-32.7762 Y26.7508
G01 X-32.7515 Y26.7640
G01 X-32.7213 Y26.7831
G01 X-32.6995 Y26.7993
G01 X-32.6725 Y26.8226
G01 X-32.6533 Y26.8418
G01 X-32.6381 Y26.8588
G01 X-32.6173 Y26.8856
G01 X-32.6015 Y26.9094
G01 X-32.5846 Y26.9392
G01 X-32.5755 Y26.9581
G01 X-32.5400 Y27.0432
G01 X-32.2132 Y27.3700
G01 X-31.7866 Y27.5467
G01 X-31.3234 Y27.5467
G01 X-30.8968 Y27.3700
G01 X-30.5700 Y27.0432
G01 X-30.3931 Y26.6161
G01 X-30.3931 Y26.1539
G01 X-30.5700 Y25.7268
G01 X-30.8968 Y25.4000
G01 X-31.3241 Y25.2230
G01 X-31.3458 Y25.2221
G01 X-31.3667 Y25.2202
G01 X-31.3875 Y25.2173
G01 X-31.4081 Y25.2133
G01 X-31.4284 Y25.2084
G01 X-31.4544 Y25.2005
G01 X-31.4776 Y25.1919
G01 X-31.4934 Y25.1851
G01 X-31.5253 Y25.1691
G01 X-31.5486 Y25.1551
G01 X-31.8419 Y24.9593
G01 X-32.1930 Y24.8894
G01 X-32.2476 Y24.9002
G01 X-32.2683 Y24.9034
G01 X-32.2954 Y24.9061
G01 X-32.3237 Y24.9071
G01 X-36.9073 Y24.9071
G01 X-36.9356 Y24.9061
G01 X-36.9627 Y24.9034
G01 X-36.9910 Y24.8988
G01 X-37.0182 Y24.8924
G01 X-37.0443 Y24.8845
G01 X-37.0674 Y24.8759
G01 X-37.0958 Y24.8632
G01 X-37.1151 Y24.8531
G01 X-37.1384 Y24.8391
G01 X-37.1630 Y24.8221
G01 X-37.1839 Y24.8054
G01 X-37.1995 Y24.7914
G01 X-37.9042 Y24.0871
G01 X-37.9288 Y24.0603
G01 X-37.9496 Y24.0336
G01 X-37.9654 Y24.0097
G01 X-37.9822 Y23.9799
G01 X-37.9939 Y23.9553
G01 X-38.0067 Y23.9220
G01 X-38.0146 Y23.8960
G01 X-38.0224 Y23.8612
G01 X-38.0266 Y23.8325
G01 X-38.0290 Y23.7987
G01 X-38.0290 Y23.7715
G01 X-38.0264 Y23.7359
G01 X-38.0210 Y23.7015
G01 X-38.0146 Y23.6742
G01 X-38.0067 Y23.6482
G01 X-37.9982 Y23.6251
G01 X-37.9854 Y23.5966
G01 X-37.9722 Y23.5719
G01 X-37.9531 Y23.5418
G01 X-37.9408 Y23.5249
G01 X-37.9235 Y23.5038
G01 X-37.9042 Y23.4831
G01 X-33.3740 Y18.9529
G01 X-33.3533 Y18.9336
G01 X-33.3277 Y18.9128
G01 X-33.2966 Y18.8917
G01 X-33.2668 Y18.8749
G01 X-33.2422 Y18.8632
G01 X-33.2089 Y18.8504
G01 X-33.1829 Y18.8425
G01 X-33.1481 Y18.8347
G01 X-33.1194 Y18.8305
G01 X-33.0856 Y18.8281
G01 X-33.0646 Y18.8279
G01 X-33.0375 Y18.8293
G01 X-33.0166 Y18.8315
G01 X-32.9884 Y18.8361
G01 X-32.9611 Y18.8425
G01 X-32.9351 Y18.8504
G01 X-32.9120 Y18.8590
G01 X-32.8835 Y18.8717
G01 X-32.8642 Y18.8818
G01 X-32.8409 Y18.8958
G01 X-32.8163 Y18.9128
G01 X-32.7954 Y18.9295
G01 X-32.7798 Y18.9435
G01 X-32.7606 Y18.9627
G01 X-32.7373 Y18.9897
G01 X-32.7211 Y19.0116
G01 X-32.7020 Y19.0417
G01 X-32.6888 Y19.0664
G01 X-32.6774 Y19.0915
G01 X-32.5400 Y19.4232
G01 X-32.2302 Y19.7330
G01 X-32.2109 Y19.7537
G01 X-32.1975 Y19.7698
G01 X-32.1813 Y19.7917
G01 X-32.1690 Y19.8104
G01 X-32.1522 Y19.8402
G01 X-32.1431 Y19.8591
G01 X-32.1327 Y19.8842
G01 X-32.1257 Y19.9040
G01 X-32.1198 Y19.9241
G01 X-32.1134 Y19.9514
G01 X-32.1078 Y19.9876
G01 X-32.1052 Y20.0276
G01 X-32.1061 Y20.0633
G01 X-32.1080 Y20.0842
G01 X-32.1109 Y20.1049
G01 X-32.1162 Y20.1316
G01 X-32.1215 Y20.1519
G01 X-32.1277 Y20.1719
G01 X-32.1363 Y20.1950
G01 X-32.1431 Y20.2109
G01 X-32.1591 Y20.2428
G01 X-32.1731 Y20.2661
G01 X-32.1901 Y20.2907
G01 X-32.2068 Y20.3116
G01 X-32.2208 Y20.3272
G01 X-32.5400 Y20.6468
G01 X-32.7169 Y21.0739
G01 X-32.7169 Y21.5361
G01 X-32.5400 Y21.9632
G01 X-32.2132 Y22.2900
G01 X-31.7861 Y22.4669
G01 X-31.3239 Y22.4669
G01 X-30.8968 Y22.2900
G01 X-30.5700 Y21.9632
G01 X-30.3931 Y21.5361
G01 X-30.3931 Y21.0739
G01 X-30.5700 Y20.6468
G01 X-30.8892 Y20.3272
G01 X-30.9044 Y20.3102
G01 X-30.9199 Y20.2907
G01 X-30.9369 Y20.2661
G01 X-30.9509 Y20.2428
G01 X-30.9669 Y20.2109
G01 X-30.9773 Y20.1858
G01 X-30.9885 Y20.1519
G01 X-30.9966 Y20.1186
G01 X-31.0022 Y20.0824
G01 X-31.0046 Y20.0486
G01 X-31.0046 Y20.0214
G01 X-31.0035 Y20.0005
G01 X-31.0012 Y19.9796
G01 X-30.9966 Y19.9514
G01 X-30.9902 Y19.9241
G01 X-30.9823 Y19.8981
G01 X-30.9738 Y19.8750
G01 X-30.9610 Y19.8465
G01 X-30.9478 Y19.8218
G01 X-30.9369 Y19.8039
G01 X-30.9164 Y19.7747
G01 X-30.8991 Y19.7537
G01 X-30.8798 Y19.7330
G01 X-30.5700 Y19.4232
G01 X-30.3931 Y18.9961
G01 X-30.3931 Y18.5339
G01 X-30.5700 Y18.1068
G01 X-30.8968 Y17.7800
G01 X-31.2285 Y17.6426
G01 X-31.2536 Y17.6312
G01 X-31.2729 Y17.6211
G01 X-31.2909 Y17.6104
G01 X-31.3084 Y17.5989
G01 X-31.3254 Y17.5866
G01 X-31.3464 Y17.5693
G01 X-31.3618 Y17.5551
G01 X-31.3765 Y17.5402
G01 X-31.3917 Y17.5232
G01 X-31.4072 Y17.5037
G01 X-31.4242 Y17.4791
G01 X-31.4351 Y17.4612
G01 X-31.4451 Y17.4428
G01 X-31.4568 Y17.4182
G01 X-31.4646 Y17.3988
G01 X-31.4758 Y17.3649
G01 X-31.4824 Y17.3385
G01 X-31.4864 Y17.3179
G01 X-31.4895 Y17.2954
G01 X-31.4912 Y17.2763
G01 X-31.4922 Y17.2480
G01 X-31.4912 Y17.2197
G01 X-31.4885 Y17.1926
G01 X-31.4839 Y17.1644
G01 X-31.4775 Y17.1371
G01 X-31.4716 Y17.1170
G01 X-31.4624 Y17.0914
G01 X-31.4542 Y17.0721
G01 X-31.4382 Y17.0402
G01 X-31.4275 Y17.0222
G01 X-31.4124 Y16.9996
G01 X-31.3998 Y16.9828
G01 X-31.3864 Y16.9667
G01 X-31.3671 Y16.9460
G01 X-28.4461 Y14.0250
G01 X-28.4254 Y14.0057
G01 X-28.3998 Y13.9849
G01 X-28.3752 Y13.9679
G01 X-28.3519 Y13.9539
G01 X-28.3326 Y13.9438
G01 X-28.3041 Y13.9311
G01 X-28.2810 Y13.9225
G01 X-28.2550 Y13.9146
G01 X-28.2277 Y13.9082
G01 X-28.1995 Y13.9036
G01 X-28.1724 Y13.9009
G01 X-28.1441 Y13.8999
G01 X-20.3785 Y13.8999
G01 X-20.3502 Y13.9009
G01 X-20.3232 Y13.9036
G01 X-20.3024 Y13.9068
G01 X-20.2478 Y13.9176
G01 X-19.8967 Y13.8477
G01 X-19.6749 Y13.6995
G01 X-13.2705 Y7.2951
G01 X-13.1223 Y7.0733
G01 X-13.0524 Y6.7222
G01 X-13.0632 Y6.6676
G01 X-13.0664 Y6.6468
G01 X-13.0691 Y6.6198
G01 X-13.0701 Y6.5915
G01 X-13.0701 Y5.4689
G01 X-13.0691 Y5.4406
G01 X-13.0672 Y5.4197
G01 X-13.0618 Y5.3853
G01 X-13.0554 Y5.3580
G01 X-13.0495 Y5.3379
G01 X-13.0425 Y5.3181
G01 X-13.0321 Y5.2930
G01 X-13.0230 Y5.2741
G01 X-13.0054 Y5.2431
G01 X-12.9939 Y5.2256
G01 X-12.9777 Y5.2037
G01 X-12.9643 Y5.1876
G01 X-12.9450 Y5.1669
G01 X-12.6560 Y4.8780
G01 X-12.4201 Y4.3083
G01 X-12.4201 Y3.6917
G01 X-12.6560 Y3.1220
G01 X-12.9450 Y2.8331
G01 X-12.9643 Y2.8124
G01 X-12.9851 Y2.7868
G01 X-13.0062 Y2.7557
G01 X-13.0230 Y2.7259
G01 X-13.0389 Y2.6911
G01 X-13.0475 Y2.6680
G01 X-13.0537 Y2.6480
G01 X-13.0618 Y2.6147
G01 X-13.0674 Y2.5785
G01 X-13.0698 Y2.5447
G01 X-13.0698 Y2.4908
G01 X-13.0672 Y2.4552
G01 X-13.0632 Y2.4283
G01 X-13.0524 Y2.3737
G01 X-13.1223 Y2.0225
G01 X-13.3212 Y1.7248
G01 X-13.3798 Y1.6850
G01 X-13.4006 Y1.6683
G01 X-13.4208 Y1.6500
G01 X-13.8670 Y1.2040
G01 X-13.8916 Y1.1772
G01 X-13.9159 Y1.1453
G01 X-13.9282 Y1.1266
G01 X-13.9381 Y1.1098
G01 X-13.9541 Y1.0779
G01 X-13.9609 Y1.0620
G01 X-13.9695 Y1.0389
G01 X-13.9774 Y1.0129
G01 X-13.9838 Y0.9856
G01 X-13.9894 Y0.9494
G01 X-13.9920 Y0.9094
G01 X-13.9911 Y0.8737
G01 X-13.9884 Y0.8466
G01 X-13.9823 Y0.8115
G01 X-13.9757 Y0.7851
G01 X-13.9645 Y0.7512
G01 X-13.9482 Y0.7135
G01 X-13.9350 Y0.6888
G01 X-13.9241 Y0.6709
G01 X-13.9123 Y0.6536
G01 X-13.8904 Y0.6254
G01 X-13.8670 Y0.6000
G01 X-13.8463 Y0.5807
G01 X-13.8207 Y0.5599
G01 X-13.7896 Y0.5388
G01 X-13.7535 Y0.5188
G01 X-13.7158 Y0.5025
G01 X-13.6819 Y0.4913
G01 X-13.6616 Y0.4860
G01 X-13.6411 Y0.4818
G01 X-13.6204 Y0.4786
G01 X-13.5995 Y0.4764
G01 X-13.5650 Y0.4749
G01 X-0.9020 Y0.4749
G01 X-0.8737 Y0.4759
G01 X-0.8466 Y0.4786
G01 X-0.8184 Y0.4832
G01 X-0.7911 Y0.4896
G01 X-0.7651 Y0.4975
G01 X-0.7420 Y0.5061
G01 X-0.7135 Y0.5188
G01 X-0.6942 Y0.5289
G01 X-0.6709 Y0.5429
G01 X-0.6463 Y0.5599
G01 X-0.6254 Y0.5766
G01 X-0.6053 Y0.5949
G01 X-0.5906 Y0.6098
G01 X-0.5673 Y0.6368
G01 X-0.5511 Y0.6587
G01 X-0.5388 Y0.6774
G01 X-0.5220 Y0.7072
G01 X-0.5103 Y0.7318
G01 X-0.5025 Y0.7512
G01 X-0.4913 Y0.7851
G01 X-0.4860 Y0.8054
G01 X-0.4807 Y0.8321
G01 X-0.4764 Y0.8675
G01 X-0.4750 Y0.8946
G01 X-0.4749 Y15.5565
G01 X-0.4759 Y15.5848
G01 X-0.4786 Y15.6118
G01 X-0.4832 Y15.6401
G01 X-0.4913 Y15.6734
G01 X-0.5025 Y15.7072
G01 X-0.5103 Y15.7267
G01 X-0.5220 Y15.7512
G01 X-0.5396 Y15.7823
G01 X-0.5599 Y15.8121
G01 X-0.5766 Y15.8330
G01 X-0.6000 Y15.8584
G01 X-0.6207 Y15.8778
G01 X-0.6463 Y15.8985
G01 X-0.6709 Y15.9156
G01 X-0.6942 Y15.9295
G01 X-0.7135 Y15.9396
G01 X-0.7420 Y15.9524
G01 X-0.7651 Y15.9609
G01 X-0.7911 Y15.9688
G01 X-0.8184 Y15.9753
G01 X-0.8466 Y15.9799
G01 X-0.8737 Y15.9826
G01 X-0.9020 Y15.9835
G01 X-0.9303 Y15.9826
G01 X-0.9574 Y15.9799
G01 X-0.9856 Y15.9753
G01 X-1.0129 Y15.9688
G01 X-1.0330 Y15.9629
G01 X-1.0528 Y15.9560
G01 X-1.0779 Y15.9456
G01 X-1.0968 Y15.9365
G01 X-1.1278 Y15.9189
G01 X-1.1453 Y15.9074
G01 X-1.1672 Y15.8912
G01 X-1.1833 Y15.8778
G01 X-1.2040 Y15.8584
G01 X-1.2233 Y15.8377
G01 X-1.2367 Y15.8216
G01 X-1.2493 Y15.8049
G01 X-1.2611 Y15.7875
G01 X-1.2751 Y15.7642
G01 X-1.2911 Y15.7324
G01 X-1.3600 Y15.5668
G01 X-1.6868 Y15.2400
G01 X-2.1139 Y15.0631
G01 X-2.5761 Y15.0631
G01 X-3.0032 Y15.2400
G01 X-3.3710 Y15.6078
G01 X-3.3917 Y15.6271
G01 X-3.4078 Y15.6405
G01 X-3.4297 Y15.6567
G01 X-3.4484 Y15.6690
G01 X-3.4782 Y15.6858
G01 X-3.5028 Y15.6975
G01 X-3.5361 Y15.7103
G01 X-3.5621 Y15.7182
G01 X-3.5894 Y15.7246
G01 X-3.6176 Y15.7292
G01 X-3.6385 Y15.7315
G01 X-3.6594 Y15.7326
G01 X-3.6804 Y15.7328
G01 X-3.7013 Y15.7319
G01 X-3.7222 Y15.7300
G01 X-3.7429 Y15.7271
G01 X-3.7635 Y15.7231
G01 X-3.7839 Y15.7182
G01 X-3.8040 Y15.7123
G01 X-3.8296 Y15.7031
G01 X-3.8489 Y15.6949
G01 X-3.8678 Y15.6858
G01 X-3.8862 Y15.6758
G01 X-3.9041 Y15.6649
G01 X-3.9214 Y15.6531
G01 X-3.9382 Y15.6405
G01 X-3.9543 Y15.6271
G01 X-3.9697 Y15.6129
G01 X-3.9844 Y15.5980
G01 X-3.9996 Y15.5810
G01 X-4.0239 Y15.5491
G01 X-4.0362 Y15.5304
G01 X-4.0461 Y15.5136
G01 X-4.0562 Y15.4943
G01 X-4.0647 Y15.4760
G01 X-4.0725 Y15.4566
G01 X-4.0795 Y15.4368
G01 X-4.0854 Y15.4167
G01 X-4.0903 Y15.3963
G01 X-4.0943 Y15.3757
G01 X-4.0974 Y15.3532
G01 X-4.0991 Y15.3341
G01 X-4.1001 Y15.3058
G01 X-4.1001 Y10.5497
G01 X-4.0986 Y10.5151
G01 X-4.0943 Y10.4797
G01 X-4.0890 Y10.4531
G01 X-4.0795 Y10.4187
G01 X-4.0689 Y10.3896
G01 X-4.0562 Y10.3612
G01 X-4.0461 Y10.3419
G01 X-4.0321 Y10.3186
G01 X-4.0151 Y10.2940
G01 X-3.9943 Y10.2684
G01 X-3.9750 Y10.2477
G01 X-2.9261 Y9.1988
G01 X-2.9054 Y9.1794
G01 X-2.8798 Y9.1587
G01 X-2.8212 Y9.1188
G01 X-2.6223 Y8.8211
G01 X-2.5524 Y8.4700
G01 X-2.5632 Y8.4154
G01 X-2.5664 Y8.3947
G01 X-2.5691 Y8.3676
G01 X-2.5701 Y8.3393
G01 X-2.5701 Y5.9580
G01 X-2.5691 Y5.9297
G01 X-2.5672 Y5.9088
G01 X-2.5618 Y5.8744
G01 X-2.5537 Y5.8411
G01 X-2.5425 Y5.8072
G01 X-2.5262 Y5.7695
G01 X-2.5130 Y5.7448
G01 X-2.4939 Y5.7147
G01 X-2.4816 Y5.6977
G01 X-2.4684 Y5.6814
G01 X-2.4450 Y5.6560
G01 X-2.4182 Y5.6314
G01 X-2.3914 Y5.6107
G01 X-2.3676 Y5.5948
G01 X-2.3378 Y5.5780
G01 X-2.3030 Y5.5621
G01 X-2.2799 Y5.5535
G01 X-2.2539 Y5.5456
G01 X-2.2263 Y5.5391
G01 X-2.1640 Y5.5267
G01 X-2.0317 Y5.4383
G01 X-1.9433 Y5.3060
G01 X-1.9039 Y5.1079
G01 X-1.9039 Y2.8921
G01 X-1.9433 Y2.6940
G01 X-2.0317 Y2.5617
G01 X-2.1640 Y2.4733
G01 X-2.3621 Y2.4339
G01 X-4.5779 Y2.4339
G01 X-4.7760 Y2.4733
G01 X-4.9083 Y2.5617
G01 X-4.9967 Y2.6940
G01 X-5.0242 Y2.8306
G01 X-5.0337 Y2.8650
G01 X-5.0406 Y2.8848
G01 X-5.0569 Y2.9225
G01 X-5.0701 Y2.9472
G01 X-5.0810 Y2.9651
G01 X-5.0928 Y2.9824
G01 X-5.1054 Y2.9992
G01 X-5.1188 Y3.0153
G01 X-5.1330 Y3.0307
G01 X-5.1479 Y3.0454
G01 X-5.1650 Y3.0606
G01 X-5.1844 Y3.0760
G01 X-5.2090 Y3.0931
G01 X-5.2269 Y3.1040
G01 X-5.2453 Y3.1140
G01 X-5.2642 Y3.1231
G01 X-5.2893 Y3.1335
G01 X-5.3091 Y3.1404
G01 X-5.3292 Y3.1464
G01 X-5.3565 Y3.1528
G01 X-5.3848 Y3.1574
G01 X-5.4056 Y3.1596
G01 X-5.4265 Y3.1608
G01 X-5.4475 Y3.1610
G01 X-5.4746 Y3.1596
G01 X-5.4955 Y3.1574
G01 X-5.5162 Y3.1542
G01 X-5.5510 Y3.1464
G01 X-5.5770 Y3.1385
G01 X-5.6103 Y3.1256
G01 X-5.6349 Y3.1140
G01 X-5.6659 Y3.0964
G01 X-5.6958 Y3.0760
G01 X-5.7214 Y3.0553
G01 X-5.7421 Y3.0360
G01 X-6.0920 Y2.6860
G01 X-6.6617 Y2.4501
G01 X-7.2783 Y2.4501
G01 X-7.8480 Y2.6860
G01 X-8.2840 Y3.1220
G01 X-8.5199 Y3.6917
G01 X-8.5199 Y4.3083
G01 X-8.2840 Y4.8780
G01 X-7.9950 Y5.1669
G01 X-7.9704 Y5.1937
G01 X-7.9497 Y5.2205
G01 X-7.9338 Y5.2443
G01 X-7.9170 Y5.2741
G01 X-7.9053 Y5.2987
G01 X-7.8925 Y5.3320
G01 X-7.8846 Y5.3580
G01 X-7.8768 Y5.3928
G01 X-7.8726 Y5.4215
G01 X-7.8702 Y5.4553
G01 X-7.8699 Y21.8993
G01 X-7.8709 Y21.9276
G01 X-7.8736 Y21.9547
G01 X-7.8768 Y21.9754
G01 X-7.8876 Y22.0300
G01 X-7.8177 Y22.3811
G01 X-7.6188 Y22.6788
G01 X-7.5602 Y22.7187
G01 X-7.5346 Y22.7394
G01 X-7.5139 Y22.7588
G01 X-5.8838 Y24.3889
G01 X-5.8644 Y24.4096
G01 X-5.8437 Y24.4352
G01 X-5.8038 Y24.4938
G01 X-5.5061 Y24.6927
G01 X-5.1550 Y24.7626
G01 X-5.1004 Y24.7518
G01 X-5.0797 Y24.7486
G01 X-5.0526 Y24.7459
G01 X-5.0243 Y24.7449
G01 X-3.3792 Y24.7449
G01 X-3.3447 Y24.7464
G01 X-3.3238 Y24.7486
G01 X-3.3031 Y24.7518
G01 X-3.2683 Y24.7596
G01 X-3.2482 Y24.7655
G01 X-3.2284 Y24.7725
G01 X-3.1907 Y24.7888
G01 X-3.1714 Y24.7989
G01 X-3.1534 Y24.8096
G01 X-3.1235 Y24.8299
G01 X-3.0979 Y24.8507
G01 X-3.0721 Y24.8753
G01 X-3.0526 Y24.8968
G01 X-3.0371 Y24.9163
G01 X-3.0201 Y24.9409
G01 X-3.0092 Y24.9588
G01 X-2.9960 Y24.9835
G01 X-2.9833 Y25.0120
G01 X-2.9747 Y25.0351
G01 X-2.9668 Y25.0611
G01 X-2.9604 Y25.0884
G01 X-2.9558 Y25.1166
G01 X-2.9531 Y25.1437
G01 X-2.9522 Y25.1646
G01 X-2.9524 Y25.1856
G01 X-2.9550 Y25.2212
G01 X-2.9579 Y25.2419
G01 X-2.9632 Y25.2686
G01 X-2.9685 Y25.2889
G01 X-2.9747 Y25.3089
G01 X-2.9833 Y25.3320
G01 X-2.9960 Y25.3605
G01 X-3.0061 Y25.3798
G01 X-3.0167 Y25.3978
G01 X-3.0283 Y25.4153
G01 X-3.0445 Y25.4372
G01 X-3.0579 Y25.4533
G01 X-3.0772 Y25.4740
G01 X-3.3300 Y25.7268
G01 X-3.5069 Y26.1539
G01 X-3.5069 Y26.6161
G01 X-3.3300 Y27.0432
G01 X-3.0032 Y27.3700
G01 X-2.5761 Y27.5469
G01 X-2.1139 Y27.5469
G01 X-1.6868 Y27.3700
G01 X-1.3600 Y27.0432
G01 X-1.2911 Y26.8776
G01 X-1.2751 Y26.8458
G01 X-1.2644 Y26.8277
G01 X-1.2529 Y26.8102
G01 X-1.2367 Y26.7884
G01 X-1.2233 Y26.7723
G01 X-1.2040 Y26.7516
G01 X-1.1833 Y26.7322
G01 X-1.1672 Y26.7188
G01 X-1.1453 Y26.7026
G01 X-1.1266 Y26.6903
G01 X-1.1098 Y26.6805
G01 X-1.0779 Y26.6644
G01 X-1.0528 Y26.6540
G01 X-1.0189 Y26.6428
G01 X-0.9856 Y26.6347
G01 X-0.9494 Y26.6291
G01 X-0.9156 Y26.6267
G01 X-0.8884 Y26.6267
G01 X-0.8528 Y26.6293
G01 X-0.8184 Y26.6347
G01 X-0.7911 Y26.6412
G01 X-0.7710 Y26.6471
G01 X-0.7512 Y26.6540
G01 X-0.7261 Y26.6644
G01 X-0.6942 Y26.6805
G01 X-0.6709 Y26.6944
G01 X-0.6536 Y26.7062
G01 X-0.6368 Y26.7188
G01 X-0.6098 Y26.7421
G01 X-0.5949 Y26.7568
G01 X-0.5807 Y26.7723
G01 X-0.5673 Y26.7884
G01 X-0.5547 Y26.8051
G01 X-0.5429 Y26.8225
G01 X-0.5320 Y26.8403
G01 X-0.5220 Y26.8588
G01 X-0.5129 Y26.8776
G01 X-0.5061 Y26.8935
G01 X-0.4975 Y26.9166
G01 X-0.4913 Y26.9366
G01 X-0.4860 Y26.9569
G01 X-0.4818 Y26.9775
G01 X-0.4786 Y26.9982
G01 X-0.4764 Y27.0190
G01 X-0.4752 Y27.0399
G01 X-0.4750 Y29.1054
G01 X-0.4759 Y29.1263
G01 X-0.4786 Y29.1534
G01 X-0.4832 Y29.1816
G01 X-0.4896 Y29.2089
G01 X-0.4975 Y29.2349
G01 X-0.5061 Y29.2580
G01 X-0.5188 Y29.2865
G01 X-0.5289 Y29.3058
G01 X-0.5429 Y29.3291
G01 X-0.5599 Y29.3537
G01 X-0.5807 Y29.3793
G01 X-0.6000 Y29.4000
G01 X-0.6207 Y29.4193
G01 X-0.6417 Y29.4366
G01 X-0.6709 Y29.4571
G01 X-0.6888 Y29.4680
G01 X-0.7135 Y29.4812
G01 X-0.7420 Y29.4939
G01 X-0.7651 Y29.5025
G01 X-0.7911 Y29.5104
G01 X-0.8184 Y29.5168
G01 X-0.8466 Y29.5214
G01 X-0.8737 Y29.5241
G01 X-0.9020 Y29.5251
G01 X-44.0980 Y29.5251
G01 X-44.1263 Y29.5241
G01 X-44.1534 Y29.5214
G01 X-44.1816 Y29.5168
G01 X-44.2089 Y29.5104
G01 X-44.2349 Y29.5025
G01 X-44.2580 Y29.4939
G01 X-44.2865 Y29.4812
G01 X-44.3058 Y29.4711
G01 X-44.3291 Y29.4571
G01 X-44.3537 Y29.4401
G01 X-44.3793 Y29.4193
G01 X-44.4000 Y29.4000
G01 X-44.4193 Y29.3793
G01 X-44.4366 Y29.3583
G01 X-44.4571 Y29.3291
G01 X-44.4680 Y29.3112
G01 X-44.4812 Y29.2865
G01 X-44.4939 Y29.2580
G01 X-44.5025 Y29.2349
G01 X-44.5104 Y29.2089
G01 X-44.5168 Y29.1816
G01 X-44.5214 Y29.1534
G01 X-44.5241 Y29.1263
G01 X-44.5251 Y29.0980
G01 X-44.5248 Y5.5577
G00 Z1.0000
G00 X-43.9894 Y2.7261
G01 F76.20
G01 Z-0.2000
G01 F150.00
G01 X-43.9856 Y2.6722
G01 X-43.9804 Y2.6333
G01 X-43.9733 Y2.5947
G01 X-43.9644 Y2.5564
G01 X-43.9536 Y2.5187
G01 X-43.9409 Y2.4815
G01 X-43.9264 Y2.4450
G01 X-43.9106 Y2.4100
G01 X-43.8922 Y2.3743
G01 X-43.8725 Y2.3403
G01 X-43.8512 Y2.3073
G01 X-43.8318 Y2.2800
G01 X-43.8039 Y2.2447
G01 X-43.7779 Y2.2152
G01 X-43.7559 Y2.1921
G01 X-42.3415 Y0.7778
G01 X-42.3185 Y0.7557
G01 X-42.2890 Y0.7298
G01 X-42.2464 Y0.6966
G01 X-42.2141 Y0.6743
G01 X-42.1921 Y0.6604
G01 X-42.1464 Y0.6345
G01 X-42.1111 Y0.6172
G01 X-42.0785 Y0.6029
G01 X-42.0522 Y0.5927
G01 X-42.0150 Y0.5801
G01 X-41.9629 Y0.5657
G01 X-41.9321 Y0.5588
G01 X-41.9003 Y0.5532
G01 X-41.8468 Y0.5466
G01 X-41.8076 Y0.5441
G01 X-41.7757 Y0.5434
G01 X-15.0000 Y0.5434
G01 X-14.9681 Y0.5441
G01 X-14.9142 Y0.5481
G01 X-14.8753 Y0.5532
G01 X-14.8436 Y0.5588
G01 X-14.8127 Y0.5657
G01 X-14.7748 Y0.5758
G01 X-14.7235 Y0.5927
G01 X-14.6870 Y0.6072
G01 X-14.6520 Y0.6231
G01 X-14.6293 Y0.6345
G01 X-14.5950 Y0.6536
G01 X-14.5616 Y0.6743
G01 X-14.5293 Y0.6966
G01 X-14.4867 Y0.7298
G01 X-14.4572 Y0.7557
G01 X-14.4341 Y0.7778
G01 X-13.4041 Y1.8078
G01 X-13.3821 Y1.8308
G01 X-13.3549 Y1.8617
G01 X-13.3282 Y1.8957
G01 X-13.3088 Y1.9230
G01 X-13.2867 Y1.9572
G01 X-13.2678 Y1.9900
G01 X-13.2495 Y2.0256
G01 X-13.2293 Y2.0708
G01 X-13.2141 Y2.1110
G01 X-13.2022 Y2.1484
G01 X-13.1920 Y2.1864
G01 X-13.1867 Y2.2103
G01 X-13.1796 Y2.2490
G01 X-13.1730 Y2.3026
G01 X-13.1704 Y2.3417
G01 X-13.1698 Y2.3663
G01 X-13.1697 Y2.7910
G01 X-13.1004 Y2.8398
G01 X-13.0445 Y2.8839
G01 X-13.0018 Y2.9207
G01 X-12.9447 Y2.9747
G01 X-12.8907 Y3.0318
G01 X-12.8445 Y3.0859
G01 X-12.8063 Y3.1349
G01 X-12.7685 Y3.1884
G01 X-12.7294 Y3.2495
G01 X-12.6878 Y3.3230
G01 X-12.6621 Y3.3741
G01 X-12.6333 Y3.4383
G01 X-12.6024 Y3.5185
G01 X-12.5804 Y3.5862
G01 X-12.5653 Y3.6406
G01 X-12.5494 Y3.7099
G01 X-12.5347 Y3.7945
G01 X-12.5264 Y3.8652
G01 X-12.5215 Y3.9362
G01 X-12.5201 Y3.9926
G01 X-12.5215 Y4.0638
G01 X-12.5278 Y4.1494
G01 X-12.5369 Y4.2200
G01 X-12.5479 Y4.2832
G01 X-12.5653 Y4.3594
G01 X-12.5847 Y4.4279
G01 X-12.6024 Y4.4815
G01 X-12.6276 Y4.5481
G01 X-12.6621 Y4.6259
G01 X-12.6948 Y4.6900
G01 X-12.7302 Y4.7517
G01 X-12.7685 Y4.8116
G01 X-12.8010 Y4.8578
G01 X-12.8445 Y4.9141
G01 X-12.9006 Y4.9792
G01 X-12.9447 Y5.0253
G01 X-12.9908 Y5.0694
G01 X-13.0459 Y5.1173
G01 X-13.1049 Y5.1637
G01 X-13.1697 Y5.2091
G01 X-13.1697 Y6.7222
G01 X-13.1704 Y6.7541
G01 X-13.1730 Y6.7933
G01 X-13.1796 Y6.8469
G01 X-13.1867 Y6.8855
G01 X-13.1956 Y6.9237
G01 X-13.2022 Y6.9474
G01 X-13.2191 Y6.9987
G01 X-13.2293 Y7.0250
G01 X-13.2435 Y7.0576
G01 X-13.2678 Y7.1059
G01 X-13.2875 Y7.1398
G01 X-13.3006 Y7.1606
G01 X-13.3282 Y7.2002
G01 X-13.3468 Y7.2241
G01 X-13.3722 Y7.2541
G01 X-13.4041 Y7.2880
G01 X-19.6820 Y13.5659
G01 X-19.7159 Y13.5978
G01 X-19.7359 Y13.6151
G01 X-19.7698 Y13.6418
G01 X-19.7972 Y13.6612
G01 X-19.8314 Y13.6833
G01 X-19.8771 Y13.7091
G01 X-19.8998 Y13.7205
G01 X-19.9348 Y13.7364
G01 X-19.9852 Y13.7559
G01 X-20.0226 Y13.7678
G01 X-20.0463 Y13.7744
G01 X-20.0989 Y13.7862
G01 X-20.1377 Y13.7926
G01 X-20.1638 Y13.7958
G01 X-20.2012 Y13.7988
G01 X-20.2405 Y13.8002
G01 X-28.3623 Y13.8003
G01 X-38.3472 Y23.7851
G01 X-37.1255 Y25.0067
G01 X-32.1930 Y25.0067
G01 X-32.1464 Y25.0082
G01 X-32.1072 Y25.0114
G01 X-32.0683 Y25.0166
G01 X-32.0366 Y25.0222
G01 X-31.9914 Y25.0326
G01 X-31.9537 Y25.0434
G01 X-31.9165 Y25.0561
G01 X-31.8800 Y25.0706
G01 X-31.8449 Y25.0865
G01 X-31.8223 Y25.0979
G01 X-31.7880 Y25.1169
G01 X-31.7546 Y25.1376
G01 X-31.7150 Y25.1652
G01 X-31.6911 Y25.1838
G01 X-31.6611 Y25.2092
G01 X-31.6324 Y25.2360
G01 X-31.5451 Y25.3232
G01 X-31.4955 Y25.3247
G01 X-31.4582 Y25.3275
G01 X-31.4065 Y25.3335
G01 X-31.3475 Y25.3435
G01 X-31.2898 Y25.3567
G01 X-31.2397 Y25.3710
G01 X-31.2042 Y25.3827
G01 X-31.1520 Y25.4025
G01 X-31.0950 Y25.4278
G01 X-31.0479 Y25.4519
G01 X-31.0028 Y25.4780
G01 X-30.9589 Y25.5061
G01 X-30.9211 Y25.5330
G01 X-30.8870 Y25.5595
G01 X-30.8473 Y25.5932
G01 X-30.8093 Y25.6289
G01 X-30.7632 Y25.6773
G01 X-30.7376 Y25.7070
G01 X-30.7065 Y25.7465
G01 X-30.6680 Y25.8012
G01 X-30.6404 Y25.8454
G01 X-30.6150 Y25.8909
G01 X-30.5978 Y25.9250
G01 X-30.5767 Y25.9718
G01 X-30.5527 Y26.0342
G01 X-30.5367 Y26.0838
G01 X-30.5231 Y26.1341
G01 X-30.5135 Y26.1775
G01 X-30.5057 Y26.2219
G01 X-30.4975 Y26.2882
G01 X-30.4940 Y26.3402
G01 X-30.4930 Y26.3850
G01 X-30.4940 Y26.4298
G01 X-30.4975 Y26.4818
G01 X-30.5035 Y26.5335
G01 X-30.5121 Y26.5849
G01 X-30.5267 Y26.6502
G01 X-30.5410 Y26.7003
G01 X-30.5576 Y26.7497
G01 X-30.5725 Y26.7880
G01 X-30.5919 Y26.8324
G01 X-30.6150 Y26.8791
G01 X-30.6404 Y26.9246
G01 X-30.6761 Y26.9811
G01 X-30.7030 Y27.0189
G01 X-30.7388 Y27.0644
G01 X-30.7731 Y27.1036
G01 X-30.7989 Y27.1307
G01 X-30.8473 Y27.1768
G01 X-30.8770 Y27.2024
G01 X-30.9211 Y27.2370
G01 X-30.9589 Y27.2639
G01 X-31.0040 Y27.2928
G01 X-31.0609 Y27.3250
G01 X-31.1076 Y27.3481
G01 X-31.1520 Y27.3675
G01 X-31.1903 Y27.3824
G01 X-31.2397 Y27.3990
G01 X-31.2898 Y27.4133
G01 X-31.3406 Y27.4251
G01 X-31.4065 Y27.4365
G01 X-31.4582 Y27.4425
G01 X-31.5102 Y27.4460
G01 X-31.5550 Y27.4470
G01 X-31.5998 Y27.4460
G01 X-31.6664 Y27.4411
G01 X-31.7181 Y27.4343
G01 X-31.7625 Y27.4265
G01 X-31.8059 Y27.4169
G01 X-31.8562 Y27.4033
G01 X-31.9197 Y27.3824
G01 X-31.9682 Y27.3633
G01 X-32.0150 Y27.3422
G01 X-32.0491 Y27.3250
G01 X-32.0946 Y27.2996
G01 X-32.1511 Y27.2639
G01 X-32.1889 Y27.2370
G01 X-32.2344 Y27.2012
G01 X-32.2736 Y27.1669
G01 X-32.3059 Y27.1359
G01 X-32.3369 Y27.1036
G01 X-32.3712 Y27.0644
G01 X-32.4123 Y27.0117
G01 X-32.4420 Y26.9688
G01 X-32.4628 Y26.9360
G01 X-32.4950 Y26.8791
G01 X-32.5181 Y26.8324
G01 X-32.5375 Y26.7880
G01 X-32.5524 Y26.7497
G01 X-32.5690 Y26.7003
G01 X-32.5833 Y26.6502
G01 X-32.5933 Y26.6073
G01 X-37.4570 Y26.6073
G01 X-37.4889 Y26.6066
G01 X-37.5281 Y26.6040
G01 X-37.5817 Y26.5974
G01 X-37.6134 Y26.5918
G01 X-37.6443 Y26.5850
G01 X-37.6822 Y26.5748
G01 X-37.7196 Y26.5629
G01 X-37.7599 Y26.5477
G01 X-37.7925 Y26.5335
G01 X-37.8277 Y26.5161
G01 X-37.8620 Y26.4971
G01 X-37.8954 Y26.4764
G01 X-37.9350 Y26.4488
G01 X-37.9703 Y26.4209
G01 X-37.9998 Y26.3949
G01 X-38.0229 Y26.3729
G01 X-39.6055 Y24.7903
G01 X-40.2932 Y24.7903
G01 X-40.3201 Y24.8179
G01 X-40.3617 Y24.8570
G01 X-40.3952 Y24.8859
G01 X-40.4432 Y24.9237
G01 X-40.4851 Y24.9533
G01 X-40.5343 Y24.9850
G01 X-40.5826 Y25.0127
G01 X-40.6342 Y25.0390
G01 X-40.6957 Y25.0664
G01 X-40.7387 Y25.0830
G01 X-40.7928 Y25.1013
G01 X-40.8477 Y25.1169
G01 X-40.9178 Y25.1326
G01 X-40.9742 Y25.1420
G01 X-41.0309 Y25.1486
G01 X-41.0879 Y25.1525
G01 X-41.1376 Y25.1536
G01 X-41.4498 Y25.1535
G01 X-41.5068 Y25.1517
G01 X-41.5491 Y25.1486
G01 X-41.6204 Y25.1398
G01 X-41.6697 Y25.1312
G01 X-41.7323 Y25.1169
G01 X-41.7872 Y25.1013
G01 X-41.8413 Y25.0830
G01 X-41.8843 Y25.0664
G01 X-41.9458 Y25.0390
G01 X-41.9974 Y25.0127
G01 X-42.0469 Y24.9842
G01 X-42.0949 Y24.9533
G01 X-42.1368 Y24.9237
G01 X-42.1748 Y24.8941
G01 X-42.2183 Y24.8570
G01 X-42.2703 Y24.8075
G01 X-42.3094 Y24.7659
G01 X-42.3383 Y24.7324
G01 X-42.3761 Y24.6844
G01 X-42.4057 Y24.6425
G01 X-42.4442 Y24.5818
G01 X-42.4720 Y24.5320
G01 X-42.4914 Y24.4934
G01 X-42.5188 Y24.4319
G01 X-42.5354 Y24.3889
G01 X-42.5537 Y24.3348
G01 X-42.5693 Y24.2799
G01 X-42.5850 Y24.2098
G01 X-42.5944 Y24.1534
G01 X-42.5998 Y24.1096
G01 X-42.6041 Y24.0544
G01 X-42.6060 Y23.9900
G01 X-42.6049 Y23.9403
G01 X-42.6010 Y23.8833
G01 X-42.5922 Y23.8120
G01 X-42.5836 Y23.7627
G01 X-42.5728 Y23.7144
G01 X-42.5579 Y23.6593
G01 X-42.5404 Y23.6050
G01 X-42.5145 Y23.5379
G01 X-42.4914 Y23.4866
G01 X-42.4720 Y23.4480
G01 X-42.4442 Y23.3982
G01 X-42.4057 Y23.3375
G01 X-42.3761 Y23.2956
G01 X-42.3465 Y23.2576
G01 X-42.2996 Y23.2032
G01 X-42.2652 Y23.1672
G01 X-42.2292 Y23.1328
G01 X-42.1848 Y23.0941
G01 X-42.1296 Y23.0511
G01 X-42.0827 Y23.0185
G01 X-42.0469 Y22.9958
G01 X-41.9974 Y22.9673
G01 X-41.9332 Y22.9351
G01 X-41.8809 Y22.9122
G01 X-41.8274 Y22.8920
G01 X-41.7872 Y22.8787
G01 X-41.7180 Y22.8596
G01 X-41.6697 Y22.8488
G01 X-41.6204 Y22.8402
G01 X-41.5620 Y22.8326
G01 X-41.4921 Y22.8275
G01 X-41.4424 Y22.8264
G01 X-41.1302 Y22.8265
G01 X-41.0732 Y22.8283
G01 X-41.0162 Y22.8328
G01 X-40.9596 Y22.8402
G01 X-40.9034 Y22.8503
G01 X-40.8477 Y22.8631
G01 X-40.8069 Y22.8745
G01 X-40.7387 Y22.8970
G01 X-40.6957 Y22.9136
G01 X-40.6468 Y22.9351
G01 X-40.5826 Y22.9673
G01 X-40.5331 Y22.9958
G01 X-40.4973 Y23.0185
G01 X-40.4386 Y23.0598
G01 X-40.3938 Y23.0953
G01 X-40.3617 Y23.1230
G01 X-40.3201 Y23.1621
G01 X-40.2932 Y23.1897
G01 X-40.0152 Y23.1897
G01 X-29.2596 Y12.4341
G01 X-29.2257 Y12.4022
G01 X-29.2057 Y12.3849
G01 X-29.1718 Y12.3582
G01 X-29.1444 Y12.3388
G01 X-29.1102 Y12.3167
G01 X-29.0645 Y12.2909
G01 X-29.0418 Y12.2795
G01 X-29.0068 Y12.2636
G01 X-28.9703 Y12.2491
G01 X-28.9331 Y12.2364
G01 X-28.8810 Y12.2220
G01 X-28.8502 Y12.2152
G01 X-28.8185 Y12.2096
G01 X-28.7778 Y12.2042
G01 X-28.7404 Y12.2012
G01 X-28.6938 Y12.1997
G01 X-20.5793 Y12.1997
G01 X-14.7703 Y6.3907
G01 X-14.7703 Y5.2090
G01 X-14.8351 Y5.1637
G01 X-14.8955 Y5.1161
G01 X-14.9492 Y5.0694
G01 X-14.9953 Y5.0253
G01 X-15.0394 Y4.9792
G01 X-15.0873 Y4.9241
G01 X-15.1390 Y4.8578
G01 X-15.1796 Y4.7994
G01 X-15.2106 Y4.7505
G01 X-15.2452 Y4.6900
G01 X-15.2779 Y4.6259
G01 X-15.3124 Y4.5481
G01 X-15.3376 Y4.4815
G01 X-15.3596 Y4.4138
G01 X-15.3747 Y4.3594
G01 X-15.3921 Y4.2832
G01 X-15.4053 Y4.2055
G01 X-15.4124 Y4.1477
G01 X-15.4178 Y4.0785
G01 X-15.4200 Y4.0000
G01 X-15.4178 Y3.9215
G01 X-15.4122 Y3.8506
G01 X-15.4031 Y3.7800
G01 X-15.3921 Y3.7168
G01 X-15.3782 Y3.6548
G01 X-15.3553 Y3.5721
G01 X-15.3327 Y3.5046
G01 X-15.3110 Y3.4485
G01 X-15.2776 Y3.3734
G01 X-15.2452 Y3.3100
G01 X-15.2174 Y3.2609
G01 X-15.1715 Y3.1884
G01 X-15.1337 Y3.1349
G01 X-15.0955 Y3.0859
G01 X-15.0493 Y3.0318
G01 X-14.9953 Y2.9747
G01 X-14.9382 Y2.9207
G01 X-14.8941 Y2.8827
G01 X-14.8396 Y2.8398
G01 X-14.7703 Y2.7909
G01 X-14.7703 Y2.7051
G01 X-15.3315 Y2.1439
G01 X-41.4442 Y2.1439
G01 X-42.3898 Y3.0895
G01 X-42.3898 Y4.2505
G01 X-40.7190 Y5.9214
G01 X-40.6922 Y5.9501
G01 X-40.6749 Y5.9701
G01 X-40.6482 Y6.0040
G01 X-40.6288 Y6.0313
G01 X-40.6067 Y6.0655
G01 X-40.5878 Y6.0983
G01 X-40.5635 Y6.1465
G01 X-40.5493 Y6.1791
G01 X-40.5341 Y6.2194
G01 X-40.5222 Y6.2568
G01 X-40.5120 Y6.2947
G01 X-40.5052 Y6.3256
G01 X-40.4974 Y6.3719
G01 X-40.4930 Y6.4109
G01 X-40.4904 Y6.4501
G01 X-40.4897 Y6.4820
G01 X-40.4897 Y8.1504
G01 X-40.4627 Y8.1884
G01 X-40.4361 Y8.2296
G01 X-40.4047 Y8.2851
G01 X-40.3889 Y8.3165
G01 X-40.3690 Y8.3605
G01 X-40.3461 Y8.4201
G01 X-40.3310 Y8.4668
G01 X-40.3218 Y8.4999
G01 X-40.3079 Y8.5621
G01 X-40.2998 Y8.6106
G01 X-40.2954 Y8.6464
G01 X-40.2917 Y8.6936
G01 X-40.2901 Y8.7426
G01 X-40.2909 Y8.7917
G01 X-40.2942 Y8.8407
G01 X-40.2998 Y8.8894
G01 X-40.3093 Y8.9454
G01 X-40.3183 Y8.9858
G01 X-40.3310 Y9.0332
G01 X-40.3461 Y9.0799
G01 X-40.3647 Y9.1293
G01 X-40.3829 Y9.1709
G01 X-40.4047 Y9.2149
G01 X-40.4286 Y9.2577
G01 X-40.4545 Y9.2994
G01 X-40.4878 Y9.3470
G01 X-40.5124 Y9.3786
G01 X-40.5442 Y9.4160
G01 X-40.5829 Y9.4571
G01 X-40.6240 Y9.4958
G01 X-40.6614 Y9.5276
G01 X-40.6930 Y9.5522
G01 X-40.7406 Y9.5855
G01 X-40.7823 Y9.6114
G01 X-40.8251 Y9.6353
G01 X-40.8691 Y9.6571
G01 X-40.9107 Y9.6753
G01 X-40.9601 Y9.6939
G01 X-41.0068 Y9.7090
G01 X-41.0542 Y9.7217
G01 X-41.0946 Y9.7307
G01 X-41.1360 Y9.7380
G01 X-41.1864 Y9.7446
G01 X-41.2336 Y9.7483
G01 X-41.2900 Y9.7500
G01 X-41.3317 Y9.7491
G01 X-41.3807 Y9.7458
G01 X-41.4440 Y9.7380
G01 X-41.4854 Y9.7307
G01 X-41.5258 Y9.7217
G01 X-41.5732 Y9.7090
G01 X-41.6199 Y9.6939
G01 X-41.6795 Y9.6710
G01 X-41.7235 Y9.6511
G01 X-41.7549 Y9.6353
G01 X-41.8104 Y9.6039
G01 X-41.8516 Y9.5773
G01 X-41.8916 Y9.5487
G01 X-41.9300 Y9.5183
G01 X-41.9560 Y9.4958
G01 X-42.0022 Y9.4518
G01 X-42.0358 Y9.4160
G01 X-42.0595 Y9.3886
G01 X-42.0922 Y9.3470
G01 X-42.1173 Y9.3116
G01 X-42.1514 Y9.2577
G01 X-42.1753 Y9.2149
G01 X-42.1971 Y9.1709
G01 X-42.2153 Y9.1293
G01 X-42.2339 Y9.0799
G01 X-42.2490 Y9.0332
G01 X-42.2582 Y9.0001
G01 X-42.2707 Y8.9454
G01 X-42.2780 Y8.9040
G01 X-42.2846 Y8.8536
G01 X-42.2891 Y8.7917
G01 X-42.2899 Y8.7426
G01 X-42.2883 Y8.6936
G01 X-42.2858 Y8.6593
G01 X-42.2802 Y8.6106
G01 X-42.2707 Y8.5546
G01 X-42.2582 Y8.4999
G01 X-42.2447 Y8.4527
G01 X-42.2290 Y8.4062
G01 X-42.2166 Y8.3742
G01 X-42.1971 Y8.3291
G01 X-42.1753 Y8.2851
G01 X-42.1514 Y8.2423
G01 X-42.1255 Y8.2006
G01 X-42.0903 Y8.1504
G01 X-42.0903 Y6.8135
G01 X-43.7559 Y5.1479
G01 X-43.7779 Y5.1248
G01 X-43.8051 Y5.0939
G01 X-43.8318 Y5.0600
G01 X-43.8512 Y5.0327
G01 X-43.8733 Y4.9985
G01 X-43.8922 Y4.9657
G01 X-43.9106 Y4.9300
G01 X-43.9264 Y4.8950
G01 X-43.9409 Y4.8585
G01 X-43.9578 Y4.8072
G01 X-43.9680 Y4.7693
G01 X-43.9762 Y4.7309
G01 X-43.9826 Y4.6921
G01 X-43.9858 Y4.6660
G01 X-43.9888 Y4.6286
G01 X-43.9902 Y4.5894
G01 X-43.9903 Y2.7580
G01 X-43.9894 Y2.7261
G00 Z1.0000
G00 X-42.2889 Y3.6283
G01 F76.20
G01 Z-0.2000
G01 F150.00
G01 X-42.2844 Y3.5647
G01 X-42.2780 Y3.5160
G01 X-42.2693 Y3.4677
G01 X-42.2582 Y3.4199
G01 X-42.2447 Y3.3727
G01 X-42.2290 Y3.3262
G01 X-42.2110 Y3.2805
G01 X-42.1911 Y3.2366
G01 X-42.1684 Y3.1922
G01 X-42.1439 Y3.1496
G01 X-42.1173 Y3.1084
G01 X-42.0922 Y3.0730
G01 X-42.0583 Y3.0300
G01 X-42.0259 Y2.9930
G01 X-41.9971 Y2.9629
G01 X-41.9670 Y2.9341
G01 X-41.9286 Y2.9005
G01 X-41.8870 Y2.8678
G01 X-41.8516 Y2.8427
G01 X-41.7977 Y2.8086
G01 X-41.7549 Y2.7847
G01 X-41.7109 Y2.7629
G01 X-41.6693 Y2.7447
G01 X-41.6199 Y2.7261
G01 X-41.5732 Y2.7110
G01 X-41.5258 Y2.6983
G01 X-41.4854 Y2.6893
G01 X-41.4440 Y2.6820
G01 X-41.3936 Y2.6754
G01 X-41.3464 Y2.6717
G01 X-41.2826 Y2.6701
G01 X-41.2336 Y2.6717
G01 X-41.1847 Y2.6756
G01 X-41.1360 Y2.6820
G01 X-41.0946 Y2.6893
G01 X-41.0542 Y2.6983
G01 X-41.0068 Y2.7110
G01 X-40.9601 Y2.7261
G01 X-40.9142 Y2.7434
G01 X-40.8558 Y2.7692
G01 X-40.8122 Y2.7916
G01 X-40.7696 Y2.8161
G01 X-40.7284 Y2.8427
G01 X-40.6904 Y2.8697
G01 X-28.7286 Y2.8697
G01 X-28.6820 Y2.8712
G01 X-28.6429 Y2.8744
G01 X-28.6039 Y2.8796
G01 X-28.5797 Y2.8838
G01 X-28.5271 Y2.8956
G01 X-28.4893 Y2.9064
G01 X-28.4521 Y2.9191
G01 X-28.4258 Y2.9293
G01 X-28.3932 Y2.9435
G01 X-28.3449 Y2.9678
G01 X-28.3110 Y2.9875
G01 X-28.2780 Y3.0088
G01 X-28.2506 Y3.0282
G01 X-28.2267 Y3.0468
G01 X-28.1858 Y3.0821
G01 X-28.1628 Y3.1041
G01 X-25.8572 Y5.4097
G01 X-23.5115 Y5.4097
G01 X-22.3908 Y4.2891
G01 X-22.4031 Y4.2200
G01 X-22.4124 Y4.1477
G01 X-22.4185 Y4.0638
G01 X-22.4199 Y3.9926
G01 X-22.4178 Y3.9215
G01 X-22.4122 Y3.8506
G01 X-22.4031 Y3.7800
G01 X-22.3921 Y3.7168
G01 X-22.3782 Y3.6548
G01 X-22.3596 Y3.5862
G01 X-22.3376 Y3.5185
G01 X-22.3110 Y3.4485
G01 X-22.2779 Y3.3741
G01 X-22.2452 Y3.3100
G01 X-22.2098 Y3.2483
G01 X-22.1715 Y3.1884
G01 X-22.1337 Y3.1349
G01 X-22.0955 Y3.0859
G01 X-22.0394 Y3.0208
G01 X-21.9953 Y2.9747
G01 X-21.9382 Y2.9207
G01 X-21.8941 Y2.8827
G01 X-21.8351 Y2.8363
G01 X-21.7816 Y2.7985
G01 X-21.7205 Y2.7594
G01 X-21.6600 Y2.7248
G01 X-21.5966 Y2.6924
G01 X-21.5181 Y2.6576
G01 X-21.4515 Y2.6324
G01 X-21.3979 Y2.6147
G01 X-21.3294 Y2.5953
G01 X-21.2601 Y2.5794
G01 X-21.1900 Y2.5669
G01 X-21.1177 Y2.5576
G01 X-21.0338 Y2.5515
G01 X-20.9626 Y2.5501
G01 X-20.8915 Y2.5522
G01 X-20.8206 Y2.5578
G01 X-20.7500 Y2.5669
G01 X-20.6868 Y2.5779
G01 X-20.6248 Y2.5918
G01 X-20.5421 Y2.6147
G01 X-20.4746 Y2.6373
G01 X-20.4185 Y2.6590
G01 X-20.3434 Y2.6924
G01 X-20.2800 Y2.7248
G01 X-20.2309 Y2.7526
G01 X-20.1706 Y2.7904
G01 X-20.1049 Y2.8363
G01 X-20.0445 Y2.8839
G01 X-19.9908 Y2.9306
G01 X-19.9396 Y2.9800
G01 X-19.8907 Y3.0318
G01 X-19.8527 Y3.0759
G01 X-19.8098 Y3.1304
G01 X-19.7685 Y3.1884
G01 X-19.7294 Y3.2495
G01 X-19.6878 Y3.3230
G01 X-19.6561 Y3.3867
G01 X-19.6290 Y3.4485
G01 X-19.6024 Y3.5185
G01 X-19.5804 Y3.5862
G01 X-19.5653 Y3.6406
G01 X-19.5494 Y3.7099
G01 X-19.5369 Y3.7800
G01 X-19.5276 Y3.8523
G01 X-19.5215 Y3.9362
G01 X-19.5201 Y4.0074
G01 X-19.5222 Y4.0785
G01 X-19.5278 Y4.1494
G01 X-19.5369 Y4.2200
G01 X-19.5479 Y4.2832
G01 X-19.5618 Y4.3452
G01 X-19.5804 Y4.4138
G01 X-19.6024 Y4.4815
G01 X-19.6290 Y4.5515
G01 X-19.6561 Y4.6133
G01 X-19.6878 Y4.6770
G01 X-19.7226 Y4.7391
G01 X-19.7604 Y4.7994
G01 X-19.8063 Y4.8651
G01 X-19.8539 Y4.9255
G01 X-19.9006 Y4.9792
G01 X-19.9447 Y5.0253
G01 X-20.0018 Y5.0793
G01 X-20.0559 Y5.1255
G01 X-20.1049 Y5.1637
G01 X-20.1584 Y5.2015
G01 X-20.2195 Y5.2406
G01 X-20.2930 Y5.2822
G01 X-20.3567 Y5.3139
G01 X-20.4185 Y5.3410
G01 X-20.4746 Y5.3627
G01 X-20.5421 Y5.3853
G01 X-20.6106 Y5.4047
G01 X-20.6868 Y5.4221
G01 X-20.7500 Y5.4331
G01 X-20.8223 Y5.4424
G01 X-20.9062 Y5.4485
G01 X-20.9774 Y5.4499
G01 X-21.0485 Y5.4478
G01 X-21.1048 Y5.4436
G01 X-21.1755 Y5.4353
G01 X-21.2591 Y5.4208
G01 X-22.6141 Y6.7759
G01 X-22.6372 Y6.7979
G01 X-22.6681 Y6.8251
G01 X-22.6974 Y6.8483
G01 X-22.7416 Y6.8794
G01 X-22.7635 Y6.8933
G01 X-22.7963 Y6.9122
G01 X-22.8320 Y6.9305
G01 X-22.8670 Y6.9464
G01 X-22.9035 Y6.9609
G01 X-22.9407 Y6.9736
G01 X-22.9784 Y6.9844
G01 X-23.0236 Y6.9948
G01 X-23.0553 Y7.0004
G01 X-23.0960 Y7.0058
G01 X-23.1334 Y7.0088
G01 X-23.1726 Y7.0102
G01 X-26.5656 Y7.0103
G01 X-26.5868 Y7.0299
G01 X-26.6279 Y7.0649
G01 X-26.6634 Y7.0926
G01 X-26.7150 Y7.1286
G01 X-26.7608 Y7.1572
G01 X-26.8080 Y7.1835
G01 X-26.8564 Y7.2075
G01 X-26.9024 Y7.2276
G01 X-26.9564 Y7.2481
G01 X-27.0078 Y7.2647
G01 X-27.0599 Y7.2787
G01 X-27.1051 Y7.2888
G01 X-27.1659 Y7.2991
G01 X-27.2195 Y7.3053
G01 X-27.2734 Y7.3089
G01 X-27.3274 Y7.3099
G01 X-27.3813 Y7.3082
G01 X-27.4351 Y7.3039
G01 X-27.4741 Y7.2991
G01 X-27.5349 Y7.2888
G01 X-27.5944 Y7.2752
G01 X-27.6463 Y7.2604
G01 X-27.6836 Y7.2481
G01 X-27.7376 Y7.2276
G01 X-27.7962 Y7.2015
G01 X-27.8320 Y7.1835
G01 X-27.8792 Y7.1572
G01 X-27.9372 Y7.1205
G01 X-27.9811 Y7.0891
G01 X-28.0235 Y7.0556
G01 X-28.0532 Y7.0299
G01 X-28.0978 Y6.9878
G01 X-28.1399 Y6.9432
G01 X-28.1749 Y6.9021
G01 X-28.2026 Y6.8666
G01 X-28.2305 Y6.8272
G01 X-28.2604 Y6.7806
G01 X-28.2866 Y6.7350
G01 X-28.3112 Y6.6869
G01 X-28.3390 Y6.6241
G01 X-28.3581 Y6.5736
G01 X-28.3747 Y6.5222
G01 X-28.3887 Y6.4701
G01 X-28.3973 Y6.4318
G01 X-28.4091 Y6.3641
G01 X-28.4153 Y6.3105
G01 X-28.4189 Y6.2566
G01 X-28.4200 Y6.2100
G01 X-28.4189 Y6.1634
G01 X-28.4139 Y6.0949
G01 X-28.4069 Y6.0413
G01 X-28.4002 Y6.0026
G01 X-28.3852 Y5.9356
G01 X-28.3704 Y5.8837
G01 X-28.3581 Y5.8464
G01 X-28.3334 Y5.7823
G01 X-28.3115 Y5.7338
G01 X-28.2866 Y5.6850
G01 X-28.2596 Y5.6382
G01 X-28.2386 Y5.6050
G01 X-28.2026 Y5.5534
G01 X-28.1749 Y5.5179
G01 X-28.1399 Y5.4768
G01 X-28.1203 Y5.4556
G01 X-28.1203 Y5.4101
G01 X-29.0601 Y4.4703
G01 X-40.6904 Y4.4703
G01 X-40.7284 Y4.4973
G01 X-40.7708 Y4.5246
G01 X-40.8122 Y4.5484
G01 X-40.8558 Y4.5708
G01 X-40.9142 Y4.5966
G01 X-40.9601 Y4.6139
G01 X-41.0068 Y4.6290
G01 X-41.0542 Y4.6417
G01 X-41.0946 Y4.6507
G01 X-41.1360 Y4.6580
G01 X-41.1864 Y4.6646
G01 X-41.2336 Y4.6683
G01 X-41.2826 Y4.6699
G01 X-41.3464 Y4.6683
G01 X-41.3953 Y4.6644
G01 X-41.4440 Y4.6580
G01 X-41.4854 Y4.6507
G01 X-41.5401 Y4.6382
G01 X-41.5873 Y4.6247
G01 X-41.6338 Y4.6090
G01 X-41.6795 Y4.5910
G01 X-41.7235 Y4.5711
G01 X-41.7678 Y4.5484
G01 X-41.8104 Y4.5239
G01 X-41.8516 Y4.4973
G01 X-41.8870 Y4.4722
G01 X-41.9300 Y4.4383
G01 X-41.9670 Y4.4059
G01 X-41.9971 Y4.3771
G01 X-42.0358 Y4.3360
G01 X-42.0595 Y4.3086
G01 X-42.0922 Y4.2670
G01 X-42.1255 Y4.2194
G01 X-42.1514 Y4.1777
G01 X-42.1753 Y4.1349
G01 X-42.1971 Y4.0909
G01 X-42.2153 Y4.0493
G01 X-42.2339 Y3.9999
G01 X-42.2490 Y3.9532
G01 X-42.2617 Y3.9058
G01 X-42.2707 Y3.8654
G01 X-42.2802 Y3.8094
G01 X-42.2858 Y3.7607
G01 X-42.2891 Y3.7117
G01 X-42.2900 Y3.6700
G01 X-42.2889 Y3.6283
G00 Z1.0000
M05
G00 Z1.0000
G00 Z20.00
G00 X0.0 Y0.0

