(G-CODE GENERATED BY FLATCAM v8.93 - www.flatcam.org - Version Date: 2019/08/10)

(Name: percage_multicapteur)
(Type: G-code from Excellon)
(Units: MM)

(Created on Monday, 23 December 2019 at 20:35)

(Feedrate: 80.0 mm/min)
(Feedrate rapids 76.2 mm/min)

(Z_Cut: -2.0 mm)
(Z_Move: 1.0 mm)
(Z Toolchange: 30.0 mm)
(X,Y Toolchange: 0.0000, 0.0000 mm)
(Z Start: None mm)
(Z End: 12.7 mm)
(Steps per circle: 128)
(Postprocessor Excellon: default)

(X range:  -42.4200 ...   -3.9640  mm)
(Y range:    1.8600 ...   22.7660  mm)

(Spindle Speed: 12000.0 RPM)

G21
G90
G94

G01 F80.00
G00 Z1.0000

M03 S12000.0
G00 X-30.5900 Y7.2900
G01 Z-2.0000
G01 Z0
G00 Z1.0000
G00 X-30.5900 Y2.2100
G01 Z-2.0000
G01 Z0
G00 Z1.0000
M03 S12000.0
G00 X-4.3450 Y22.3850
G01 Z-2.0000
G01 Z0
G00 Z1.0000
G00 X-4.3450 Y19.8450
G01 Z-2.0000
G01 Z0
G00 Z1.0000
G00 X-4.3450 Y17.3050
G01 Z-2.0000
G01 Z0
G00 Z1.0000
G00 X-4.3450 Y14.7650
G01 Z-2.0000
G01 Z0
G00 Z1.0000
G00 X-4.3450 Y12.2250
G01 Z-2.0000
G01 Z0
G00 Z1.0000
G00 X-33.5550 Y14.7650
G01 Z-2.0000
G01 Z0
G00 Z1.0000
G00 X-33.5550 Y17.3050
G01 Z-2.0000
G01 Z0
G00 Z1.0000
G00 X-33.5550 Y19.8450
G01 Z-2.0000
G01 Z0
G00 Z1.0000
G00 X-33.5550 Y22.3850
G01 Z-2.0000
G01 Z0
G00 Z1.0000
M03 S12000.0
G00 X-34.4000 Y4.7500
G01 Z-2.0000
G01 Z0
G00 Z1.0000
G00 X-42.0200 Y4.7500
G01 Z-2.0000
G01 Z0
G00 Z1.0000
M03 S12000.0
G00 X-39.0000 Y20.0000
G01 Z-2.0000
G01 Z0
G00 Z1.0000
G00 X-39.0000 Y17.4600
G01 Z-2.0000
G01 Z0
G00 Z1.0000
G00 X-39.0000 Y14.9200
G01 Z-2.0000
G01 Z0
G00 Z1.0000
M03 S12000.0
G00 X-5.0000 Y5.0000
G01 Z-2.0000
G01 Z0
G00 Z1.0000
G00 X-8.5000 Y5.0000
G01 Z-2.0000
G01 Z0
G00 Z1.0000
G00 X-12.0000 Y5.0000
G01 Z-2.0000
G01 Z0
G00 Z1.0000
G00 X-15.5000 Y5.0000
G01 Z-2.0000
G01 Z0
G00 Z1.0000
G00 X-19.0000 Y5.0000
G01 Z-2.0000
G01 Z0
G00 Z1.0000
G00 X-22.5000 Y5.0000
G01 Z-2.0000
G01 Z0
G00 Z1.0000
M05
G00 Z12.70
G00 X0.0 Y0.0

M02