(G-CODE GENERATED BY FLATCAM v8.99 - www.flatcam.org - Version Date: 2019/12/15)

(Name: percage_08_multicapteur)
(Type: G-code from Excellon)
(Units: MM)

(Created on Monday, 23 December 2019 at 23:31)

(Feedrate: 76.2 mm/min)
(Feedrate rapids 76.2 mm/min)

(Z_Cut: -2.0 mm)
(Z_Move: 1.0 mm)
(Z Toolchange: 30.0 mm)
(X,Y Toolchange: 0.0000, 0.0000 mm)
(Z Start: None mm)
(Z End: 30.0 mm)
(Steps per circle: 128)
(Preprocessor Excellon: default)

(X range:    1.9640 ...   41.7980  mm)
(Y range:    3.3200 ...   26.7660  mm)

(Spindle Speed: 12000.0 RPM)
G21
G90
G94




G01 F76.20
G00 Z1.0000

M03 S12000.0
G00 X-41.2900 Y8.7500
G01 Z-2.0000
G01 Z0
G00 Z1.0000
G00 X-41.2900 Y3.6700
G01 Z-2.0000
G01 Z0
G00 Z1.0000
M03 S12000.0
G00 X-2.3450 Y26.3850
G01 Z-2.0000
G01 Z0
G00 Z1.0000
G00 X-2.3450 Y23.8450
G01 Z-2.0000
G01 Z0
G00 Z1.0000
G00 X-2.3450 Y21.3050
G01 Z-2.0000
G01 Z0
G00 Z1.0000
G00 X-2.3450 Y18.7650
G01 Z-2.0000
G01 Z0
G00 Z1.0000
G00 X-2.3450 Y16.2250
G01 Z-2.0000
G01 Z0
G00 Z1.0000
G00 X-31.5550 Y18.7650
G01 Z-2.0000
G01 Z0
G00 Z1.0000
G00 X-31.5550 Y21.3050
G01 Z-2.0000
G01 Z0
G00 Z1.0000
G00 X-31.5550 Y23.8450
G01 Z-2.0000
G01 Z0
G00 Z1.0000
G00 X-31.5550 Y26.3850
G01 Z-2.0000
G01 Z0
G00 Z1.0000
M03 S12000.0
G00 X-27.3200 Y6.2100
G01 Z-2.0000
G01 Z0
G00 Z1.0000
G00 X-34.9400 Y6.2100
G01 Z-2.0000
G01 Z0
G00 Z1.0000
M05
G00 Z30.00
G00 X0.0 Y0.0

