(G-CODE GENERATED BY FLATCAM v8.99 - www.flatcam.org - Version Date: 2019/12/15)

(Name: copper_vmc_iso_cnc)
(Type: G-code from Geometry)
(Units: MM)

(Created on Saturday, 25 January 2020 at 16:33)

(TOOL DIAMETER: 0.6 mm)
(Feedrate: 200.0 mm/min)
(Feedrate_Z: 76.2 mm/min)
(Feedrate rapids 76.2 mm/min)

(Z_Cut: -0.2 mm)
(Z_Move: 1.0 mm)
(Z Toolchange: 12.7 mm)
(X,Y Toolchange: 0.0000, 0.0000 mm)
(Z Start: None mm)
(Z End: 30.0 mm)
(Steps per circle: 128)
(Preprocessor Geometry: default)

(X range:  -30.3001 ...   -0.6999  mm)
(Y range:    0.6999 ...   17.3001  mm)

(Spindle Speed: 12000 RPM)
G21
G90
G94




G01 F200.00
G00 Z1.0000

M03 S12000
G00 X-9.8000 Y10.0037
G01 F76.20
G01 Z-0.2000
G01 F200.00
G01 X-9.7966 Y9.8626
G01 X-9.7865 Y9.7256
G01 X-9.7697 Y9.5892
G01 X-9.7462 Y9.4537
G01 X-9.7161 Y9.3197
G01 X-9.6794 Y9.1872
G01 X-9.6363 Y9.0567
G01 X-9.5869 Y8.9285
G01 X-9.5312 Y8.8028
G01 X-9.4694 Y8.6801
G01 X-9.4016 Y8.5605
G01 X-9.3281 Y8.4444
G01 X-9.2490 Y8.3320
G01 X-9.1644 Y8.2237
G01 X-9.0747 Y8.1196
G01 X-8.9799 Y8.0201
G01 X-8.8804 Y7.9253
G01 X-8.7763 Y7.8356
G01 X-8.6680 Y7.7510
G01 X-8.5556 Y7.6719
G01 X-8.4395 Y7.5984
G01 X-8.3199 Y7.5306
G01 X-8.1972 Y7.4688
G01 X-8.0715 Y7.4131
G01 X-7.9433 Y7.3637
G01 X-7.8128 Y7.3206
G01 X-7.6803 Y7.2839
G01 X-7.5463 Y7.2538
G01 X-7.4108 Y7.2303
G01 X-7.2744 Y7.2135
G01 X-7.1374 Y7.2034
G01 X-7.0000 Y7.2000
G01 X-6.8626 Y7.2034
G01 X-6.7256 Y7.2135
G01 X-6.5892 Y7.2303
G01 X-6.4537 Y7.2538
G01 X-6.3197 Y7.2839
G01 X-6.1872 Y7.3206
G01 X-6.0567 Y7.3637
G01 X-5.9285 Y7.4131
G01 X-5.8028 Y7.4688
G01 X-5.6801 Y7.5306
G01 X-5.5605 Y7.5984
G01 X-5.4444 Y7.6719
G01 X-5.3320 Y7.7510
G01 X-5.2237 Y7.8356
G01 X-5.1196 Y7.9253
G01 X-5.0201 Y8.0201
G01 X-4.9253 Y8.1196
G01 X-4.8356 Y8.2237
G01 X-4.7510 Y8.3320
G01 X-4.6719 Y8.4444
G01 X-4.5984 Y8.5605
G01 X-4.5306 Y8.6801
G01 X-4.4688 Y8.8028
G01 X-4.4131 Y8.9285
G01 X-4.3637 Y9.0567
G01 X-4.3206 Y9.1872
G01 X-4.2839 Y9.3197
G01 X-4.2538 Y9.4537
G01 X-4.2303 Y9.5892
G01 X-4.2135 Y9.7256
G01 X-4.2034 Y9.8626
G01 X-4.2000 Y10.0000
G01 X-4.2034 Y10.1374
G01 X-4.2135 Y10.2744
G01 X-4.2303 Y10.4108
G01 X-4.2538 Y10.5463
G01 X-4.2839 Y10.6803
G01 X-4.3206 Y10.8128
G01 X-4.3637 Y10.9433
G01 X-4.4131 Y11.0715
G01 X-4.4688 Y11.1972
G01 X-4.5306 Y11.3199
G01 X-4.5984 Y11.4395
G01 X-4.6719 Y11.5556
G01 X-4.7510 Y11.6680
G01 X-4.8356 Y11.7763
G01 X-4.9253 Y11.8804
G01 X-5.0201 Y11.9799
G01 X-5.1196 Y12.0747
G01 X-5.2237 Y12.1644
G01 X-5.3320 Y12.2490
G01 X-5.4444 Y12.3281
G01 X-5.5605 Y12.4016
G01 X-5.6801 Y12.4694
G01 X-5.8028 Y12.5312
G01 X-5.9285 Y12.5869
G01 X-6.0567 Y12.6363
G01 X-6.1872 Y12.6794
G01 X-6.3197 Y12.7161
G01 X-6.4537 Y12.7462
G01 X-6.5892 Y12.7697
G01 X-6.7256 Y12.7865
G01 X-6.8626 Y12.7966
G01 X-7.0000 Y12.8000
G01 X-7.1374 Y12.7966
G01 X-7.2744 Y12.7865
G01 X-7.4108 Y12.7697
G01 X-7.5463 Y12.7462
G01 X-7.6803 Y12.7161
G01 X-7.8128 Y12.6794
G01 X-7.9433 Y12.6363
G01 X-8.0715 Y12.5869
G01 X-8.1972 Y12.5312
G01 X-8.3199 Y12.4694
G01 X-8.4395 Y12.4016
G01 X-8.5556 Y12.3281
G01 X-8.6680 Y12.2490
G01 X-8.7763 Y12.1644
G01 X-8.8804 Y12.0747
G01 X-8.9799 Y11.9799
G01 X-9.0747 Y11.8804
G01 X-9.1644 Y11.7763
G01 X-9.2490 Y11.6680
G01 X-9.3281 Y11.5556
G01 X-9.4016 Y11.4395
G01 X-9.4694 Y11.3199
G01 X-9.5312 Y11.1972
G01 X-9.5869 Y11.0715
G01 X-9.6363 Y10.9433
G01 X-9.6794 Y10.8128
G01 X-9.7161 Y10.6803
G01 X-9.7462 Y10.5463
G01 X-9.7697 Y10.4108
G01 X-9.7865 Y10.2744
G01 X-9.7966 Y10.1374
G01 X-9.8000 Y10.0037
G00 Z1.0000
G00 X-23.5553 Y13.0077
G01 F76.20
G01 Z-0.2000
G01 F200.00
G01 X-23.5553 Y12.7274
G01 X-23.5829 Y12.7389
G01 X-24.0706 Y13.2265
G01 X-24.0887 Y13.2433
G01 X-24.1097 Y13.2605
G01 X-24.1327 Y13.2771
G01 X-24.1504 Y13.2883
G01 X-24.1687 Y13.2986
G01 X-24.1941 Y13.3111
G01 X-24.2192 Y13.3215
G01 X-24.2390 Y13.3284
G01 X-24.2662 Y13.3362
G01 X-24.2867 Y13.3408
G01 X-24.3073 Y13.3444
G01 X-24.3355 Y13.3476
G01 X-24.3626 Y13.3489
G01 X-24.3836 Y13.3488
G01 X-24.4119 Y13.3470
G01 X-24.4327 Y13.3444
G01 X-24.4605 Y13.3393
G01 X-24.4869 Y13.3327
G01 X-24.5139 Y13.3241
G01 X-24.5334 Y13.3165
G01 X-24.5648 Y13.3020
G01 X-24.5958 Y13.2844
G01 X-24.6244 Y13.2650
G01 X-24.6409 Y13.2521
G01 X-24.6568 Y13.2384
G01 X-25.1571 Y12.7389
G01 X-25.7819 Y12.4801
G01 X-26.0417 Y12.4800
G01 X-26.0725 Y12.4786
G01 X-26.1007 Y12.4754
G01 X-26.1213 Y12.4719
G01 X-26.1489 Y12.4654
G01 X-26.1690 Y12.4595
G01 X-26.1946 Y12.4503
G01 X-26.2206 Y12.4391
G01 X-26.2393 Y12.4296
G01 X-26.2576 Y12.4193
G01 X-26.2813 Y12.4039
G01 X-26.3089 Y12.3831
G01 X-26.3374 Y12.3576
G01 X-27.0626 Y11.6324
G01 X-27.0881 Y11.6039
G01 X-27.1053 Y11.5814
G01 X-27.1243 Y11.5526
G01 X-27.1408 Y11.5222
G01 X-27.1526 Y11.4964
G01 X-27.1601 Y11.4769
G01 X-27.1667 Y11.4570
G01 X-27.1723 Y11.4368
G01 X-27.1769 Y11.4163
G01 X-27.1814 Y11.3884
G01 X-27.1841 Y11.3613
G01 X-27.1850 Y11.3367
G01 X-27.1851 Y5.7841
G01 X-27.1845 Y5.7631
G01 X-27.1830 Y5.7422
G01 X-27.1804 Y5.7214
G01 X-27.1769 Y5.7007
G01 X-27.1723 Y5.6803
G01 X-27.1667 Y5.6601
G01 X-27.1601 Y5.6402
G01 X-27.1526 Y5.6206
G01 X-27.1441 Y5.6015
G01 X-27.1346 Y5.5827
G01 X-27.1243 Y5.5645
G01 X-27.1131 Y5.5468
G01 X-27.1010 Y5.5297
G01 X-27.0881 Y5.5131
G01 X-27.0744 Y5.4973
G01 X-27.0502 Y5.4726
G01 X-27.0232 Y5.4493
G01 X-27.0064 Y5.4367
G01 X-26.9891 Y5.4250
G01 X-26.9712 Y5.4140
G01 X-26.9528 Y5.4040
G01 X-26.9339 Y5.3949
G01 X-26.9146 Y5.3868
G01 X-26.8820 Y5.3754
G01 X-26.8618 Y5.3698
G01 X-26.8413 Y5.3652
G01 X-26.8207 Y5.3616
G01 X-26.7999 Y5.3591
G01 X-26.7790 Y5.3575
G01 X-26.7580 Y5.3570
G01 X-26.7297 Y5.3580
G01 X-26.6953 Y5.3616
G01 X-26.6675 Y5.3667
G01 X-26.6411 Y5.3733
G01 X-26.6141 Y5.3820
G01 X-26.5878 Y5.3924
G01 X-26.5632 Y5.4040
G01 X-26.5384 Y5.4178
G01 X-26.5147 Y5.4331
G01 X-26.4928 Y5.4493
G01 X-26.4712 Y5.4676
G01 X-26.4509 Y5.4874
G01 X-26.4326 Y5.5075
G01 X-26.4150 Y5.5297
G01 X-26.3804 Y5.5804
G01 X-26.2151 Y5.6909
G01 X-25.9779 Y5.7381
G01 X-24.4246 Y5.7381
G01 X-24.6427 Y5.5200
G01 X-26.0200 Y5.5200
G01 X-26.0494 Y5.5186
G01 X-26.0785 Y5.5142
G01 X-26.1071 Y5.5071
G01 X-26.1211 Y5.5025
G01 X-26.1483 Y5.4912
G01 X-26.1742 Y5.4773
G01 X-26.1867 Y5.4694
G01 X-26.2103 Y5.4519
G01 X-26.2321 Y5.4321
G01 X-26.2423 Y5.4215
G01 X-26.2519 Y5.4103
G01 X-26.2694 Y5.3867
G01 X-26.2846 Y5.3614
G01 X-26.2972 Y5.3348
G01 X-26.3025 Y5.3211
G01 X-26.3110 Y5.2929
G01 X-26.3168 Y5.2640
G01 X-26.3186 Y5.2494
G01 X-26.3200 Y5.2200
G01 X-26.3196 Y2.8053
G01 X-26.3168 Y2.7760
G01 X-26.3110 Y2.7471
G01 X-26.3025 Y2.7189
G01 X-26.2972 Y2.7052
G01 X-26.2846 Y2.6786
G01 X-26.2694 Y2.6533
G01 X-26.2519 Y2.6297
G01 X-26.2321 Y2.6079
G01 X-26.2103 Y2.5881
G01 X-26.1987 Y2.5790
G01 X-26.1742 Y2.5627
G01 X-26.1614 Y2.5554
G01 X-26.1348 Y2.5428
G01 X-26.1211 Y2.5375
G01 X-26.1071 Y2.5329
G01 X-26.0785 Y2.5258
G01 X-26.0494 Y2.5214
G01 X-26.0200 Y2.5200
G01 X-23.6200 Y2.5200
G01 X-23.5906 Y2.5214
G01 X-23.5615 Y2.5258
G01 X-23.5329 Y2.5329
G01 X-23.5052 Y2.5428
G01 X-23.4917 Y2.5488
G01 X-23.4658 Y2.5627
G01 X-23.4413 Y2.5790
G01 X-23.4297 Y2.5881
G01 X-23.4079 Y2.6079
G01 X-23.3881 Y2.6297
G01 X-23.3790 Y2.6413
G01 X-23.3627 Y2.6658
G01 X-23.3554 Y2.6786
G01 X-23.3428 Y2.7052
G01 X-23.3329 Y2.7329
G01 X-23.3258 Y2.7615
G01 X-23.3232 Y2.7760
G01 X-23.3204 Y2.8053
G01 X-23.3200 Y3.0847
G01 X-23.1019 Y3.0847
G01 X-23.1019 Y2.8621
G01 X-23.1491 Y2.6249
G01 X-23.2596 Y2.4596
G01 X-23.4249 Y2.3491
G01 X-23.6621 Y2.3019
G01 X-25.9779 Y2.3019
G01 X-26.2151 Y2.3491
G01 X-26.3804 Y2.4596
G01 X-26.5424 Y2.7010
G01 X-26.5641 Y2.7279
G01 X-26.5834 Y2.7486
G01 X-26.6088 Y2.7720
G01 X-26.6310 Y2.7896
G01 X-26.6481 Y2.8017
G01 X-26.6658 Y2.8129
G01 X-26.6962 Y2.8294
G01 X-26.7288 Y2.8439
G01 X-26.7614 Y2.8553
G01 X-26.7949 Y2.8639
G01 X-26.8300 Y2.8700
G01 X-26.8644 Y2.8731
G01 X-26.8854 Y2.8736
G01 X-26.9063 Y2.8731
G01 X-26.9346 Y2.8708
G01 X-26.9615 Y2.8668
G01 X-26.9892 Y2.8608
G01 X-27.0164 Y2.8530
G01 X-27.0420 Y2.8439
G01 X-27.0680 Y2.8326
G01 X-27.0932 Y2.8197
G01 X-27.1226 Y2.8017
G01 X-27.1506 Y2.7813
G01 X-27.1776 Y2.7580
G01 X-27.3571 Y2.5789
G01 X-27.9819 Y2.3201
G01 X-28.6581 Y2.3201
G01 X-29.2829 Y2.5789
G01 X-29.5862 Y2.8814
G01 X-29.6127 Y2.9035
G01 X-29.6357 Y2.9201
G01 X-29.6598 Y2.9350
G01 X-29.6838 Y2.9478
G01 X-29.7164 Y2.9623
G01 X-29.7361 Y2.9695
G01 X-29.7561 Y2.9757
G01 X-29.7897 Y2.9838
G01 X-29.8103 Y2.9874
G01 X-29.8311 Y2.9900
G01 X-29.8520 Y2.9915
G01 X-29.8730 Y2.9920
G01 X-29.9075 Y2.9906
G01 X-29.9429 Y2.9862
G01 X-29.9635 Y2.9823
G01 X-29.9839 Y2.9774
G01 X-30.0169 Y2.9671
G01 X-30.0432 Y2.9566
G01 X-30.0743 Y2.9416
G01 X-30.1041 Y2.9241
G01 X-30.1333 Y2.9035
G01 X-30.1598 Y2.8814
G01 X-30.1844 Y2.8572
G01 X-30.2031 Y2.8359
G01 X-30.2239 Y2.8083
G01 X-30.2393 Y2.7845
G01 X-30.2558 Y2.7542
G01 X-30.2703 Y2.7216
G01 X-30.2817 Y2.6889
G01 X-30.2903 Y2.6555
G01 X-30.2964 Y2.6203
G01 X-30.2995 Y2.5859
G01 X-30.3001 Y2.5650
G01 X-30.3001 Y1.1270
G01 X-30.2995 Y1.1060
G01 X-30.2972 Y1.0778
G01 X-30.2943 Y1.0571
G01 X-30.2890 Y1.0304
G01 X-30.2817 Y1.0030
G01 X-30.2751 Y0.9831
G01 X-30.2676 Y0.9636
G01 X-30.2558 Y0.9378
G01 X-30.2430 Y0.9138
G01 X-30.2281 Y0.8897
G01 X-30.2160 Y0.8726
G01 X-30.1984 Y0.8504
G01 X-30.1801 Y0.8303
G01 X-30.1598 Y0.8106
G01 X-30.1439 Y0.7969
G01 X-30.1214 Y0.7797
G01 X-30.0988 Y0.7646
G01 X-30.0743 Y0.7504
G01 X-30.0489 Y0.7379
G01 X-30.0238 Y0.7275
G01 X-29.9970 Y0.7183
G01 X-29.9768 Y0.7127
G01 X-29.9491 Y0.7068
G01 X-29.9222 Y0.7028
G01 X-29.8940 Y0.7005
G01 X-29.8730 Y0.6999
G01 X-5.1952 Y0.6999
G01 X-5.1747 Y0.7004
G01 X-5.1469 Y0.7027
G01 X-5.1205 Y0.7065
G01 X-5.0933 Y0.7123
G01 X-5.0607 Y0.7217
G01 X-5.0346 Y0.7313
G01 X-5.0037 Y0.7453
G01 X-4.9793 Y0.7586
G01 X-4.9507 Y0.7769
G01 X-4.9284 Y0.7935
G01 X-0.8573 Y4.0505
G01 X-0.8338 Y4.0711
G01 X-0.8136 Y4.0915
G01 X-0.7995 Y4.1075
G01 X-0.7819 Y4.1301
G01 X-0.7663 Y4.1529
G01 X-0.7518 Y4.1777
G01 X-0.7389 Y4.2034
G01 X-0.7282 Y4.2288
G01 X-0.7167 Y4.2631
G01 X-0.7084 Y4.2971
G01 X-0.7047 Y4.3180
G01 X-0.7021 Y4.3391
G01 X-0.7000 Y4.3779
G01 X-0.6999 Y7.8730
G01 X-0.7005 Y7.8940
G01 X-0.7028 Y7.9222
G01 X-0.7068 Y7.9491
G01 X-0.7127 Y7.9768
G01 X-0.7183 Y7.9970
G01 X-0.7275 Y8.0238
G01 X-0.7379 Y8.0489
G01 X-0.7504 Y8.0743
G01 X-0.7646 Y8.0988
G01 X-0.7797 Y8.1214
G01 X-0.7969 Y8.1439
G01 X-0.8156 Y8.1652
G01 X-0.8348 Y8.1844
G01 X-0.8561 Y8.2031
G01 X-0.8726 Y8.2160
G01 X-0.8959 Y8.2321
G01 X-0.9192 Y8.2461
G01 X-0.9444 Y8.2591
G01 X-0.9636 Y8.2676
G01 X-0.9901 Y8.2775
G01 X-1.0161 Y8.2854
G01 X-1.0437 Y8.2919
G01 X-1.0643 Y8.2954
G01 X-1.0925 Y8.2986
G01 X-1.1196 Y8.3000
G01 X-3.7991 Y8.3001
G01 X-3.8199 Y8.3232
G01 X-3.8402 Y8.3429
G01 X-3.8618 Y8.3612
G01 X-3.8837 Y8.3774
G01 X-3.9074 Y8.3928
G01 X-3.9322 Y8.4065
G01 X-3.9568 Y8.4181
G01 X-3.9831 Y8.4286
G01 X-4.0161 Y8.4389
G01 X-4.0437 Y8.4453
G01 X-4.0716 Y8.4499
G01 X-4.0987 Y8.4526
G01 X-4.1270 Y8.4536
G01 X-4.1553 Y8.4526
G01 X-4.1824 Y8.4499
G01 X-4.2103 Y8.4453
G01 X-4.2379 Y8.4389
G01 X-4.2639 Y8.4310
G01 X-4.2904 Y8.4210
G01 X-4.3162 Y8.4093
G01 X-4.3402 Y8.3965
G01 X-4.3643 Y8.3816
G01 X-4.3922 Y8.3612
G01 X-4.4138 Y8.3429
G01 X-4.4290 Y8.3285
G01 X-5.3007 Y7.4568
G01 X-6.4033 Y7.0001
G01 X-7.5967 Y7.0001
G01 X-8.6993 Y7.4568
G01 X-9.5432 Y8.3007
G01 X-9.9999 Y9.4033
G01 X-9.9999 Y10.5967
G01 X-9.5432 Y11.6993
G01 X-8.6993 Y12.5432
G01 X-7.5967 Y12.9999
G01 X-6.4033 Y12.9999
G01 X-5.3007 Y12.5432
G01 X-4.4290 Y11.6715
G01 X-4.4138 Y11.6571
G01 X-4.3922 Y11.6388
G01 X-4.3643 Y11.6184
G01 X-4.3402 Y11.6035
G01 X-4.3162 Y11.5907
G01 X-4.2904 Y11.5790
G01 X-4.2639 Y11.5690
G01 X-4.2308 Y11.5592
G01 X-4.2031 Y11.5533
G01 X-4.1762 Y11.5493
G01 X-4.1480 Y11.5470
G01 X-4.1196 Y11.5465
G01 X-4.0925 Y11.5479
G01 X-4.0643 Y11.5511
G01 X-4.0365 Y11.5562
G01 X-4.0101 Y11.5628
G01 X-3.9831 Y11.5714
G01 X-3.9568 Y11.5819
G01 X-3.9322 Y11.5935
G01 X-3.9074 Y11.6072
G01 X-3.8837 Y11.6226
G01 X-3.8618 Y11.6388
G01 X-3.8402 Y11.6571
G01 X-3.8199 Y11.6768
G01 X-3.7991 Y11.6999
G01 X-1.1134 Y11.7002
G01 X-1.0778 Y11.7028
G01 X-1.0437 Y11.7081
G01 X-1.0232 Y11.7127
G01 X-1.0030 Y11.7183
G01 X-0.9704 Y11.7297
G01 X-0.9378 Y11.7442
G01 X-0.9074 Y11.7607
G01 X-0.8897 Y11.7719
G01 X-0.8726 Y11.7840
G01 X-0.8457 Y11.8057
G01 X-0.8250 Y11.8250
G01 X-0.8106 Y11.8402
G01 X-0.7969 Y11.8561
G01 X-0.7840 Y11.8726
G01 X-0.7719 Y11.8897
G01 X-0.7607 Y11.9074
G01 X-0.7504 Y11.9257
G01 X-0.7409 Y11.9444
G01 X-0.7324 Y11.9636
G01 X-0.7249 Y11.9831
G01 X-0.7183 Y12.0030
G01 X-0.7127 Y12.0232
G01 X-0.7081 Y12.0437
G01 X-0.7046 Y12.0643
G01 X-0.7020 Y12.0851
G01 X-0.7002 Y12.1134
G01 X-0.7000 Y16.8804
G01 X-0.7020 Y16.9149
G01 X-0.7057 Y16.9429
G01 X-0.7127 Y16.9768
G01 X-0.7205 Y17.0040
G01 X-0.7324 Y17.0364
G01 X-0.7442 Y17.0622
G01 X-0.7607 Y17.0926
G01 X-0.7761 Y17.1163
G01 X-0.7969 Y17.1439
G01 X-0.8156 Y17.1652
G01 X-0.8402 Y17.1894
G01 X-0.8667 Y17.2116
G01 X-0.8897 Y17.2281
G01 X-0.9192 Y17.2461
G01 X-0.9444 Y17.2591
G01 X-0.9762 Y17.2725
G01 X-0.9960 Y17.2795
G01 X-1.0161 Y17.2854
G01 X-1.0509 Y17.2932
G01 X-1.0851 Y17.2980
G01 X-1.1060 Y17.2995
G01 X-1.1270 Y17.3001
G01 X-29.8730 Y17.3001
G01 X-29.8940 Y17.2995
G01 X-29.9222 Y17.2972
G01 X-29.9491 Y17.2932
G01 X-29.9696 Y17.2890
G01 X-29.9970 Y17.2817
G01 X-30.0169 Y17.2751
G01 X-30.0364 Y17.2676
G01 X-30.0622 Y17.2558
G01 X-30.0862 Y17.2430
G01 X-30.1041 Y17.2321
G01 X-30.1274 Y17.2160
G01 X-30.1439 Y17.2031
G01 X-30.1598 Y17.1894
G01 X-30.1801 Y17.1697
G01 X-30.1984 Y17.1496
G01 X-30.2160 Y17.1274
G01 X-30.2321 Y17.1041
G01 X-30.2496 Y17.0743
G01 X-30.2647 Y17.0432
G01 X-30.2775 Y17.0099
G01 X-30.2873 Y16.9768
G01 X-30.2943 Y16.9429
G01 X-30.2980 Y16.9149
G01 X-30.3000 Y16.8767
G01 X-30.3001 Y12.1791
G01 X-30.2995 Y12.1581
G01 X-30.2980 Y12.1372
G01 X-30.2954 Y12.1164
G01 X-30.2890 Y12.0825
G01 X-30.2837 Y12.0622
G01 X-30.2775 Y12.0422
G01 X-30.2647 Y12.0089
G01 X-30.2496 Y11.9778
G01 X-30.2393 Y11.9595
G01 X-30.2281 Y11.9418
G01 X-30.2160 Y11.9247
G01 X-30.2031 Y11.9082
G01 X-30.1801 Y11.8824
G01 X-30.1652 Y11.8677
G01 X-30.1496 Y11.8537
G01 X-30.1214 Y11.8318
G01 X-30.0926 Y11.8128
G01 X-30.0743 Y11.8025
G01 X-30.0556 Y11.7930
G01 X-30.0364 Y11.7845
G01 X-30.0169 Y11.7770
G01 X-29.9839 Y11.7667
G01 X-29.9635 Y11.7618
G01 X-29.9429 Y11.7578
G01 X-29.9075 Y11.7534
G01 X-29.8804 Y11.7521
G01 X-29.8594 Y11.7523
G01 X-29.8311 Y11.7541
G01 X-29.8103 Y11.7566
G01 X-29.7897 Y11.7602
G01 X-29.7621 Y11.7667
G01 X-29.7361 Y11.7746
G01 X-29.7164 Y11.7818
G01 X-29.6904 Y11.7930
G01 X-29.6717 Y11.8025
G01 X-29.6534 Y11.8128
G01 X-29.6297 Y11.8282
G01 X-29.6078 Y11.8444
G01 X-29.5917 Y11.8578
G01 X-29.5710 Y11.8771
G01 X-29.5566 Y11.8923
G01 X-29.5429 Y11.9082
G01 X-29.5257 Y11.9307
G01 X-29.5106 Y11.9533
G01 X-29.4999 Y11.9713
G01 X-29.4869 Y11.9965
G01 X-29.4784 Y12.0157
G01 X-29.4709 Y12.0352
G01 X-29.4643 Y12.0551
G01 X-29.4587 Y12.0753
G01 X-29.4541 Y12.0958
G01 X-29.3891 Y12.4228
G01 X-29.1382 Y12.7982
G01 X-29.0613 Y12.8503
G01 X-29.0392 Y12.8679
G01 X-29.0164 Y12.8887
G01 X-27.9450 Y13.9600
G01 X-27.9306 Y13.9752
G01 X-27.9169 Y13.9911
G01 X-27.8961 Y14.0187
G01 X-27.8807 Y14.0424
G01 X-27.8704 Y14.0607
G01 X-27.8609 Y14.0794
G01 X-27.8497 Y14.1054
G01 X-27.8425 Y14.1251
G01 X-27.8346 Y14.1511
G01 X-27.8281 Y14.1787
G01 X-27.8246 Y14.1993
G01 X-27.8214 Y14.2275
G01 X-27.8200 Y14.2583
G01 X-27.8199 Y14.5181
G01 X-27.5611 Y15.1429
G01 X-27.0829 Y15.6211
G01 X-26.4581 Y15.8799
G01 X-25.7819 Y15.8799
G01 X-25.1571 Y15.6211
G01 X-24.6720 Y15.1361
G01 X-24.6513 Y15.1167
G01 X-24.6303 Y15.0995
G01 X-24.6011 Y15.0789
G01 X-24.5713 Y15.0614
G01 X-24.5402 Y15.0464
G01 X-24.5069 Y15.0335
G01 X-24.4738 Y15.0238
G01 X-24.4399 Y15.0168
G01 X-24.4045 Y15.0124
G01 X-24.3700 Y15.0110
G01 X-24.3355 Y15.0124
G01 X-24.3001 Y15.0168
G01 X-24.2662 Y15.0238
G01 X-24.2331 Y15.0335
G01 X-24.1998 Y15.0464
G01 X-24.1687 Y15.0614
G01 X-24.1389 Y15.0789
G01 X-24.1097 Y15.0995
G01 X-24.0887 Y15.1167
G01 X-24.0680 Y15.1361
G01 X-23.5829 Y15.6211
G01 X-22.9581 Y15.8799
G01 X-22.2819 Y15.8799
G01 X-21.6571 Y15.6211
G01 X-21.1720 Y15.1361
G01 X-21.1568 Y15.1216
G01 X-21.1352 Y15.1033
G01 X-21.1073 Y15.0829
G01 X-21.0778 Y15.0649
G01 X-21.0459 Y15.0489
G01 X-21.0139 Y15.0359
G01 X-20.9809 Y15.0256
G01 X-20.9461 Y15.0178
G01 X-20.9119 Y15.0130
G01 X-20.8774 Y15.0111
G01 X-20.8417 Y15.0119
G01 X-20.8073 Y15.0156
G01 X-20.7867 Y15.0192
G01 X-20.7662 Y15.0238
G01 X-20.7331 Y15.0335
G01 X-20.6998 Y15.0464
G01 X-20.6687 Y15.0614
G01 X-20.6389 Y15.0789
G01 X-20.6097 Y15.0995
G01 X-20.5887 Y15.1167
G01 X-20.5680 Y15.1361
G01 X-20.0829 Y15.6211
G01 X-19.4581 Y15.8799
G01 X-18.7819 Y15.8799
G01 X-18.1571 Y15.6211
G01 X-17.9776 Y15.4420
G01 X-17.9619 Y15.4280
G01 X-17.9456 Y15.4149
G01 X-17.9165 Y15.3943
G01 X-17.8932 Y15.3803
G01 X-17.8680 Y15.3674
G01 X-17.8362 Y15.3539
G01 X-17.8094 Y15.3447
G01 X-17.7820 Y15.3374
G01 X-17.7553 Y15.3321
G01 X-17.7272 Y15.3284
G01 X-17.6990 Y15.3266
G01 X-17.6644 Y15.3269
G01 X-17.6435 Y15.3284
G01 X-17.6227 Y15.3310
G01 X-17.5888 Y15.3374
G01 X-17.5544 Y15.3470
G01 X-17.5220 Y15.3589
G01 X-17.5028 Y15.3674
G01 X-17.4841 Y15.3768
G01 X-17.4543 Y15.3943
G01 X-17.4251 Y15.4149
G01 X-17.4041 Y15.4321
G01 X-17.3834 Y15.4514
G01 X-17.3600 Y15.4769
G01 X-17.3424 Y15.4990
G01 X-17.1804 Y15.7404
G01 X-17.0151 Y15.8509
G01 X-16.7779 Y15.8981
G01 X-14.4621 Y15.8981
G01 X-14.2249 Y15.8509
G01 X-14.0596 Y15.7404
G01 X-13.9491 Y15.5751
G01 X-13.9019 Y15.3379
G01 X-13.9019 Y14.2438
G01 X-13.9014 Y14.2229
G01 X-13.8998 Y14.2020
G01 X-13.8973 Y14.1812
G01 X-13.8937 Y14.1605
G01 X-13.8872 Y14.1330
G01 X-13.8793 Y14.1069
G01 X-13.8721 Y14.0872
G01 X-13.8609 Y14.0612
G01 X-13.8515 Y14.0425
G01 X-13.8339 Y14.0127
G01 X-13.8179 Y13.9894
G01 X-13.8002 Y13.9673
G01 X-13.7794 Y13.9445
G01 X-12.2263 Y12.3913
G01 X-12.2008 Y12.3679
G01 X-12.1787 Y12.3503
G01 X-12.1018 Y12.2982
G01 X-11.8509 Y11.9228
G01 X-11.7628 Y11.4800
G01 X-11.7804 Y11.3888
G01 X-11.7836 Y11.3607
G01 X-11.7851 Y11.3262
G01 X-11.7851 Y5.7594
G01 X-11.7846 Y5.7384
G01 X-11.7822 Y5.7102
G01 X-11.7782 Y5.6833
G01 X-11.7723 Y5.6556
G01 X-11.7645 Y5.6284
G01 X-11.7553 Y5.6028
G01 X-11.7441 Y5.5768
G01 X-11.7311 Y5.5516
G01 X-11.7171 Y5.5283
G01 X-11.7010 Y5.5050
G01 X-11.6881 Y5.4885
G01 X-11.6694 Y5.4672
G01 X-11.6502 Y5.4480
G01 X-11.6289 Y5.4293
G01 X-11.6124 Y5.4164
G01 X-11.5596 Y5.3804
G01 X-11.4491 Y5.2151
G01 X-11.4019 Y4.9779
G01 X-11.4019 Y3.0621
G01 X-11.4491 Y2.8249
G01 X-11.5596 Y2.6596
G01 X-11.7249 Y2.5491
G01 X-11.9621 Y2.5019
G01 X-13.8779 Y2.5019
G01 X-14.1151 Y2.5491
G01 X-14.3041 Y2.6754
G01 X-14.3306 Y2.6913
G01 X-14.3557 Y2.7043
G01 X-14.3749 Y2.7128
G01 X-14.3945 Y2.7204
G01 X-14.4144 Y2.7269
G01 X-14.4417 Y2.7342
G01 X-14.4622 Y2.7385
G01 X-14.4891 Y2.7425
G01 X-14.5174 Y2.7448
G01 X-14.5383 Y2.7453
G01 X-14.5593 Y2.7448
G01 X-14.5802 Y2.7433
G01 X-14.6010 Y2.7407
G01 X-14.6216 Y2.7371
G01 X-14.6421 Y2.7325
G01 X-14.6623 Y2.7269
G01 X-14.6822 Y2.7204
G01 X-14.7018 Y2.7128
G01 X-14.7275 Y2.7011
G01 X-14.7579 Y2.6846
G01 X-14.8748 Y2.6071
G01 X-15.3123 Y2.5201
G01 X-15.6077 Y2.5201
G01 X-16.0452 Y2.6071
G01 X-16.4927 Y2.9061
G01 X-16.5104 Y2.9173
G01 X-16.5287 Y2.9276
G01 X-16.5474 Y2.9371
G01 X-16.5734 Y2.9483
G01 X-16.5990 Y2.9575
G01 X-16.6262 Y2.9653
G01 X-16.6539 Y2.9712
G01 X-16.6808 Y2.9752
G01 X-16.7090 Y2.9776
G01 X-16.7300 Y2.9781
G01 X-16.7510 Y2.9776
G01 X-16.7792 Y2.9752
G01 X-16.8061 Y2.9712
G01 X-16.8338 Y2.9653
G01 X-16.8610 Y2.9575
G01 X-16.8866 Y2.9483
G01 X-16.9126 Y2.9371
G01 X-16.9313 Y2.9276
G01 X-16.9496 Y2.9173
G01 X-16.9673 Y2.9061
G01 X-17.4148 Y2.6071
G01 X-17.8523 Y2.5201
G01 X-18.1477 Y2.5201
G01 X-18.5852 Y2.6071
G01 X-19.0814 Y2.9386
G01 X-19.1790 Y3.0847
G01 X-18.9025 Y3.0847
G01 X-18.8730 Y3.0568
G01 X-18.8303 Y3.0198
G01 X-18.7744 Y2.9758
G01 X-18.7161 Y2.9351
G01 X-18.6683 Y2.9050
G01 X-18.6128 Y2.8735
G01 X-18.5491 Y2.8417
G01 X-18.4975 Y2.8190
G01 X-18.4380 Y2.7960
G01 X-18.3703 Y2.7739
G01 X-18.3159 Y2.7590
G01 X-18.2608 Y2.7465
G01 X-18.1907 Y2.7341
G01 X-18.1201 Y2.7256
G01 X-18.0564 Y2.7213
G01 X-18.0000 Y2.7200
G01 X-17.9436 Y2.7213
G01 X-17.8726 Y2.7263
G01 X-17.8093 Y2.7341
G01 X-17.7464 Y2.7450
G01 X-17.6770 Y2.7608
G01 X-17.6226 Y2.7760
G01 X-17.5690 Y2.7936
G01 X-17.5025 Y2.8190
G01 X-17.4376 Y2.8480
G01 X-17.3872 Y2.8735
G01 X-17.3380 Y2.9012
G01 X-17.2717 Y2.9433
G01 X-17.2256 Y2.9758
G01 X-17.1810 Y3.0105
G01 X-17.1270 Y3.0568
G01 X-17.0756 Y3.1060
G01 X-17.0368 Y3.1470
G01 X-16.9998 Y3.1897
G01 X-16.9558 Y3.2456
G01 X-16.9151 Y3.3039
G01 X-16.8850 Y3.3517
G01 X-16.8535 Y3.4072
G01 X-16.8248 Y3.4642
G01 X-16.8019 Y3.5157
G01 X-16.7760 Y3.5820
G01 X-16.7539 Y3.6497
G01 X-16.7390 Y3.7041
G01 X-16.7300 Y3.7436
G01 X-16.7210 Y3.7041
G01 X-16.7040 Y3.6426
G01 X-16.6840 Y3.5820
G01 X-16.6638 Y3.5293
G01 X-16.6320 Y3.4576
G01 X-16.6065 Y3.4072
G01 X-16.5788 Y3.3580
G01 X-16.5367 Y3.2917
G01 X-16.5042 Y3.2456
G01 X-16.4649 Y3.1953
G01 X-16.4182 Y3.1416
G01 X-16.3792 Y3.1008
G01 X-16.3384 Y3.0618
G01 X-16.2790 Y3.0105
G01 X-16.2344 Y2.9758
G01 X-16.1822 Y2.9391
G01 X-16.1283 Y2.9050
G01 X-16.0793 Y2.8771
G01 X-16.0158 Y2.8448
G01 X-15.9507 Y2.8162
G01 X-15.8980 Y2.7960
G01 X-15.8374 Y2.7760
G01 X-15.7687 Y2.7573
G01 X-15.7136 Y2.7450
G01 X-15.6580 Y2.7352
G01 X-15.5874 Y2.7263
G01 X-15.5311 Y2.7220
G01 X-15.4526 Y2.7201
G01 X-15.3962 Y2.7216
G01 X-15.3326 Y2.7263
G01 X-15.2693 Y2.7341
G01 X-15.2064 Y2.7450
G01 X-15.1441 Y2.7590
G01 X-15.0826 Y2.7760
G01 X-15.0220 Y2.7960
G01 X-14.9693 Y2.8162
G01 X-14.9042 Y2.8448
G01 X-14.8537 Y2.8701
G01 X-14.7854 Y2.9088
G01 X-14.7378 Y2.9391
G01 X-14.6856 Y2.9758
G01 X-14.6353 Y3.0151
G01 X-14.5925 Y3.0519
G01 X-14.5356 Y3.1060
G01 X-14.4968 Y3.1470
G01 X-14.4505 Y3.2010
G01 X-14.4158 Y3.2456
G01 X-14.3791 Y3.2978
G01 X-14.3450 Y3.3517
G01 X-14.3135 Y3.4072
G01 X-14.2848 Y3.4642
G01 X-14.2590 Y3.5225
G01 X-14.2360 Y3.5820
G01 X-14.2200 Y3.6302
G01 X-14.2200 Y3.0200
G01 X-14.2186 Y2.9906
G01 X-14.2142 Y2.9615
G01 X-14.2110 Y2.9471
G01 X-14.2071 Y2.9329
G01 X-14.1972 Y2.9052
G01 X-14.1846 Y2.8786
G01 X-14.1694 Y2.8533
G01 X-14.1519 Y2.8297
G01 X-14.1423 Y2.8185
G01 X-14.1215 Y2.7977
G01 X-14.1103 Y2.7881
G01 X-14.0987 Y2.7790
G01 X-14.0742 Y2.7627
G01 X-14.0483 Y2.7488
G01 X-14.0211 Y2.7375
G01 X-14.0071 Y2.7329
G01 X-13.9785 Y2.7258
G01 X-13.9640 Y2.7232
G01 X-13.9494 Y2.7214
G01 X-13.9200 Y2.7200
G01 X-11.9053 Y2.7204
G01 X-11.8906 Y2.7214
G01 X-11.8615 Y2.7258
G01 X-11.8471 Y2.7290
G01 X-11.8189 Y2.7375
G01 X-11.7917 Y2.7488
G01 X-11.7786 Y2.7554
G01 X-11.7658 Y2.7627
G01 X-11.7413 Y2.7790
G01 X-11.7185 Y2.7977
G01 X-11.7079 Y2.8079
G01 X-11.6881 Y2.8297
G01 X-11.6706 Y2.8533
G01 X-11.6627 Y2.8658
G01 X-11.6554 Y2.8786
G01 X-11.6428 Y2.9052
G01 X-11.6329 Y2.9329
G01 X-11.6258 Y2.9615
G01 X-11.6214 Y2.9906
G01 X-11.6200 Y3.0200
G01 X-11.6200 Y5.0200
G01 X-11.6204 Y5.0347
G01 X-11.6232 Y5.0640
G01 X-11.6290 Y5.0929
G01 X-11.6375 Y5.1211
G01 X-11.6488 Y5.1483
G01 X-11.6627 Y5.1742
G01 X-11.6790 Y5.1987
G01 X-11.6977 Y5.2215
G01 X-11.7185 Y5.2423
G01 X-11.7413 Y5.2610
G01 X-11.7658 Y5.2773
G01 X-11.7917 Y5.2912
G01 X-11.8189 Y5.3025
G01 X-11.8471 Y5.3110
G01 X-11.8760 Y5.3168
G01 X-11.9053 Y5.3196
G01 X-11.9847 Y5.3200
G01 X-11.9847 Y11.4800
G01 X-11.9858 Y11.5259
G01 X-11.9892 Y11.5717
G01 X-11.9948 Y11.6172
G01 X-12.0027 Y11.6625
G01 X-12.0146 Y11.7144
G01 X-12.0250 Y11.7515
G01 X-12.0370 Y11.7881
G01 X-12.0559 Y11.8379
G01 X-12.0777 Y11.8865
G01 X-12.0951 Y11.9209
G01 X-12.1140 Y11.9545
G01 X-12.1423 Y11.9996
G01 X-12.1732 Y12.0430
G01 X-12.1970 Y12.0734
G01 X-12.2270 Y12.1081
G01 X-12.2586 Y12.1414
G01 X-14.1200 Y14.0027
G01 X-14.1204 Y15.3947
G01 X-14.1232 Y15.4240
G01 X-14.1290 Y15.4529
G01 X-14.1375 Y15.4811
G01 X-14.1488 Y15.5083
G01 X-14.1627 Y15.5342
G01 X-14.1790 Y15.5587
G01 X-14.1977 Y15.5815
G01 X-14.2185 Y15.6023
G01 X-14.2413 Y15.6210
G01 X-14.2658 Y15.6373
G01 X-14.2917 Y15.6512
G01 X-14.3052 Y15.6572
G01 X-14.3329 Y15.6671
G01 X-14.3615 Y15.6742
G01 X-14.3760 Y15.6768
G01 X-14.4053 Y15.6796
G01 X-16.8200 Y15.6800
G01 X-16.8494 Y15.6786
G01 X-16.8785 Y15.6742
G01 X-16.9071 Y15.6671
G01 X-16.9348 Y15.6572
G01 X-16.9614 Y15.6446
G01 X-16.9867 Y15.6294
G01 X-17.0103 Y15.6119
G01 X-17.0215 Y15.6023
G01 X-17.0423 Y15.5815
G01 X-17.0610 Y15.5587
G01 X-17.0773 Y15.5342
G01 X-17.0912 Y15.5083
G01 X-17.1025 Y15.4811
G01 X-17.1110 Y15.4529
G01 X-17.1168 Y15.4240
G01 X-17.1196 Y15.3947
G01 X-17.1200 Y15.3800
G01 X-17.1200 Y12.9800
G01 X-17.1196 Y12.9653
G01 X-17.1168 Y12.9360
G01 X-17.1142 Y12.9215
G01 X-17.1071 Y12.8929
G01 X-17.0972 Y12.8652
G01 X-17.0912 Y12.8517
G01 X-17.0773 Y12.8258
G01 X-17.0610 Y12.8013
G01 X-17.0519 Y12.7897
G01 X-17.0321 Y12.7679
G01 X-17.0103 Y12.7481
G01 X-16.9867 Y12.7306
G01 X-16.9614 Y12.7154
G01 X-16.9348 Y12.7028
G01 X-16.9071 Y12.6929
G01 X-16.8785 Y12.6858
G01 X-16.8494 Y12.6814
G01 X-16.8200 Y12.6800
G01 X-15.4427 Y12.6800
G01 X-13.8553 Y11.0926
G01 X-13.8553 Y5.3200
G01 X-13.9347 Y5.3196
G01 X-13.9640 Y5.3168
G01 X-13.9929 Y5.3110
G01 X-14.0071 Y5.3071
G01 X-14.0348 Y5.2972
G01 X-14.0614 Y5.2846
G01 X-14.0867 Y5.2694
G01 X-14.0987 Y5.2610
G01 X-14.1215 Y5.2423
G01 X-14.1423 Y5.2215
G01 X-14.1610 Y5.1987
G01 X-14.1773 Y5.1742
G01 X-14.1912 Y5.1483
G01 X-14.1972 Y5.1348
G01 X-14.2071 Y5.1071
G01 X-14.2142 Y5.0785
G01 X-14.2168 Y5.0640
G01 X-14.2196 Y5.0347
G01 X-14.2200 Y4.4098
G01 X-14.2360 Y4.4580
G01 X-14.2562 Y4.5107
G01 X-14.2817 Y4.5691
G01 X-14.3135 Y4.6328
G01 X-14.3450 Y4.6883
G01 X-14.3791 Y4.7422
G01 X-14.4203 Y4.8003
G01 X-14.4598 Y4.8503
G01 X-14.4968 Y4.8930
G01 X-14.5247 Y4.9225
G01 X-14.5247 Y6.2730
G01 X-14.5258 Y6.3189
G01 X-14.5286 Y6.3573
G01 X-14.5348 Y6.4102
G01 X-14.5442 Y6.4627
G01 X-14.5527 Y6.5003
G01 X-14.5629 Y6.5374
G01 X-14.5794 Y6.5881
G01 X-14.5959 Y6.6309
G01 X-14.6177 Y6.6795
G01 X-14.6351 Y6.7139
G01 X-14.6540 Y6.7475
G01 X-14.6823 Y6.7926
G01 X-14.7087 Y6.8302
G01 X-14.7370 Y6.8664
G01 X-14.7670 Y6.9011
G01 X-14.7986 Y6.9344
G01 X-18.1847 Y10.3204
G01 X-18.1847 Y13.0077
G01 X-18.1628 Y13.0252
G01 X-18.1127 Y13.0686
G01 X-18.0593 Y13.1193
G01 X-18.0086 Y13.1727
G01 X-17.9559 Y13.2342
G01 X-17.9109 Y13.2924
G01 X-17.8728 Y13.3466
G01 X-17.8373 Y13.4026
G01 X-17.7971 Y13.4729
G01 X-17.7640 Y13.5387
G01 X-17.7342 Y13.6060
G01 X-17.7077 Y13.6747
G01 X-17.6846 Y13.7446
G01 X-17.6633 Y13.8227
G01 X-17.6488 Y13.8874
G01 X-17.6374 Y13.9526
G01 X-17.6280 Y14.0257
G01 X-17.6218 Y14.1064
G01 X-17.6201 Y14.1726
G01 X-17.6218 Y14.2536
G01 X-17.6272 Y14.3270
G01 X-17.6362 Y14.4001
G01 X-17.6488 Y14.4726
G01 X-17.6650 Y14.5445
G01 X-17.6846 Y14.6154
G01 X-17.7077 Y14.6853
G01 X-17.7371 Y14.7608
G01 X-17.7640 Y14.8213
G01 X-17.8007 Y14.8935
G01 X-17.8334 Y14.9512
G01 X-17.8688 Y15.0072
G01 X-17.9109 Y15.0676
G01 X-17.9605 Y15.1316
G01 X-18.0086 Y15.1873
G01 X-18.0593 Y15.2407
G01 X-18.1127 Y15.2914
G01 X-18.1684 Y15.3395
G01 X-18.2206 Y15.3804
G01 X-18.2866 Y15.4272
G01 X-18.3488 Y15.4666
G01 X-18.4065 Y15.4993
G01 X-18.4854 Y15.5391
G01 X-18.5460 Y15.5658
G01 X-18.6078 Y15.5898
G01 X-18.6916 Y15.6175
G01 X-18.7555 Y15.6350
G01 X-18.8274 Y15.6512
G01 X-18.8999 Y15.6638
G01 X-18.9657 Y15.6720
G01 X-19.0538 Y15.6785
G01 X-19.1200 Y15.6800
G01 X-19.1936 Y15.6782
G01 X-19.2743 Y15.6720
G01 X-19.3401 Y15.6638
G01 X-19.4126 Y15.6512
G01 X-19.4845 Y15.6350
G01 X-19.5484 Y15.6175
G01 X-19.6253 Y15.5923
G01 X-19.6940 Y15.5658
G01 X-19.7546 Y15.5391
G01 X-19.8271 Y15.5029
G01 X-19.8912 Y15.4666
G01 X-19.9472 Y15.4312
G01 X-20.0135 Y15.3848
G01 X-20.0772 Y15.3348
G01 X-20.1273 Y15.2914
G01 X-20.1807 Y15.2407
G01 X-20.2363 Y15.1818
G01 X-20.2795 Y15.1316
G01 X-20.3248 Y15.0735
G01 X-20.3672 Y15.0134
G01 X-20.4027 Y14.9574
G01 X-20.4463 Y14.8806
G01 X-20.4760 Y14.8213
G01 X-20.5058 Y14.7540
G01 X-20.5323 Y14.6853
G01 X-20.5532 Y14.6224
G01 X-20.5767 Y14.5373
G01 X-20.5912 Y14.4726
G01 X-20.6026 Y14.4074
G01 X-20.6134 Y14.3197
G01 X-20.6182 Y14.2536
G01 X-20.6200 Y14.1837
G01 X-20.6177 Y14.0990
G01 X-20.6128 Y14.0330
G01 X-20.6048 Y13.9672
G01 X-20.5912 Y13.8874
G01 X-20.5750 Y13.8155
G01 X-20.5554 Y13.7446
G01 X-20.5323 Y13.6747
G01 X-20.5058 Y13.6060
G01 X-20.4760 Y13.5387
G01 X-20.4429 Y13.4729
G01 X-20.4103 Y13.4152
G01 X-20.3672 Y13.3466
G01 X-20.3248 Y13.2865
G01 X-20.2795 Y13.2284
G01 X-20.2363 Y13.1782
G01 X-20.1807 Y13.1193
G01 X-20.1327 Y13.0736
G01 X-20.0772 Y13.0252
G01 X-20.0553 Y13.0077
G01 X-20.0552 Y9.9256
G01 X-20.0542 Y9.8871
G01 X-20.0508 Y9.8413
G01 X-20.0452 Y9.7958
G01 X-20.0373 Y9.7505
G01 X-20.0273 Y9.7057
G01 X-20.0150 Y9.6615
G01 X-20.0006 Y9.6179
G01 X-19.9841 Y9.5751
G01 X-19.9655 Y9.5331
G01 X-19.9449 Y9.4921
G01 X-19.9222 Y9.4522
G01 X-19.8977 Y9.4134
G01 X-19.8713 Y9.3758
G01 X-19.8430 Y9.3396
G01 X-19.8130 Y9.3049
G01 X-19.7840 Y9.2742
G01 X-16.3953 Y5.8856
G01 X-16.3953 Y4.9225
G01 X-16.4232 Y4.8930
G01 X-16.4602 Y4.8503
G01 X-16.5042 Y4.7944
G01 X-16.5449 Y4.7361
G01 X-16.5750 Y4.6883
G01 X-16.6065 Y4.6328
G01 X-16.6383 Y4.5691
G01 X-16.6610 Y4.5175
G01 X-16.6840 Y4.4580
G01 X-16.7061 Y4.3903
G01 X-16.7210 Y4.3359
G01 X-16.7300 Y4.2964
G01 X-16.7390 Y4.3359
G01 X-16.7539 Y4.3903
G01 X-16.7760 Y4.4580
G01 X-16.7990 Y4.5175
G01 X-16.8217 Y4.5691
G01 X-16.8535 Y4.6328
G01 X-16.8850 Y4.6883
G01 X-16.9151 Y4.7361
G01 X-16.9558 Y4.7944
G01 X-16.9998 Y4.8503
G01 X-17.0368 Y4.8930
G01 X-17.0756 Y4.9340
G01 X-17.1325 Y4.9881
G01 X-17.1753 Y5.0249
G01 X-17.2197 Y5.0597
G01 X-17.2778 Y5.1009
G01 X-17.3380 Y5.1388
G01 X-17.3872 Y5.1665
G01 X-17.4376 Y5.1920
G01 X-17.5025 Y5.2210
G01 X-17.5690 Y5.2464
G01 X-17.6226 Y5.2640
G01 X-17.6770 Y5.2792
G01 X-17.7464 Y5.2950
G01 X-17.8165 Y5.3069
G01 X-17.8799 Y5.3144
G01 X-17.9362 Y5.3184
G01 X-17.9926 Y5.3199
G01 X-18.0638 Y5.3184
G01 X-18.1274 Y5.3137
G01 X-18.1907 Y5.3059
G01 X-18.2608 Y5.2935
G01 X-18.3159 Y5.2810
G01 X-18.3703 Y5.2661
G01 X-18.4380 Y5.2440
G01 X-18.4975 Y5.2210
G01 X-18.5491 Y5.1983
G01 X-18.6128 Y5.1665
G01 X-18.6746 Y5.1312
G01 X-18.7222 Y5.1009
G01 X-18.7744 Y5.0642
G01 X-18.8303 Y5.0202
G01 X-18.8730 Y4.9832
G01 X-18.9025 Y4.9553
G01 X-19.1790 Y4.9553
G01 X-19.0814 Y5.1014
G01 X-18.5852 Y5.4329
G01 X-18.1477 Y5.5199
G01 X-17.8523 Y5.5199
G01 X-17.4127 Y5.4325
G01 X-17.3797 Y5.4150
G01 X-17.3605 Y5.4066
G01 X-17.3410 Y5.3990
G01 X-17.3211 Y5.3924
G01 X-17.3009 Y5.3868
G01 X-17.2804 Y5.3822
G01 X-17.2598 Y5.3787
G01 X-17.2316 Y5.3755
G01 X-17.2045 Y5.3741
G01 X-17.1762 Y5.3746
G01 X-17.1479 Y5.3769
G01 X-17.1210 Y5.3809
G01 X-17.0933 Y5.3868
G01 X-17.0661 Y5.3947
G01 X-17.0405 Y5.4038
G01 X-17.0212 Y5.4120
G01 X-17.0023 Y5.4211
G01 X-16.9713 Y5.4387
G01 X-16.9427 Y5.4581
G01 X-16.9262 Y5.4710
G01 X-16.9103 Y5.4847
G01 X-16.8951 Y5.4991
G01 X-16.8807 Y5.5143
G01 X-16.8585 Y5.5408
G01 X-16.8380 Y5.5700
G01 X-16.8271 Y5.5879
G01 X-16.8171 Y5.6063
G01 X-16.8026 Y5.6377
G01 X-16.7950 Y5.6572
G01 X-16.7884 Y5.6771
G01 X-16.7828 Y5.6973
G01 X-16.7782 Y5.7178
G01 X-16.7729 Y5.7519
G01 X-16.7710 Y5.7728
G01 X-16.7701 Y5.7937
G01 X-16.7710 Y5.8294
G01 X-16.7747 Y5.8638
G01 X-16.7783 Y5.8844
G01 X-16.7828 Y5.9049
G01 X-16.7907 Y5.9321
G01 X-16.7998 Y5.9577
G01 X-16.8110 Y5.9837
G01 X-16.8240 Y6.0089
G01 X-16.8380 Y6.0322
G01 X-16.8541 Y6.0555
G01 X-16.8717 Y6.0777
G01 X-16.8925 Y6.1005
G01 X-19.8137 Y9.0217
G01 X-19.8344 Y9.0410
G01 X-19.8613 Y9.0627
G01 X-19.9382 Y9.1148
G01 X-20.1891 Y9.4902
G01 X-20.2772 Y9.9330
G01 X-20.2596 Y10.0242
G01 X-20.2564 Y10.0523
G01 X-20.2549 Y10.0868
G01 X-20.2549 Y12.7340
G01 X-20.2559 Y12.7623
G01 X-20.2586 Y12.7893
G01 X-20.2631 Y12.8173
G01 X-20.2677 Y12.8377
G01 X-20.2733 Y12.8579
G01 X-20.2799 Y12.8778
G01 X-20.2874 Y12.8974
G01 X-20.2992 Y12.9232
G01 X-20.3089 Y12.9417
G01 X-20.3196 Y12.9598
G01 X-20.3347 Y12.9824
G01 X-20.3473 Y12.9991
G01 X-20.3656 Y13.0208
G01 X-20.3800 Y13.0359
G01 X-20.5706 Y13.2265
G01 X-20.5991 Y13.2521
G01 X-20.6156 Y13.2650
G01 X-20.6327 Y13.2771
G01 X-20.6504 Y13.2883
G01 X-20.6687 Y13.2986
G01 X-20.6874 Y13.3080
G01 X-20.7066 Y13.3165
G01 X-20.7261 Y13.3241
G01 X-20.7460 Y13.3306
G01 X-20.7662 Y13.3362
G01 X-20.7867 Y13.3408
G01 X-20.8073 Y13.3444
G01 X-20.8281 Y13.3470
G01 X-20.8490 Y13.3485
G01 X-20.8700 Y13.3490
G01 X-20.9045 Y13.3476
G01 X-20.9327 Y13.3444
G01 X-20.9666 Y13.3379
G01 X-20.9940 Y13.3306
G01 X-21.0266 Y13.3193
G01 X-21.0526 Y13.3080
G01 X-21.0832 Y13.2920
G01 X-21.1073 Y13.2771
G01 X-21.1352 Y13.2567
G01 X-21.1568 Y13.2384
G01 X-21.1720 Y13.2239
G01 X-21.6571 Y12.7389
G01 X-21.6847 Y12.7274
G01 X-21.6847 Y13.0077
G01 X-21.6628 Y13.0252
G01 X-21.6127 Y13.0686
G01 X-21.5542 Y13.1246
G01 X-21.5086 Y13.1727
G01 X-21.4652 Y13.2228
G01 X-21.4152 Y13.2865
G01 X-21.3688 Y13.3528
G01 X-21.3334 Y13.4088
G01 X-21.3007 Y13.4665
G01 X-21.2640 Y13.5387
G01 X-21.2314 Y13.6128
G01 X-21.2077 Y13.6747
G01 X-21.1846 Y13.7446
G01 X-21.1650 Y13.8155
G01 X-21.1488 Y13.8874
G01 X-21.1362 Y13.9599
G01 X-21.1272 Y14.0330
G01 X-21.1218 Y14.1064
G01 X-21.1200 Y14.1800
G01 X-21.1218 Y14.2536
G01 X-21.1272 Y14.3270
G01 X-21.1362 Y14.4001
G01 X-21.1503 Y14.4798
G01 X-21.1650 Y14.5445
G01 X-21.1825 Y14.6084
G01 X-21.2053 Y14.6784
G01 X-21.2342 Y14.7540
G01 X-21.2640 Y14.8213
G01 X-21.2971 Y14.8871
G01 X-21.3334 Y14.9512
G01 X-21.3728 Y15.0134
G01 X-21.4196 Y15.0794
G01 X-21.4652 Y15.1372
G01 X-21.5086 Y15.1873
G01 X-21.5542 Y15.2354
G01 X-21.6127 Y15.2914
G01 X-21.6684 Y15.3395
G01 X-21.7265 Y15.3848
G01 X-21.7866 Y15.4272
G01 X-21.8488 Y15.4666
G01 X-21.9129 Y15.5029
G01 X-21.9787 Y15.5360
G01 X-22.0460 Y15.5658
G01 X-22.1147 Y15.5923
G01 X-22.1846 Y15.6154
G01 X-22.2555 Y15.6350
G01 X-22.3274 Y15.6512
G01 X-22.3999 Y15.6638
G01 X-22.4730 Y15.6728
G01 X-22.5464 Y15.6782
G01 X-22.6200 Y15.6800
G01 X-22.6936 Y15.6782
G01 X-22.7670 Y15.6728
G01 X-22.8401 Y15.6638
G01 X-22.9126 Y15.6512
G01 X-22.9845 Y15.6350
G01 X-23.0554 Y15.6154
G01 X-23.1253 Y15.5923
G01 X-23.1940 Y15.5658
G01 X-23.2613 Y15.5360
G01 X-23.3271 Y15.5029
G01 X-23.3912 Y15.4666
G01 X-23.4534 Y15.4272
G01 X-23.5135 Y15.3848
G01 X-23.5716 Y15.3395
G01 X-23.6273 Y15.2914
G01 X-23.6807 Y15.2407
G01 X-23.7314 Y15.1873
G01 X-23.7795 Y15.1316
G01 X-23.8248 Y15.0735
G01 X-23.8672 Y15.0134
G01 X-23.9066 Y14.9512
G01 X-23.9429 Y14.8871
G01 X-23.9760 Y14.8213
G01 X-24.0058 Y14.7540
G01 X-24.0323 Y14.6853
G01 X-24.0554 Y14.6154
G01 X-24.0750 Y14.5445
G01 X-24.0912 Y14.4726
G01 X-24.1038 Y14.4001
G01 X-24.1128 Y14.3270
G01 X-24.1182 Y14.2536
G01 X-24.1200 Y14.1837
G01 X-24.1182 Y14.1064
G01 X-24.1128 Y14.0330
G01 X-24.1038 Y13.9599
G01 X-24.0912 Y13.8874
G01 X-24.0750 Y13.8155
G01 X-24.0554 Y13.7446
G01 X-24.0323 Y13.6747
G01 X-24.0058 Y13.6060
G01 X-23.9760 Y13.5387
G01 X-23.9429 Y13.4729
G01 X-23.9066 Y13.4088
G01 X-23.8672 Y13.3466
G01 X-23.8248 Y13.2865
G01 X-23.7795 Y13.2284
G01 X-23.7314 Y13.1727
G01 X-23.6807 Y13.1193
G01 X-23.6273 Y13.0686
G01 X-23.5772 Y13.0252
G01 X-23.5553 Y13.0077
G00 Z1.0000
G00 X-29.2553 Y5.1923
G01 F76.20
G01 Z-0.2000
G01 F200.00
G01 X-29.2772 Y5.1748
G01 X-29.3273 Y5.1314
G01 X-29.3807 Y5.0807
G01 X-29.4314 Y5.0273
G01 X-29.4795 Y4.9716
G01 X-29.5248 Y4.9135
G01 X-29.5672 Y4.8534
G01 X-29.6066 Y4.7912
G01 X-29.6429 Y4.7271
G01 X-29.6760 Y4.6613
G01 X-29.7058 Y4.5940
G01 X-29.7323 Y4.5253
G01 X-29.7554 Y4.4554
G01 X-29.7750 Y4.3845
G01 X-29.7912 Y4.3126
G01 X-29.8038 Y4.2401
G01 X-29.8128 Y4.1670
G01 X-29.8182 Y4.0936
G01 X-29.8200 Y4.0163
G01 X-29.8182 Y3.9464
G01 X-29.8128 Y3.8730
G01 X-29.8038 Y3.7999
G01 X-29.7912 Y3.7274
G01 X-29.7750 Y3.6555
G01 X-29.7554 Y3.5846
G01 X-29.7323 Y3.5147
G01 X-29.7058 Y3.4460
G01 X-29.6760 Y3.3787
G01 X-29.6429 Y3.3129
G01 X-29.6066 Y3.2488
G01 X-29.5672 Y3.1866
G01 X-29.5248 Y3.1265
G01 X-29.4795 Y3.0684
G01 X-29.4314 Y3.0127
G01 X-29.3807 Y2.9593
G01 X-29.3273 Y2.9086
G01 X-29.2716 Y2.8605
G01 X-29.2135 Y2.8152
G01 X-29.1534 Y2.7728
G01 X-29.0912 Y2.7334
G01 X-29.0271 Y2.6971
G01 X-28.9613 Y2.6640
G01 X-28.8940 Y2.6342
G01 X-28.8253 Y2.6077
G01 X-28.7554 Y2.5846
G01 X-28.6845 Y2.5650
G01 X-28.6126 Y2.5488
G01 X-28.5401 Y2.5362
G01 X-28.4670 Y2.5272
G01 X-28.3936 Y2.5218
G01 X-28.3200 Y2.5200
G01 X-28.2464 Y2.5218
G01 X-28.1730 Y2.5272
G01 X-28.0999 Y2.5362
G01 X-28.0274 Y2.5488
G01 X-27.9555 Y2.5650
G01 X-27.8846 Y2.5846
G01 X-27.8147 Y2.6077
G01 X-27.7460 Y2.6342
G01 X-27.6787 Y2.6640
G01 X-27.6129 Y2.6971
G01 X-27.5488 Y2.7334
G01 X-27.4866 Y2.7728
G01 X-27.4265 Y2.8152
G01 X-27.3684 Y2.8605
G01 X-27.3127 Y2.9086
G01 X-27.2593 Y2.9593
G01 X-27.2086 Y3.0127
G01 X-27.1559 Y3.0742
G01 X-27.1109 Y3.1324
G01 X-27.0728 Y3.1866
G01 X-27.0373 Y3.2426
G01 X-26.9971 Y3.3129
G01 X-26.9640 Y3.3787
G01 X-26.9342 Y3.4460
G01 X-26.9077 Y3.5147
G01 X-26.8846 Y3.5846
G01 X-26.8633 Y3.6627
G01 X-26.8488 Y3.7274
G01 X-26.8374 Y3.7926
G01 X-26.8280 Y3.8657
G01 X-26.8218 Y3.9464
G01 X-26.8200 Y4.0200
G01 X-26.8218 Y4.0936
G01 X-26.8280 Y4.1743
G01 X-26.8374 Y4.2474
G01 X-26.8488 Y4.3126
G01 X-26.8633 Y4.3773
G01 X-26.8846 Y4.4554
G01 X-26.9077 Y4.5253
G01 X-26.9342 Y4.5940
G01 X-26.9640 Y4.6613
G01 X-26.9971 Y4.7271
G01 X-27.0373 Y4.7974
G01 X-27.0728 Y4.8534
G01 X-27.1109 Y4.9076
G01 X-27.1559 Y4.9658
G01 X-27.2086 Y5.0273
G01 X-27.2593 Y5.0807
G01 X-27.3127 Y5.1314
G01 X-27.3628 Y5.1748
G01 X-27.3847 Y5.1923
G01 X-27.3847 Y11.5926
G01 X-26.2876 Y12.6897
G01 X-26.2597 Y12.6866
G01 X-26.1862 Y12.6815
G01 X-26.1200 Y12.6800
G01 X-26.0464 Y12.6818
G01 X-25.9730 Y12.6872
G01 X-25.9072 Y12.6952
G01 X-25.8202 Y12.7103
G01 X-25.7555 Y12.7250
G01 X-25.6846 Y12.7446
G01 X-25.6147 Y12.7677
G01 X-25.5528 Y12.7914
G01 X-25.4721 Y12.8272
G01 X-25.4129 Y12.8571
G01 X-25.3488 Y12.8934
G01 X-25.2866 Y12.9328
G01 X-25.2324 Y12.9709
G01 X-25.1684 Y13.0205
G01 X-25.1127 Y13.0686
G01 X-25.0646 Y13.1142
G01 X-25.0037 Y13.1782
G01 X-24.9605 Y13.2284
G01 X-24.9152 Y13.2865
G01 X-24.8728 Y13.3466
G01 X-24.8373 Y13.4026
G01 X-24.7937 Y13.4794
G01 X-24.7640 Y13.5387
G01 X-24.7371 Y13.5992
G01 X-24.7077 Y13.6747
G01 X-24.6846 Y13.7446
G01 X-24.6650 Y13.8155
G01 X-24.6488 Y13.8874
G01 X-24.6362 Y13.9599
G01 X-24.6272 Y14.0330
G01 X-24.6218 Y14.1064
G01 X-24.6200 Y14.1800
G01 X-24.6218 Y14.2536
G01 X-24.6272 Y14.3270
G01 X-24.6362 Y14.4001
G01 X-24.6488 Y14.4726
G01 X-24.6650 Y14.5445
G01 X-24.6846 Y14.6154
G01 X-24.7077 Y14.6853
G01 X-24.7371 Y14.7608
G01 X-24.7640 Y14.8213
G01 X-24.7971 Y14.8871
G01 X-24.8334 Y14.9512
G01 X-24.8770 Y15.0194
G01 X-24.9152 Y15.0735
G01 X-24.9652 Y15.1372
G01 X-25.0086 Y15.1873
G01 X-25.0542 Y15.2354
G01 X-25.1073 Y15.2864
G01 X-25.1684 Y15.3395
G01 X-25.2265 Y15.3848
G01 X-25.2866 Y15.4272
G01 X-25.3488 Y15.4666
G01 X-25.4129 Y15.5029
G01 X-25.4787 Y15.5360
G01 X-25.5460 Y15.5658
G01 X-25.6147 Y15.5923
G01 X-25.6916 Y15.6175
G01 X-25.7555 Y15.6350
G01 X-25.8202 Y15.6497
G01 X-25.8999 Y15.6638
G01 X-25.9803 Y15.6734
G01 X-26.0464 Y15.6782
G01 X-26.1126 Y15.6799
G01 X-26.1936 Y15.6782
G01 X-26.2743 Y15.6720
G01 X-26.3401 Y15.6638
G01 X-26.4126 Y15.6512
G01 X-26.4916 Y15.6332
G01 X-26.5554 Y15.6154
G01 X-26.6184 Y15.5947
G01 X-26.6940 Y15.5658
G01 X-26.7679 Y15.5328
G01 X-26.8271 Y15.5029
G01 X-26.8848 Y15.4703
G01 X-26.9534 Y15.4272
G01 X-27.0194 Y15.3804
G01 X-27.0716 Y15.3395
G01 X-27.1273 Y15.2914
G01 X-27.1807 Y15.2407
G01 X-27.2363 Y15.1818
G01 X-27.2795 Y15.1316
G01 X-27.3204 Y15.0794
G01 X-27.3672 Y15.0134
G01 X-27.4066 Y14.9512
G01 X-27.4463 Y14.8806
G01 X-27.4760 Y14.8213
G01 X-27.5029 Y14.7608
G01 X-27.5298 Y14.6922
G01 X-27.5554 Y14.6154
G01 X-27.5767 Y14.5373
G01 X-27.5912 Y14.4726
G01 X-27.6026 Y14.4074
G01 X-27.6120 Y14.3343
G01 X-27.6182 Y14.2536
G01 X-27.6200 Y14.1763
G01 X-27.6182 Y14.1064
G01 X-27.6134 Y14.0403
G01 X-27.6103 Y14.0124
G01 X-28.9814 Y12.6414
G01 X-29.0130 Y12.6081
G01 X-29.0430 Y12.5734
G01 X-29.0713 Y12.5372
G01 X-29.0977 Y12.4996
G01 X-29.1222 Y12.4608
G01 X-29.1449 Y12.4209
G01 X-29.1655 Y12.3799
G01 X-29.1841 Y12.3379
G01 X-29.2006 Y12.2951
G01 X-29.2150 Y12.2515
G01 X-29.2254 Y12.2144
G01 X-29.2387 Y12.1552
G01 X-29.2452 Y12.1172
G01 X-29.2508 Y12.0717
G01 X-29.2542 Y12.0259
G01 X-29.2553 Y11.9837
G01 X-29.2553 Y5.1923
G00 Z1.0000
M05
G00 Z1.0000
G00 Z30.00
G00 X0.0 Y0.0

