(G-CODE GENERATED BY FLATCAM v8.99 - www.flatcam.org - Version Date: 2019/12/15)

(Name: copper_vmc_iso_cnc)
(Type: G-code from Geometry)
(Units: MM)

(Created on Sunday, 26 January 2020 at 15:44)

(TOOL DIAMETER: 0.6 mm)
(Feedrate: 200.0 mm/min)
(Feedrate_Z: 76.2 mm/min)
(Feedrate rapids 76.2 mm/min)

(Z_Cut: -0.2 mm)
(Z_Move: 1.0 mm)
(Z Toolchange: 12.7 mm)
(X,Y Toolchange: 0.0000, 0.0000 mm)
(Z Start: None mm)
(Z End: 30.0 mm)
(Steps per circle: 128)
(Preprocessor Geometry: default)

(X range:  -32.3001 ...   -0.6999  mm)
(Y range:    0.6999 ...   17.3001  mm)

(Spindle Speed: 12000 RPM)
G21
G90
G94




G01 F200.00
G00 Z1.0000

M03 S12000
G00 X-8.4000 Y10.0037
G01 F76.20
G01 Z-0.2000
G01 F200.00
G01 X-8.3971 Y9.8822
G01 X-8.3884 Y9.7648
G01 X-8.3740 Y9.6478
G01 X-8.3539 Y9.5318
G01 X-8.3281 Y9.4168
G01 X-8.2967 Y9.3033
G01 X-8.2597 Y9.1915
G01 X-8.2173 Y9.0816
G01 X-8.1696 Y8.9739
G01 X-8.1166 Y8.8686
G01 X-8.0585 Y8.7662
G01 X-7.9955 Y8.6666
G01 X-7.9277 Y8.5703
G01 X-7.8552 Y8.4775
G01 X-7.7783 Y8.3883
G01 X-7.6971 Y8.3029
G01 X-7.6117 Y8.2217
G01 X-7.5225 Y8.1448
G01 X-7.4297 Y8.0723
G01 X-7.3334 Y8.0045
G01 X-7.2338 Y7.9415
G01 X-7.1314 Y7.8834
G01 X-7.0261 Y7.8304
G01 X-6.9184 Y7.7827
G01 X-6.8085 Y7.7403
G01 X-6.6967 Y7.7033
G01 X-6.5832 Y7.6719
G01 X-6.4682 Y7.6461
G01 X-6.3522 Y7.6260
G01 X-6.2352 Y7.6116
G01 X-6.1178 Y7.6029
G01 X-6.0000 Y7.6000
G01 X-5.8822 Y7.6029
G01 X-5.7648 Y7.6116
G01 X-5.6478 Y7.6260
G01 X-5.5318 Y7.6461
G01 X-5.4168 Y7.6719
G01 X-5.3033 Y7.7033
G01 X-5.1915 Y7.7403
G01 X-5.0816 Y7.7827
G01 X-4.9739 Y7.8304
G01 X-4.8686 Y7.8834
G01 X-4.7662 Y7.9415
G01 X-4.6666 Y8.0045
G01 X-4.5703 Y8.0723
G01 X-4.4775 Y8.1448
G01 X-4.3883 Y8.2217
G01 X-4.3029 Y8.3029
G01 X-4.2217 Y8.3883
G01 X-4.1448 Y8.4775
G01 X-4.0723 Y8.5703
G01 X-4.0045 Y8.6666
G01 X-3.9415 Y8.7662
G01 X-3.8834 Y8.8686
G01 X-3.8304 Y8.9739
G01 X-3.7827 Y9.0816
G01 X-3.7403 Y9.1915
G01 X-3.7033 Y9.3033
G01 X-3.6719 Y9.4168
G01 X-3.6461 Y9.5318
G01 X-3.6260 Y9.6478
G01 X-3.6116 Y9.7648
G01 X-3.6029 Y9.8822
G01 X-3.6000 Y10.0000
G01 X-3.6029 Y10.1178
G01 X-3.6116 Y10.2352
G01 X-3.6260 Y10.3522
G01 X-3.6461 Y10.4682
G01 X-3.6719 Y10.5832
G01 X-3.7033 Y10.6967
G01 X-3.7403 Y10.8085
G01 X-3.7827 Y10.9184
G01 X-3.8304 Y11.0261
G01 X-3.8834 Y11.1314
G01 X-3.9415 Y11.2338
G01 X-4.0045 Y11.3334
G01 X-4.0723 Y11.4297
G01 X-4.1448 Y11.5225
G01 X-4.2217 Y11.6117
G01 X-4.3029 Y11.6971
G01 X-4.3883 Y11.7783
G01 X-4.4775 Y11.8552
G01 X-4.5703 Y11.9277
G01 X-4.6666 Y11.9955
G01 X-4.7662 Y12.0585
G01 X-4.8686 Y12.1166
G01 X-4.9739 Y12.1696
G01 X-5.0816 Y12.2173
G01 X-5.1915 Y12.2597
G01 X-5.3033 Y12.2967
G01 X-5.4168 Y12.3281
G01 X-5.5318 Y12.3539
G01 X-5.6478 Y12.3740
G01 X-5.7648 Y12.3884
G01 X-5.8822 Y12.3971
G01 X-6.0000 Y12.4000
G01 X-6.1178 Y12.3971
G01 X-6.2352 Y12.3884
G01 X-6.3522 Y12.3740
G01 X-6.4682 Y12.3539
G01 X-6.5832 Y12.3281
G01 X-6.6967 Y12.2967
G01 X-6.8085 Y12.2597
G01 X-6.9184 Y12.2173
G01 X-7.0261 Y12.1696
G01 X-7.1314 Y12.1166
G01 X-7.2338 Y12.0585
G01 X-7.3334 Y11.9955
G01 X-7.4297 Y11.9277
G01 X-7.5225 Y11.8552
G01 X-7.6117 Y11.7783
G01 X-7.6971 Y11.6971
G01 X-7.7783 Y11.6117
G01 X-7.8552 Y11.5225
G01 X-7.9277 Y11.4297
G01 X-7.9955 Y11.3334
G01 X-8.0585 Y11.2338
G01 X-8.1166 Y11.1314
G01 X-8.1696 Y11.0261
G01 X-8.2173 Y10.9184
G01 X-8.2597 Y10.8085
G01 X-8.2967 Y10.6967
G01 X-8.3281 Y10.5832
G01 X-8.3539 Y10.4682
G01 X-8.3740 Y10.3522
G01 X-8.3884 Y10.2352
G01 X-8.3971 Y10.1178
G01 X-8.4000 Y10.0037
G00 Z1.0000
G00 X-21.5503 Y13.2447
G01 F76.20
G01 Z-0.2000
G01 F200.00
G01 X-21.5280 Y13.2239
G01 X-21.0429 Y12.7389
G01 X-21.0153 Y12.7274
G01 X-21.0153 Y13.0077
G01 X-21.0372 Y13.0252
G01 X-21.0873 Y13.0686
G01 X-21.1407 Y13.1193
G01 X-21.1914 Y13.1727
G01 X-21.2348 Y13.2228
G01 X-21.2523 Y13.2447
G01 X-21.5503 Y13.2447
G00 Z1.0000
G00 X-22.4077 Y13.2447
G01 F76.20
G01 Z-0.2000
G01 F200.00
G01 X-22.1097 Y13.2447
G01 X-22.1320 Y13.2239
G01 X-22.6171 Y12.7389
G01 X-23.2419 Y12.4801
G01 X-23.9181 Y12.4801
G01 X-24.5429 Y12.7389
G01 X-24.9510 Y13.1469
G01 X-24.9662 Y13.1614
G01 X-24.9821 Y13.1751
G01 X-24.9986 Y13.1880
G01 X-25.0219 Y13.2041
G01 X-25.0452 Y13.2181
G01 X-25.0704 Y13.2310
G01 X-25.0964 Y13.2423
G01 X-25.1220 Y13.2514
G01 X-25.1492 Y13.2592
G01 X-25.1697 Y13.2638
G01 X-25.1903 Y13.2674
G01 X-25.2111 Y13.2700
G01 X-25.2320 Y13.2715
G01 X-25.2530 Y13.2720
G01 X-25.2740 Y13.2715
G01 X-25.2949 Y13.2700
G01 X-25.3291 Y13.2652
G01 X-25.3639 Y13.2574
G01 X-25.3840 Y13.2514
G01 X-25.4038 Y13.2445
G01 X-25.4356 Y13.2310
G01 X-25.4543 Y13.2216
G01 X-25.4726 Y13.2113
G01 X-25.4903 Y13.2001
G01 X-25.5074 Y13.1880
G01 X-25.5239 Y13.1751
G01 X-25.5398 Y13.1614
G01 X-25.5550 Y13.1469
G01 X-25.5694 Y13.1318
G01 X-25.5916 Y13.1052
G01 X-25.6039 Y13.0883
G01 X-25.6154 Y13.0708
G01 X-25.6261 Y13.0527
G01 X-25.6358 Y13.0342
G01 X-25.6447 Y13.0152
G01 X-25.6525 Y12.9957
G01 X-25.6637 Y12.9619
G01 X-25.6703 Y12.9355
G01 X-25.6754 Y12.9076
G01 X-25.6786 Y12.8795
G01 X-25.6801 Y12.8450
G01 X-25.6801 Y5.9360
G01 X-25.6795 Y5.9150
G01 X-25.6772 Y5.8868
G01 X-25.6732 Y5.8599
G01 X-25.6673 Y5.8322
G01 X-25.6617 Y5.8120
G01 X-25.6551 Y5.7921
G01 X-25.6447 Y5.7658
G01 X-25.6330 Y5.7412
G01 X-25.6193 Y5.7164
G01 X-25.6081 Y5.6987
G01 X-25.5916 Y5.6757
G01 X-25.5743 Y5.6547
G01 X-25.5601 Y5.6393
G01 X-25.5398 Y5.6196
G01 X-25.5239 Y5.6059
G01 X-25.5074 Y5.5930
G01 X-25.4896 Y5.5804
G01 X-25.3791 Y5.4151
G01 X-25.3319 Y5.1779
G01 X-25.3319 Y2.8621
G01 X-25.3791 Y2.6249
G01 X-25.4896 Y2.4596
G01 X-25.6549 Y2.3491
G01 X-25.8921 Y2.3019
G01 X-28.2079 Y2.3019
G01 X-28.4451 Y2.3491
G01 X-28.6104 Y2.4596
G01 X-28.7724 Y2.7010
G01 X-28.7941 Y2.7279
G01 X-28.8134 Y2.7486
G01 X-28.8341 Y2.7679
G01 X-28.8551 Y2.7851
G01 X-28.8843 Y2.8057
G01 X-28.9141 Y2.8232
G01 X-28.9328 Y2.8326
G01 X-28.9520 Y2.8411
G01 X-28.9844 Y2.8530
G01 X-29.0188 Y2.8626
G01 X-29.0527 Y2.8690
G01 X-29.0735 Y2.8716
G01 X-29.0944 Y2.8731
G01 X-29.1290 Y2.8734
G01 X-29.1572 Y2.8716
G01 X-29.1853 Y2.8679
G01 X-29.2120 Y2.8626
G01 X-29.2394 Y2.8553
G01 X-29.2720 Y2.8439
G01 X-29.2980 Y2.8326
G01 X-29.3232 Y2.8197
G01 X-29.3465 Y2.8057
G01 X-29.3756 Y2.7851
G01 X-29.3919 Y2.7720
G01 X-29.4076 Y2.7580
G01 X-29.5871 Y2.5789
G01 X-30.2119 Y2.3201
G01 X-30.8881 Y2.3201
G01 X-31.5129 Y2.5789
G01 X-31.5808 Y2.6464
G01 X-31.6021 Y2.6651
G01 X-31.6186 Y2.6780
G01 X-31.6419 Y2.6941
G01 X-31.6652 Y2.7081
G01 X-31.6904 Y2.7210
G01 X-31.7164 Y2.7323
G01 X-31.7490 Y2.7436
G01 X-31.7825 Y2.7523
G01 X-31.8103 Y2.7574
G01 X-31.8447 Y2.7611
G01 X-31.8804 Y2.7619
G01 X-31.9149 Y2.7600
G01 X-31.9429 Y2.7562
G01 X-31.9768 Y2.7492
G01 X-32.0040 Y2.7414
G01 X-32.0364 Y2.7295
G01 X-32.0678 Y2.7150
G01 X-32.0988 Y2.6974
G01 X-32.1274 Y2.6780
G01 X-32.1543 Y2.6563
G01 X-32.1750 Y2.6369
G01 X-32.1984 Y2.6115
G01 X-32.2203 Y2.5834
G01 X-32.2393 Y2.5545
G01 X-32.2558 Y2.5242
G01 X-32.2676 Y2.4984
G01 X-32.2775 Y2.4719
G01 X-32.2873 Y2.4387
G01 X-32.2943 Y2.4049
G01 X-32.2986 Y2.3695
G01 X-32.3001 Y2.3350
G01 X-32.3001 Y1.1270
G01 X-32.2995 Y1.1060
G01 X-32.2980 Y1.0851
G01 X-32.2954 Y1.0643
G01 X-32.2919 Y1.0437
G01 X-32.2873 Y1.0232
G01 X-32.2817 Y1.0030
G01 X-32.2751 Y0.9831
G01 X-32.2676 Y0.9636
G01 X-32.2591 Y0.9444
G01 X-32.2496 Y0.9257
G01 X-32.2393 Y0.9074
G01 X-32.2281 Y0.8897
G01 X-32.2160 Y0.8726
G01 X-32.2031 Y0.8561
G01 X-32.1894 Y0.8402
G01 X-32.1750 Y0.8250
G01 X-32.1598 Y0.8106
G01 X-32.1382 Y0.7923
G01 X-32.1103 Y0.7719
G01 X-32.0808 Y0.7539
G01 X-32.0489 Y0.7379
G01 X-32.0169 Y0.7249
G01 X-31.9839 Y0.7146
G01 X-31.9491 Y0.7068
G01 X-31.9149 Y0.7020
G01 X-31.8940 Y0.7005
G01 X-31.8730 Y0.6999
G01 X-5.1952 Y0.6999
G01 X-5.1747 Y0.7004
G01 X-5.1469 Y0.7027
G01 X-5.1205 Y0.7065
G01 X-5.0933 Y0.7123
G01 X-5.0607 Y0.7217
G01 X-5.0346 Y0.7313
G01 X-5.0037 Y0.7453
G01 X-4.9793 Y0.7586
G01 X-4.9507 Y0.7769
G01 X-4.9284 Y0.7935
G01 X-0.8573 Y4.0505
G01 X-0.8384 Y4.0668
G01 X-0.8187 Y4.0861
G01 X-0.7995 Y4.1075
G01 X-0.7863 Y4.1241
G01 X-0.7739 Y4.1414
G01 X-0.7586 Y4.1657
G01 X-0.7454 Y4.1899
G01 X-0.7334 Y4.2160
G01 X-0.7256 Y4.2358
G01 X-0.7188 Y4.2559
G01 X-0.7131 Y4.2764
G01 X-0.7084 Y4.2971
G01 X-0.7047 Y4.3180
G01 X-0.7021 Y4.3391
G01 X-0.7000 Y4.3779
G01 X-0.6999 Y7.8730
G01 X-0.7005 Y7.8940
G01 X-0.7028 Y7.9222
G01 X-0.7068 Y7.9491
G01 X-0.7127 Y7.9768
G01 X-0.7183 Y7.9970
G01 X-0.7249 Y8.0169
G01 X-0.7353 Y8.0432
G01 X-0.7442 Y8.0622
G01 X-0.7570 Y8.0862
G01 X-0.7719 Y8.1103
G01 X-0.7840 Y8.1274
G01 X-0.7969 Y8.1439
G01 X-0.8156 Y8.1652
G01 X-0.8348 Y8.1844
G01 X-0.8504 Y8.1984
G01 X-0.8726 Y8.2160
G01 X-0.8897 Y8.2281
G01 X-0.9192 Y8.2461
G01 X-0.9444 Y8.2591
G01 X-0.9762 Y8.2725
G01 X-1.0030 Y8.2817
G01 X-1.0365 Y8.2903
G01 X-1.0643 Y8.2954
G01 X-1.0925 Y8.2986
G01 X-1.1196 Y8.3000
G01 X-3.8462 Y8.3001
G01 X-3.8807 Y8.2986
G01 X-3.9088 Y8.2954
G01 X-3.9428 Y8.2890
G01 X-3.9701 Y8.2817
G01 X-3.9970 Y8.2725
G01 X-4.0221 Y8.2621
G01 X-4.0475 Y8.2496
G01 X-4.0720 Y8.2354
G01 X-4.0946 Y8.2203
G01 X-4.1171 Y8.2031
G01 X-4.1330 Y8.1894
G01 X-4.1482 Y8.1750
G01 X-4.5273 Y7.7959
G01 X-5.4828 Y7.4001
G01 X-6.5172 Y7.4001
G01 X-7.4727 Y7.7959
G01 X-8.2041 Y8.5273
G01 X-8.5999 Y9.4828
G01 X-8.5999 Y10.5172
G01 X-8.2041 Y11.4727
G01 X-7.4727 Y12.2041
G01 X-6.5172 Y12.5999
G01 X-5.4828 Y12.5999
G01 X-4.5273 Y12.2041
G01 X-4.1482 Y11.8250
G01 X-4.1330 Y11.8106
G01 X-4.1171 Y11.7969
G01 X-4.0946 Y11.7797
G01 X-4.0657 Y11.7607
G01 X-4.0410 Y11.7470
G01 X-4.0164 Y11.7353
G01 X-3.9900 Y11.7249
G01 X-3.9631 Y11.7163
G01 X-3.9367 Y11.7097
G01 X-3.9088 Y11.7046
G01 X-3.8745 Y11.7009
G01 X-3.8462 Y11.6999
G01 X-1.1270 Y11.6999
G01 X-1.1060 Y11.7005
G01 X-1.0851 Y11.7020
G01 X-1.0643 Y11.7046
G01 X-1.0437 Y11.7081
G01 X-1.0232 Y11.7127
G01 X-1.0030 Y11.7183
G01 X-0.9831 Y11.7249
G01 X-0.9511 Y11.7379
G01 X-0.9322 Y11.7470
G01 X-0.9138 Y11.7570
G01 X-0.8837 Y11.7761
G01 X-0.8561 Y11.7969
G01 X-0.8402 Y11.8106
G01 X-0.8250 Y11.8250
G01 X-0.8106 Y11.8402
G01 X-0.7969 Y11.8561
G01 X-0.7840 Y11.8726
G01 X-0.7719 Y11.8897
G01 X-0.7607 Y11.9074
G01 X-0.7504 Y11.9257
G01 X-0.7353 Y11.9568
G01 X-0.7275 Y11.9762
G01 X-0.7205 Y11.9960
G01 X-0.7146 Y12.0161
G01 X-0.7097 Y12.0365
G01 X-0.7036 Y12.0716
G01 X-0.7014 Y12.0925
G01 X-0.7002 Y12.1134
G01 X-0.7002 Y16.8866
G01 X-0.7020 Y16.9149
G01 X-0.7068 Y16.9491
G01 X-0.7127 Y16.9768
G01 X-0.7225 Y17.0099
G01 X-0.7324 Y17.0364
G01 X-0.7442 Y17.0622
G01 X-0.7607 Y17.0926
G01 X-0.7761 Y17.1163
G01 X-0.7923 Y17.1382
G01 X-0.8106 Y17.1598
G01 X-0.8348 Y17.1844
G01 X-0.8561 Y17.2031
G01 X-0.8837 Y17.2239
G01 X-0.9074 Y17.2393
G01 X-0.9378 Y17.2558
G01 X-0.9636 Y17.2676
G01 X-0.9831 Y17.2751
G01 X-1.0030 Y17.2817
G01 X-1.0232 Y17.2873
G01 X-1.0437 Y17.2919
G01 X-1.0643 Y17.2954
G01 X-1.0851 Y17.2980
G01 X-1.1060 Y17.2995
G01 X-1.1270 Y17.3001
G01 X-31.8767 Y17.3000
G01 X-31.9149 Y17.2980
G01 X-31.9429 Y17.2943
G01 X-31.9768 Y17.2873
G01 X-32.0040 Y17.2795
G01 X-32.0364 Y17.2676
G01 X-32.0622 Y17.2558
G01 X-32.0926 Y17.2393
G01 X-32.1163 Y17.2239
G01 X-32.1439 Y17.2031
G01 X-32.1652 Y17.1844
G01 X-32.1894 Y17.1598
G01 X-32.2116 Y17.1333
G01 X-32.2281 Y17.1103
G01 X-32.2461 Y17.0808
G01 X-32.2591 Y17.0556
G01 X-32.2725 Y17.0238
G01 X-32.2837 Y16.9899
G01 X-32.2919 Y16.9563
G01 X-32.2954 Y16.9357
G01 X-32.2980 Y16.9149
G01 X-32.3000 Y16.8804
G01 X-32.3001 Y15.8950
G01 X-32.2995 Y15.8741
G01 X-32.2972 Y15.8459
G01 X-32.2932 Y15.8190
G01 X-32.2890 Y15.7984
G01 X-32.2817 Y15.7711
G01 X-32.2751 Y15.7512
G01 X-32.2676 Y15.7316
G01 X-32.2558 Y15.7058
G01 X-32.2461 Y15.6873
G01 X-32.2321 Y15.6639
G01 X-32.2160 Y15.6406
G01 X-32.2031 Y15.6241
G01 X-32.1894 Y15.6082
G01 X-32.1697 Y15.5879
G01 X-32.1496 Y15.5696
G01 X-32.1333 Y15.5565
G01 X-32.1103 Y15.5399
G01 X-32.0926 Y15.5287
G01 X-32.0743 Y15.5184
G01 X-32.0556 Y15.5090
G01 X-32.0364 Y15.5005
G01 X-32.0099 Y15.4905
G01 X-31.9839 Y15.4826
G01 X-31.9635 Y15.4777
G01 X-31.9429 Y15.4738
G01 X-31.9222 Y15.4708
G01 X-31.8940 Y15.4685
G01 X-31.8730 Y15.4680
G01 X-31.8520 Y15.4685
G01 X-31.8311 Y15.4700
G01 X-31.8103 Y15.4726
G01 X-31.7897 Y15.4762
G01 X-31.7692 Y15.4808
G01 X-31.7490 Y15.4864
G01 X-31.7164 Y15.4977
G01 X-31.6904 Y15.5090
G01 X-31.6598 Y15.5250
G01 X-31.6357 Y15.5399
G01 X-31.6127 Y15.5565
G01 X-31.5917 Y15.5737
G01 X-31.5736 Y15.5905
G01 X-31.5429 Y15.6211
G01 X-30.9181 Y15.8799
G01 X-30.2419 Y15.8799
G01 X-29.6171 Y15.6211
G01 X-29.1320 Y15.1361
G01 X-29.1168 Y15.1216
G01 X-29.1009 Y15.1079
G01 X-29.0784 Y15.0907
G01 X-29.0496 Y15.0717
G01 X-29.0248 Y15.0580
G01 X-29.0002 Y15.0464
G01 X-28.9739 Y15.0359
G01 X-28.9409 Y15.0256
G01 X-28.9133 Y15.0192
G01 X-28.8854 Y15.0146
G01 X-28.8510 Y15.0115
G01 X-28.8300 Y15.0110
G01 X-28.8090 Y15.0115
G01 X-28.7881 Y15.0130
G01 X-28.7673 Y15.0156
G01 X-28.7467 Y15.0192
G01 X-28.7262 Y15.0238
G01 X-28.7060 Y15.0294
G01 X-28.6861 Y15.0359
G01 X-28.6666 Y15.0435
G01 X-28.6474 Y15.0520
G01 X-28.6287 Y15.0614
G01 X-28.6104 Y15.0717
G01 X-28.5816 Y15.0907
G01 X-28.5591 Y15.1079
G01 X-28.5306 Y15.1335
G01 X-28.0429 Y15.6211
G01 X-27.4181 Y15.8799
G01 X-26.7419 Y15.8799
G01 X-26.1171 Y15.6211
G01 X-25.6320 Y15.1361
G01 X-25.6113 Y15.1167
G01 X-25.5903 Y15.0995
G01 X-25.5611 Y15.0789
G01 X-25.5313 Y15.0614
G01 X-25.5002 Y15.0464
G01 X-25.4669 Y15.0335
G01 X-25.4338 Y15.0238
G01 X-25.3999 Y15.0168
G01 X-25.3645 Y15.0124
G01 X-25.3300 Y15.0110
G01 X-25.2955 Y15.0124
G01 X-25.2601 Y15.0168
G01 X-25.2262 Y15.0238
G01 X-25.1931 Y15.0335
G01 X-25.1598 Y15.0464
G01 X-25.1287 Y15.0614
G01 X-25.0989 Y15.0789
G01 X-25.0697 Y15.0995
G01 X-25.0487 Y15.1167
G01 X-25.0280 Y15.1361
G01 X-24.5429 Y15.6211
G01 X-23.9181 Y15.8799
G01 X-23.2419 Y15.8799
G01 X-22.6171 Y15.6211
G01 X-22.1320 Y15.1361
G01 X-22.1097 Y15.1153
G01 X-22.4077 Y15.1153
G01 X-22.4252 Y15.1372
G01 X-22.4736 Y15.1927
G01 X-22.5193 Y15.2407
G01 X-22.5782 Y15.2963
G01 X-22.6284 Y15.3395
G01 X-22.6865 Y15.3848
G01 X-22.7466 Y15.4272
G01 X-22.8088 Y15.4666
G01 X-22.8729 Y15.5029
G01 X-22.9321 Y15.5328
G01 X-23.0128 Y15.5686
G01 X-23.0747 Y15.5923
G01 X-23.1446 Y15.6154
G01 X-23.2155 Y15.6350
G01 X-23.2874 Y15.6512
G01 X-23.3599 Y15.6638
G01 X-23.4257 Y15.6720
G01 X-23.5138 Y15.6785
G01 X-23.5800 Y15.6800
G01 X-23.6536 Y15.6782
G01 X-23.7270 Y15.6728
G01 X-23.7928 Y15.6648
G01 X-23.8798 Y15.6497
G01 X-23.9445 Y15.6350
G01 X-24.0154 Y15.6154
G01 X-24.0853 Y15.5923
G01 X-24.1472 Y15.5686
G01 X-24.2213 Y15.5360
G01 X-24.2871 Y15.5029
G01 X-24.3448 Y15.4703
G01 X-24.4194 Y15.4230
G01 X-24.4735 Y15.3848
G01 X-24.5316 Y15.3395
G01 X-24.5873 Y15.2914
G01 X-24.6407 Y15.2407
G01 X-24.6914 Y15.1873
G01 X-24.7395 Y15.1316
G01 X-24.7848 Y15.0735
G01 X-24.8230 Y15.0194
G01 X-24.8703 Y14.9448
G01 X-24.9029 Y14.8871
G01 X-24.9391 Y14.8146
G01 X-24.9658 Y14.7540
G01 X-24.9923 Y14.6853
G01 X-25.0154 Y14.6154
G01 X-25.0350 Y14.5445
G01 X-25.0512 Y14.4726
G01 X-25.0638 Y14.4001
G01 X-25.0728 Y14.3270
G01 X-25.0777 Y14.2610
G01 X-25.0800 Y14.1837
G01 X-25.0785 Y14.1138
G01 X-25.0720 Y14.0257
G01 X-25.0638 Y13.9599
G01 X-25.0512 Y13.8874
G01 X-25.0350 Y13.8155
G01 X-25.0154 Y13.7446
G01 X-24.9898 Y13.6678
G01 X-24.9658 Y13.6060
G01 X-24.9360 Y13.5387
G01 X-24.8993 Y13.4665
G01 X-24.8666 Y13.4088
G01 X-24.8312 Y13.3528
G01 X-24.7848 Y13.2865
G01 X-24.7348 Y13.2228
G01 X-24.6914 Y13.1727
G01 X-24.6458 Y13.1246
G01 X-24.5873 Y13.0686
G01 X-24.5316 Y13.0205
G01 X-24.4794 Y12.9796
G01 X-24.4134 Y12.9328
G01 X-24.3448 Y12.8897
G01 X-24.2871 Y12.8571
G01 X-24.2279 Y12.8272
G01 X-24.1540 Y12.7942
G01 X-24.0784 Y12.7653
G01 X-24.0154 Y12.7446
G01 X-23.9516 Y12.7268
G01 X-23.8726 Y12.7088
G01 X-23.8001 Y12.6962
G01 X-23.7343 Y12.6880
G01 X-23.6536 Y12.6818
G01 X-23.5726 Y12.6801
G01 X-23.5064 Y12.6818
G01 X-23.4403 Y12.6866
G01 X-23.3599 Y12.6962
G01 X-23.2802 Y12.7103
G01 X-23.2155 Y12.7250
G01 X-23.1516 Y12.7425
G01 X-23.0747 Y12.7677
G01 X-23.0060 Y12.7942
G01 X-22.9454 Y12.8209
G01 X-22.8729 Y12.8571
G01 X-22.8026 Y12.8973
G01 X-22.7466 Y12.9328
G01 X-22.6924 Y12.9709
G01 X-22.6228 Y13.0252
G01 X-22.5727 Y13.0686
G01 X-22.5246 Y13.1142
G01 X-22.4686 Y13.1727
G01 X-22.4252 Y13.2228
G01 X-22.4077 Y13.2447
G00 Z1.0000
G00 X-21.5503 Y15.1153
G01 F76.20
G01 Z-0.2000
G01 F200.00
G01 X-21.2523 Y15.1153
G01 X-21.2348 Y15.1372
G01 X-21.1914 Y15.1873
G01 X-21.1407 Y15.2407
G01 X-21.0873 Y15.2914
G01 X-21.0316 Y15.3395
G01 X-20.9735 Y15.3848
G01 X-20.9134 Y15.4272
G01 X-20.8512 Y15.4666
G01 X-20.7871 Y15.5029
G01 X-20.7213 Y15.5360
G01 X-20.6540 Y15.5658
G01 X-20.5853 Y15.5923
G01 X-20.5154 Y15.6154
G01 X-20.4445 Y15.6350
G01 X-20.3726 Y15.6512
G01 X-20.3001 Y15.6638
G01 X-20.2270 Y15.6728
G01 X-20.1536 Y15.6782
G01 X-20.0800 Y15.6800
G01 X-20.0064 Y15.6782
G01 X-19.9330 Y15.6728
G01 X-19.8599 Y15.6638
G01 X-19.7874 Y15.6512
G01 X-19.7155 Y15.6350
G01 X-19.6446 Y15.6154
G01 X-19.5747 Y15.5923
G01 X-19.5060 Y15.5658
G01 X-19.4387 Y15.5360
G01 X-19.3729 Y15.5029
G01 X-19.3088 Y15.4666
G01 X-19.2466 Y15.4272
G01 X-19.1865 Y15.3848
G01 X-19.1228 Y15.3348
G01 X-19.0727 Y15.2914
G01 X-19.0142 Y15.2354
G01 X-18.9686 Y15.1873
G01 X-18.9252 Y15.1372
G01 X-18.8796 Y15.0794
G01 X-18.8328 Y15.0134
G01 X-18.7934 Y14.9512
G01 X-18.7571 Y14.8871
G01 X-18.7240 Y14.8213
G01 X-18.6942 Y14.7540
G01 X-18.6653 Y14.6784
G01 X-18.6425 Y14.6084
G01 X-18.6250 Y14.5445
G01 X-18.6103 Y14.4798
G01 X-18.5962 Y14.4001
G01 X-18.5872 Y14.3270
G01 X-18.5818 Y14.2536
G01 X-18.5800 Y14.1800
G01 X-18.5818 Y14.1064
G01 X-18.5872 Y14.0330
G01 X-18.5962 Y13.9599
G01 X-18.6088 Y13.8874
G01 X-18.6250 Y13.8155
G01 X-18.6446 Y13.7446
G01 X-18.6677 Y13.6747
G01 X-18.6914 Y13.6128
G01 X-18.7240 Y13.5387
G01 X-18.7607 Y13.4665
G01 X-18.7934 Y13.4088
G01 X-18.8288 Y13.3528
G01 X-18.8752 Y13.2865
G01 X-18.9252 Y13.2228
G01 X-18.9686 Y13.1727
G01 X-19.0142 Y13.1246
G01 X-19.0727 Y13.0686
G01 X-19.1228 Y13.0252
G01 X-19.1447 Y13.0077
G01 X-19.1447 Y12.7274
G01 X-19.1171 Y12.7389
G01 X-18.6168 Y13.2384
G01 X-18.5952 Y13.2567
G01 X-18.5733 Y13.2729
G01 X-18.5496 Y13.2883
G01 X-18.5248 Y13.3020
G01 X-18.5002 Y13.3136
G01 X-18.4739 Y13.3241
G01 X-18.4469 Y13.3327
G01 X-18.4133 Y13.3408
G01 X-18.3792 Y13.3462
G01 X-18.3510 Y13.3485
G01 X-18.3226 Y13.3489
G01 X-18.2955 Y13.3476
G01 X-18.2673 Y13.3444
G01 X-18.2395 Y13.3393
G01 X-18.2131 Y13.3327
G01 X-18.1861 Y13.3241
G01 X-18.1541 Y13.3111
G01 X-18.1287 Y13.2986
G01 X-18.1042 Y13.2844
G01 X-18.0816 Y13.2693
G01 X-18.0591 Y13.2521
G01 X-18.0306 Y13.2265
G01 X-17.8400 Y13.0359
G01 X-17.8207 Y13.0153
G01 X-17.7990 Y12.9884
G01 X-17.7869 Y12.9712
G01 X-17.7757 Y12.9535
G01 X-17.7654 Y12.9353
G01 X-17.7559 Y12.9166
G01 X-17.7474 Y12.8974
G01 X-17.7399 Y12.8778
G01 X-17.7296 Y12.8449
G01 X-17.7218 Y12.8100
G01 X-17.7170 Y12.7758
G01 X-17.7150 Y12.7376
G01 X-17.7150 Y12.6331
G01 X-17.7170 Y12.5949
G01 X-17.7224 Y12.5571
G01 X-17.7372 Y12.4829
G01 X-17.6491 Y12.0401
G01 X-17.3982 Y11.6647
G01 X-17.3213 Y11.6127
G01 X-17.3048 Y11.5998
G01 X-17.2835 Y11.5811
G01 X-16.8774 Y11.1753
G01 X-16.8519 Y11.1469
G01 X-16.8390 Y11.1303
G01 X-16.8269 Y11.1132
G01 X-16.8157 Y11.0955
G01 X-16.8054 Y11.0773
G01 X-16.7903 Y11.0461
G01 X-16.7799 Y11.0198
G01 X-16.7733 Y10.9999
G01 X-16.7677 Y10.9797
G01 X-16.7631 Y10.9593
G01 X-16.7596 Y10.9386
G01 X-16.7570 Y10.9178
G01 X-16.7555 Y10.8969
G01 X-16.7549 Y10.8759
G01 X-16.7549 Y5.6841
G01 X-16.7559 Y5.6558
G01 X-16.7596 Y5.6214
G01 X-16.7647 Y5.5936
G01 X-16.7713 Y5.5672
G01 X-16.7825 Y5.5333
G01 X-16.7959 Y5.5015
G01 X-16.8120 Y5.4709
G01 X-16.8269 Y5.4468
G01 X-16.8434 Y5.4238
G01 X-16.8656 Y5.3973
G01 X-16.8898 Y5.3727
G01 X-16.9168 Y5.3494
G01 X-16.9447 Y5.3290
G01 X-16.9742 Y5.3110
G01 X-17.0061 Y5.2950
G01 X-17.0381 Y5.2820
G01 X-17.0711 Y5.2717
G01 X-17.0987 Y5.2652
G01 X-17.1328 Y5.2599
G01 X-17.1684 Y5.2573
G01 X-17.1956 Y5.2573
G01 X-17.2165 Y5.2585
G01 X-17.2447 Y5.2617
G01 X-17.2653 Y5.2652
G01 X-17.2858 Y5.2698
G01 X-17.3060 Y5.2754
G01 X-17.3259 Y5.2820
G01 X-17.3522 Y5.2924
G01 X-17.3833 Y5.3075
G01 X-17.4078 Y5.3217
G01 X-17.5748 Y5.4329
G01 X-18.0123 Y5.5199
G01 X-18.3077 Y5.5199
G01 X-18.3323 Y5.5150
G01 X-18.1368 Y5.3195
G01 X-18.0962 Y5.3184
G01 X-18.0326 Y5.3137
G01 X-17.9693 Y5.3059
G01 X-17.9136 Y5.2964
G01 X-17.8370 Y5.2792
G01 X-17.7826 Y5.2640
G01 X-17.7220 Y5.2440
G01 X-17.6625 Y5.2210
G01 X-17.6042 Y5.1952
G01 X-17.5472 Y5.1665
G01 X-17.4980 Y5.1388
G01 X-17.4378 Y5.1009
G01 X-17.3916 Y5.0685
G01 X-17.3297 Y5.0202
G01 X-17.2870 Y4.9832
G01 X-17.2408 Y4.9392
G01 X-17.1968 Y4.8930
G01 X-17.1598 Y4.8503
G01 X-17.1115 Y4.7884
G01 X-17.0791 Y4.7422
G01 X-17.0450 Y4.6883
G01 X-17.0135 Y4.6328
G01 X-16.9880 Y4.5824
G01 X-16.9562 Y4.5107
G01 X-16.9360 Y4.4580
G01 X-16.9160 Y4.3974
G01 X-16.8990 Y4.3359
G01 X-16.8900 Y4.2964
G01 X-16.8810 Y4.3359
G01 X-16.8661 Y4.3903
G01 X-16.8440 Y4.4580
G01 X-16.8210 Y4.5175
G01 X-16.7983 Y4.5691
G01 X-16.7665 Y4.6328
G01 X-16.7350 Y4.6883
G01 X-16.7049 Y4.7361
G01 X-16.6642 Y4.7944
G01 X-16.6202 Y4.8503
G01 X-16.5832 Y4.8930
G01 X-16.5553 Y4.9225
G01 X-16.5553 Y11.1355
G01 X-17.2414 Y11.8216
G01 X-17.2730 Y11.8548
G01 X-17.3030 Y11.8896
G01 X-17.3268 Y11.9199
G01 X-17.3577 Y11.9633
G01 X-17.3822 Y12.0021
G01 X-17.4013 Y12.0356
G01 X-17.4255 Y12.0830
G01 X-17.4441 Y12.1250
G01 X-17.4606 Y12.1678
G01 X-17.4750 Y12.2114
G01 X-17.4854 Y12.2486
G01 X-17.4987 Y12.3077
G01 X-17.5052 Y12.3457
G01 X-17.5108 Y12.3913
G01 X-17.5142 Y12.4370
G01 X-17.5153 Y12.4793
G01 X-17.5153 Y13.0077
G01 X-17.5372 Y13.0252
G01 X-17.5873 Y13.0686
G01 X-17.6458 Y13.1246
G01 X-17.6914 Y13.1727
G01 X-17.7348 Y13.2228
G01 X-17.7848 Y13.2865
G01 X-17.8312 Y13.3528
G01 X-17.8666 Y13.4088
G01 X-17.8993 Y13.4665
G01 X-17.9360 Y13.5387
G01 X-17.9686 Y13.6128
G01 X-17.9923 Y13.6747
G01 X-18.0132 Y13.7376
G01 X-18.0350 Y13.8155
G01 X-18.0525 Y13.8946
G01 X-18.0638 Y13.9599
G01 X-18.0720 Y14.0257
G01 X-18.0782 Y14.1064
G01 X-18.0799 Y14.1874
G01 X-18.0782 Y14.2536
G01 X-18.0734 Y14.3197
G01 X-18.0638 Y14.4001
G01 X-18.0497 Y14.4798
G01 X-18.0350 Y14.5445
G01 X-18.0154 Y14.6154
G01 X-17.9898 Y14.6922
G01 X-17.9658 Y14.7540
G01 X-17.9360 Y14.8213
G01 X-17.8993 Y14.8935
G01 X-17.8666 Y14.9512
G01 X-17.8272 Y15.0134
G01 X-17.7804 Y15.0794
G01 X-17.7395 Y15.1316
G01 X-17.6914 Y15.1873
G01 X-17.6354 Y15.2458
G01 X-17.5873 Y15.2914
G01 X-17.5316 Y15.3395
G01 X-17.4676 Y15.3891
G01 X-17.4134 Y15.4272
G01 X-17.3512 Y15.4666
G01 X-17.2806 Y15.5063
G01 X-17.2213 Y15.5360
G01 X-17.1540 Y15.5658
G01 X-17.0853 Y15.5923
G01 X-17.0224 Y15.6132
G01 X-16.9373 Y15.6367
G01 X-16.8726 Y15.6512
G01 X-16.8074 Y15.6626
G01 X-16.7270 Y15.6728
G01 X-16.6536 Y15.6782
G01 X-16.5874 Y15.6799
G01 X-16.4990 Y15.6777
G01 X-16.4330 Y15.6728
G01 X-16.3672 Y15.6648
G01 X-16.2802 Y15.6497
G01 X-16.2155 Y15.6350
G01 X-16.1446 Y15.6154
G01 X-16.0747 Y15.5923
G01 X-16.0128 Y15.5686
G01 X-15.9321 Y15.5328
G01 X-15.8729 Y15.5029
G01 X-15.8088 Y15.4666
G01 X-15.7406 Y15.4230
G01 X-15.6865 Y15.3848
G01 X-15.6284 Y15.3395
G01 X-15.5727 Y15.2914
G01 X-15.5246 Y15.2458
G01 X-15.4686 Y15.1873
G01 X-15.4205 Y15.1316
G01 X-15.3796 Y15.0794
G01 X-15.3328 Y15.0134
G01 X-15.2934 Y14.9512
G01 X-15.2571 Y14.8871
G01 X-15.2240 Y14.8213
G01 X-15.1971 Y14.7608
G01 X-15.1653 Y14.6784
G01 X-15.1446 Y14.6154
G01 X-15.1233 Y14.5373
G01 X-15.1088 Y14.4726
G01 X-15.0962 Y14.4001
G01 X-15.0872 Y14.3270
G01 X-15.0818 Y14.2536
G01 X-15.0800 Y14.1800
G01 X-15.0818 Y14.1064
G01 X-15.0872 Y14.0330
G01 X-15.0962 Y13.9599
G01 X-15.1088 Y13.8874
G01 X-15.1233 Y13.8227
G01 X-15.1468 Y13.7376
G01 X-15.1677 Y13.6747
G01 X-15.1942 Y13.6060
G01 X-15.2240 Y13.5387
G01 X-15.2537 Y13.4794
G01 X-15.2934 Y13.4088
G01 X-15.3328 Y13.3466
G01 X-15.3752 Y13.2865
G01 X-15.4205 Y13.2284
G01 X-15.4686 Y13.1727
G01 X-15.5193 Y13.1193
G01 X-15.5727 Y13.0686
G01 X-15.6228 Y13.0252
G01 X-15.6447 Y13.0077
G01 X-15.6447 Y12.8704
G01 X-14.9586 Y12.1843
G01 X-14.9270 Y12.1511
G01 X-14.8924 Y12.1106
G01 X-14.8687 Y12.0801
G01 X-14.8465 Y12.0487
G01 X-14.8178 Y12.0038
G01 X-14.7917 Y11.9573
G01 X-14.7745 Y11.9228
G01 X-14.7588 Y11.8876
G01 X-14.7394 Y11.8380
G01 X-14.7229 Y11.7874
G01 X-14.7127 Y11.7502
G01 X-14.7042 Y11.7126
G01 X-14.6948 Y11.6602
G01 X-14.6892 Y11.6146
G01 X-14.6863 Y11.5762
G01 X-14.6847 Y11.5229
G01 X-14.6847 Y4.9225
G01 X-14.6568 Y4.8930
G01 X-14.6198 Y4.8503
G01 X-14.5803 Y4.8003
G01 X-14.5391 Y4.7422
G01 X-14.5050 Y4.6883
G01 X-14.4735 Y4.6328
G01 X-14.4417 Y4.5691
G01 X-14.4162 Y4.5107
G01 X-14.3960 Y4.4580
G01 X-14.3800 Y4.4098
G01 X-14.3796 Y5.0347
G01 X-14.3768 Y5.0640
G01 X-14.3742 Y5.0785
G01 X-14.3671 Y5.1071
G01 X-14.3572 Y5.1348
G01 X-14.3512 Y5.1483
G01 X-14.3373 Y5.1742
G01 X-14.3210 Y5.1987
G01 X-14.3023 Y5.2215
G01 X-14.2815 Y5.2423
G01 X-14.2587 Y5.2610
G01 X-14.2467 Y5.2694
G01 X-14.2214 Y5.2846
G01 X-14.1948 Y5.2972
G01 X-14.1671 Y5.3071
G01 X-14.1529 Y5.3110
G01 X-14.1240 Y5.3168
G01 X-14.0947 Y5.3196
G01 X-14.0153 Y5.3200
G01 X-14.0153 Y12.6800
G01 X-14.2947 Y12.6804
G01 X-14.3240 Y12.6832
G01 X-14.3385 Y12.6858
G01 X-14.3671 Y12.6929
G01 X-14.3948 Y12.7028
G01 X-14.4083 Y12.7088
G01 X-14.4342 Y12.7227
G01 X-14.4587 Y12.7390
G01 X-14.4815 Y12.7577
G01 X-14.5023 Y12.7785
G01 X-14.5119 Y12.7897
G01 X-14.5294 Y12.8133
G01 X-14.5373 Y12.8258
G01 X-14.5512 Y12.8517
G01 X-14.5625 Y12.8789
G01 X-14.5671 Y12.8929
G01 X-14.5742 Y12.9215
G01 X-14.5786 Y12.9506
G01 X-14.5800 Y12.9800
G01 X-14.5800 Y15.3800
G01 X-14.5786 Y15.4094
G01 X-14.5768 Y15.4240
G01 X-14.5710 Y15.4529
G01 X-14.5671 Y15.4671
G01 X-14.5572 Y15.4948
G01 X-14.5446 Y15.5214
G01 X-14.5294 Y15.5467
G01 X-14.5119 Y15.5703
G01 X-14.5023 Y15.5815
G01 X-14.4815 Y15.6023
G01 X-14.4703 Y15.6119
G01 X-14.4587 Y15.6210
G01 X-14.4342 Y15.6373
G01 X-14.4083 Y15.6512
G01 X-14.3811 Y15.6625
G01 X-14.3671 Y15.6671
G01 X-14.3385 Y15.6742
G01 X-14.3094 Y15.6786
G01 X-14.2947 Y15.6796
G01 X-11.8653 Y15.6796
G01 X-11.8360 Y15.6768
G01 X-11.8071 Y15.6710
G01 X-11.7789 Y15.6625
G01 X-11.7517 Y15.6512
G01 X-11.7258 Y15.6373
G01 X-11.7133 Y15.6294
G01 X-11.6897 Y15.6119
G01 X-11.6679 Y15.5921
G01 X-11.6481 Y15.5703
G01 X-11.6390 Y15.5587
G01 X-11.6227 Y15.5342
G01 X-11.6088 Y15.5083
G01 X-11.5975 Y15.4811
G01 X-11.5929 Y15.4671
G01 X-11.5858 Y15.4385
G01 X-11.5814 Y15.4094
G01 X-11.5804 Y15.3947
G01 X-11.5800 Y12.9800
G01 X-11.5804 Y12.9653
G01 X-11.5832 Y12.9360
G01 X-11.5858 Y12.9215
G01 X-11.5929 Y12.8929
G01 X-11.6028 Y12.8652
G01 X-11.6088 Y12.8517
G01 X-11.6227 Y12.8258
G01 X-11.6390 Y12.8013
G01 X-11.6577 Y12.7785
G01 X-11.6785 Y12.7577
G01 X-11.6897 Y12.7481
G01 X-11.7013 Y12.7390
G01 X-11.7258 Y12.7227
G01 X-11.7517 Y12.7088
G01 X-11.7789 Y12.6975
G01 X-11.8071 Y12.6890
G01 X-11.8360 Y12.6832
G01 X-11.8653 Y12.6804
G01 X-12.1447 Y12.6800
G01 X-12.1447 Y5.3200
G01 X-12.0653 Y5.3196
G01 X-12.0360 Y5.3168
G01 X-12.0071 Y5.3110
G01 X-11.9789 Y5.3025
G01 X-11.9517 Y5.2912
G01 X-11.9258 Y5.2773
G01 X-11.9013 Y5.2610
G01 X-11.8785 Y5.2423
G01 X-11.8577 Y5.2215
G01 X-11.8390 Y5.1987
G01 X-11.8227 Y5.1742
G01 X-11.8088 Y5.1483
G01 X-11.7975 Y5.1211
G01 X-11.7890 Y5.0929
G01 X-11.7832 Y5.0640
G01 X-11.7804 Y5.0347
G01 X-11.7800 Y5.0200
G01 X-11.7800 Y3.0200
G01 X-11.7804 Y3.0053
G01 X-11.7832 Y2.9760
G01 X-11.7890 Y2.9471
G01 X-11.7929 Y2.9329
G01 X-11.8028 Y2.9052
G01 X-11.8088 Y2.8917
G01 X-11.8154 Y2.8786
G01 X-11.8306 Y2.8533
G01 X-11.8481 Y2.8297
G01 X-11.8577 Y2.8185
G01 X-11.8785 Y2.7977
G01 X-11.9013 Y2.7790
G01 X-11.9258 Y2.7627
G01 X-11.9386 Y2.7554
G01 X-11.9517 Y2.7488
G01 X-11.9789 Y2.7375
G01 X-12.0071 Y2.7290
G01 X-12.0360 Y2.7232
G01 X-12.0653 Y2.7204
G01 X-14.0800 Y2.7200
G01 X-14.1094 Y2.7214
G01 X-14.1240 Y2.7232
G01 X-14.1385 Y2.7258
G01 X-14.1671 Y2.7329
G01 X-14.1811 Y2.7375
G01 X-14.2083 Y2.7488
G01 X-14.2342 Y2.7627
G01 X-14.2587 Y2.7790
G01 X-14.2703 Y2.7881
G01 X-14.2815 Y2.7977
G01 X-14.3023 Y2.8185
G01 X-14.3119 Y2.8297
G01 X-14.3294 Y2.8533
G01 X-14.3446 Y2.8786
G01 X-14.3572 Y2.9052
G01 X-14.3671 Y2.9329
G01 X-14.3710 Y2.9471
G01 X-14.3742 Y2.9615
G01 X-14.3786 Y2.9906
G01 X-14.3800 Y3.0200
G01 X-14.3800 Y3.6302
G01 X-14.3960 Y3.5820
G01 X-14.4190 Y3.5225
G01 X-14.4448 Y3.4642
G01 X-14.4735 Y3.4072
G01 X-14.5050 Y3.3517
G01 X-14.5391 Y3.2978
G01 X-14.5758 Y3.2456
G01 X-14.6105 Y3.2010
G01 X-14.6568 Y3.1470
G01 X-14.6956 Y3.1060
G01 X-14.7525 Y3.0519
G01 X-14.7953 Y3.0151
G01 X-14.8456 Y2.9758
G01 X-14.8978 Y2.9391
G01 X-14.9517 Y2.9050
G01 X-15.0072 Y2.8735
G01 X-15.0642 Y2.8448
G01 X-15.1225 Y2.8190
G01 X-15.1751 Y2.7986
G01 X-15.2497 Y2.7739
G01 X-15.3041 Y2.7590
G01 X-15.3736 Y2.7436
G01 X-15.4293 Y2.7341
G01 X-15.4926 Y2.7263
G01 X-15.5562 Y2.7216
G01 X-15.6200 Y2.7200
G01 X-15.6838 Y2.7216
G01 X-15.7474 Y2.7263
G01 X-15.8107 Y2.7341
G01 X-15.8664 Y2.7436
G01 X-15.9430 Y2.7608
G01 X-15.9974 Y2.7760
G01 X-16.0580 Y2.7960
G01 X-16.1243 Y2.8219
G01 X-16.1758 Y2.8448
G01 X-16.2328 Y2.8735
G01 X-16.2883 Y2.9050
G01 X-16.3361 Y2.9351
G01 X-16.3944 Y2.9758
G01 X-16.4503 Y3.0198
G01 X-16.4930 Y3.0568
G01 X-16.5392 Y3.1008
G01 X-16.5881 Y3.1525
G01 X-16.6249 Y3.1953
G01 X-16.6642 Y3.2456
G01 X-16.7049 Y3.3039
G01 X-16.7350 Y3.3517
G01 X-16.7665 Y3.4072
G01 X-16.7952 Y3.4642
G01 X-16.8181 Y3.5157
G01 X-16.8440 Y3.5820
G01 X-16.8661 Y3.6497
G01 X-16.8810 Y3.7041
G01 X-16.8900 Y3.7436
G01 X-16.8990 Y3.7041
G01 X-16.9160 Y3.6426
G01 X-16.9360 Y3.5820
G01 X-16.9590 Y3.5225
G01 X-16.9848 Y3.4642
G01 X-17.0135 Y3.4072
G01 X-17.0450 Y3.3517
G01 X-17.0791 Y3.2978
G01 X-17.1158 Y3.2456
G01 X-17.1551 Y3.1953
G01 X-17.1968 Y3.1470
G01 X-17.2408 Y3.1008
G01 X-17.2870 Y3.0568
G01 X-17.3353 Y3.0151
G01 X-17.3856 Y2.9758
G01 X-17.4317 Y2.9433
G01 X-17.4917 Y2.9050
G01 X-17.5472 Y2.8735
G01 X-17.6042 Y2.8448
G01 X-17.6557 Y2.8219
G01 X-17.7220 Y2.7960
G01 X-17.7756 Y2.7782
G01 X-17.8513 Y2.7573
G01 X-17.9064 Y2.7450
G01 X-17.9693 Y2.7341
G01 X-18.0326 Y2.7263
G01 X-18.0962 Y2.7216
G01 X-18.1600 Y2.7200
G01 X-18.2238 Y2.7216
G01 X-18.2874 Y2.7263
G01 X-18.3507 Y2.7341
G01 X-18.4208 Y2.7465
G01 X-18.4759 Y2.7590
G01 X-18.5374 Y2.7760
G01 X-18.5980 Y2.7960
G01 X-18.6507 Y2.8162
G01 X-18.7224 Y2.8480
G01 X-18.7728 Y2.8735
G01 X-18.8220 Y2.9012
G01 X-18.8883 Y2.9433
G01 X-18.9344 Y2.9758
G01 X-18.9847 Y3.0151
G01 X-19.0330 Y3.0568
G01 X-19.0740 Y3.0956
G01 X-19.1232 Y3.1470
G01 X-19.1649 Y3.1953
G01 X-19.2042 Y3.2456
G01 X-19.2409 Y3.2978
G01 X-19.2750 Y3.3517
G01 X-19.3065 Y3.4072
G01 X-19.3352 Y3.4642
G01 X-19.3610 Y3.5225
G01 X-19.3840 Y3.5820
G01 X-19.4040 Y3.6426
G01 X-19.4210 Y3.7041
G01 X-19.4350 Y3.7664
G01 X-19.4459 Y3.8293
G01 X-19.4537 Y3.8926
G01 X-19.4584 Y3.9562
G01 X-19.4595 Y3.9968
G01 X-19.6550 Y4.1923
G01 X-19.6893 Y4.0200
G01 X-19.5729 Y3.4348
G01 X-19.2414 Y2.9386
G01 X-18.7452 Y2.6071
G01 X-18.3077 Y2.5201
G01 X-18.0123 Y2.5201
G01 X-17.5748 Y2.6071
G01 X-17.1273 Y2.9061
G01 X-17.1096 Y2.9173
G01 X-17.0913 Y2.9276
G01 X-17.0726 Y2.9371
G01 X-17.0466 Y2.9483
G01 X-17.0210 Y2.9575
G01 X-16.9938 Y2.9653
G01 X-16.9733 Y2.9699
G01 X-16.9454 Y2.9744
G01 X-16.9183 Y2.9771
G01 X-16.8974 Y2.9780
G01 X-16.8690 Y2.9776
G01 X-16.8408 Y2.9752
G01 X-16.8139 Y2.9712
G01 X-16.7862 Y2.9653
G01 X-16.7590 Y2.9575
G01 X-16.7334 Y2.9483
G01 X-16.7074 Y2.9371
G01 X-16.6887 Y2.9276
G01 X-16.6704 Y2.9173
G01 X-16.6527 Y2.9061
G01 X-16.2052 Y2.6071
G01 X-15.7677 Y2.5201
G01 X-15.4723 Y2.5201
G01 X-15.0348 Y2.6071
G01 X-14.9179 Y2.6846
G01 X-14.8875 Y2.7011
G01 X-14.8618 Y2.7128
G01 X-14.8422 Y2.7204
G01 X-14.8223 Y2.7269
G01 X-14.7888 Y2.7356
G01 X-14.7683 Y2.7395
G01 X-14.7475 Y2.7425
G01 X-14.7119 Y2.7451
G01 X-14.6910 Y2.7452
G01 X-14.6638 Y2.7439
G01 X-14.6357 Y2.7407
G01 X-14.6150 Y2.7371
G01 X-14.5946 Y2.7325
G01 X-14.5673 Y2.7247
G01 X-14.5476 Y2.7178
G01 X-14.5224 Y2.7074
G01 X-14.4970 Y2.6949
G01 X-14.4672 Y2.6774
G01 X-14.2751 Y2.5491
G01 X-14.0379 Y2.5019
G01 X-12.1221 Y2.5019
G01 X-11.8849 Y2.5491
G01 X-11.7196 Y2.6596
G01 X-11.6091 Y2.8249
G01 X-11.5619 Y3.0621
G01 X-11.5619 Y4.9779
G01 X-11.6091 Y5.2151
G01 X-11.7196 Y5.3804
G01 X-11.7724 Y5.4164
G01 X-11.7889 Y5.4293
G01 X-11.8102 Y5.4480
G01 X-11.8294 Y5.4672
G01 X-11.8481 Y5.4885
G01 X-11.8610 Y5.5050
G01 X-11.8771 Y5.5283
G01 X-11.8911 Y5.5516
G01 X-11.9041 Y5.5768
G01 X-11.9153 Y5.6028
G01 X-11.9245 Y5.6284
G01 X-11.9323 Y5.6556
G01 X-11.9382 Y5.6833
G01 X-11.9422 Y5.7102
G01 X-11.9446 Y5.7384
G01 X-11.9451 Y5.7594
G01 X-11.9450 Y12.1107
G01 X-11.9430 Y12.1488
G01 X-11.9382 Y12.1831
G01 X-11.9304 Y12.2179
G01 X-11.9201 Y12.2509
G01 X-11.9071 Y12.2829
G01 X-11.8911 Y12.3148
G01 X-11.8731 Y12.3443
G01 X-11.8527 Y12.3722
G01 X-11.8344 Y12.3938
G01 X-11.8147 Y12.4141
G01 X-11.7946 Y12.4324
G01 X-11.7724 Y12.4500
G01 X-11.5196 Y12.6196
G01 X-11.4091 Y12.7849
G01 X-11.3619 Y13.0221
G01 X-11.3619 Y15.3379
G01 X-11.4091 Y15.5751
G01 X-11.5196 Y15.7404
G01 X-11.6849 Y15.8509
G01 X-11.9221 Y15.8981
G01 X-14.2379 Y15.8981
G01 X-14.4751 Y15.8509
G01 X-14.6404 Y15.7404
G01 X-14.8024 Y15.4990
G01 X-14.8200 Y15.4769
G01 X-14.8434 Y15.4514
G01 X-14.8641 Y15.4321
G01 X-14.8851 Y15.4149
G01 X-14.9143 Y15.3943
G01 X-14.9441 Y15.3768
G01 X-14.9628 Y15.3674
G01 X-14.9820 Y15.3589
G01 X-15.0144 Y15.3470
G01 X-15.0488 Y15.3374
G01 X-15.0827 Y15.3310
G01 X-15.1035 Y15.3284
G01 X-15.1244 Y15.3269
G01 X-15.1590 Y15.3266
G01 X-15.1872 Y15.3284
G01 X-15.2153 Y15.3321
G01 X-15.2420 Y15.3374
G01 X-15.2694 Y15.3447
G01 X-15.2962 Y15.3539
G01 X-15.3280 Y15.3674
G01 X-15.3532 Y15.3803
G01 X-15.3765 Y15.3943
G01 X-15.4056 Y15.4149
G01 X-15.4219 Y15.4280
G01 X-15.4376 Y15.4420
G01 X-15.6171 Y15.6211
G01 X-16.2419 Y15.8799
G01 X-16.9181 Y15.8799
G01 X-17.5429 Y15.6211
G01 X-18.0280 Y15.1361
G01 X-18.0487 Y15.1167
G01 X-18.0697 Y15.0995
G01 X-18.0989 Y15.0789
G01 X-18.1287 Y15.0614
G01 X-18.1598 Y15.0464
G01 X-18.1931 Y15.0335
G01 X-18.2262 Y15.0238
G01 X-18.2467 Y15.0192
G01 X-18.2673 Y15.0156
G01 X-18.3017 Y15.0119
G01 X-18.3374 Y15.0111
G01 X-18.3719 Y15.0130
G01 X-18.4061 Y15.0178
G01 X-18.4409 Y15.0256
G01 X-18.4739 Y15.0359
G01 X-18.5059 Y15.0489
G01 X-18.5378 Y15.0649
G01 X-18.5673 Y15.0829
G01 X-18.5952 Y15.1033
G01 X-18.6168 Y15.1216
G01 X-18.6320 Y15.1361
G01 X-19.1171 Y15.6211
G01 X-19.7419 Y15.8799
G01 X-20.4181 Y15.8799
G01 X-21.0429 Y15.6211
G01 X-21.5280 Y15.1361
G01 X-21.5503 Y15.1153
G00 Z1.0000
G00 X-28.2805 Y13.2807
G01 F76.20
G01 Z-0.2000
G01 F200.00
G01 X-28.2805 Y5.5184
G01 X-28.3085 Y5.5142
G01 X-28.3371 Y5.5071
G01 X-28.3648 Y5.4972
G01 X-28.3783 Y5.4912
G01 X-28.4042 Y5.4773
G01 X-28.4287 Y5.4610
G01 X-28.4403 Y5.4519
G01 X-28.4621 Y5.4321
G01 X-28.4819 Y5.4103
G01 X-28.4994 Y5.3867
G01 X-28.5146 Y5.3614
G01 X-28.5212 Y5.3483
G01 X-28.5325 Y5.3211
G01 X-28.5410 Y5.2929
G01 X-28.5468 Y5.2640
G01 X-28.5486 Y5.2494
G01 X-28.5500 Y5.2200
G01 X-28.5500 Y2.8200
G01 X-28.5486 Y2.7906
G01 X-28.5468 Y2.7760
G01 X-28.5410 Y2.7471
G01 X-28.5325 Y2.7189
G01 X-28.5272 Y2.7052
G01 X-28.5146 Y2.6786
G01 X-28.4994 Y2.6533
G01 X-28.4819 Y2.6297
G01 X-28.4723 Y2.6185
G01 X-28.4621 Y2.6079
G01 X-28.4403 Y2.5881
G01 X-28.4287 Y2.5790
G01 X-28.4042 Y2.5627
G01 X-28.3783 Y2.5488
G01 X-28.3648 Y2.5428
G01 X-28.3371 Y2.5329
G01 X-28.3229 Y2.5290
G01 X-28.3085 Y2.5258
G01 X-28.2794 Y2.5214
G01 X-28.2500 Y2.5200
G01 X-25.8500 Y2.5200
G01 X-25.8206 Y2.5214
G01 X-25.8060 Y2.5232
G01 X-25.7771 Y2.5290
G01 X-25.7629 Y2.5329
G01 X-25.7352 Y2.5428
G01 X-25.7217 Y2.5488
G01 X-25.6958 Y2.5627
G01 X-25.6713 Y2.5790
G01 X-25.6597 Y2.5881
G01 X-25.6379 Y2.6079
G01 X-25.6181 Y2.6297
G01 X-25.6006 Y2.6533
G01 X-25.5927 Y2.6658
G01 X-25.5854 Y2.6786
G01 X-25.5728 Y2.7052
G01 X-25.5675 Y2.7189
G01 X-25.5590 Y2.7471
G01 X-25.5558 Y2.7615
G01 X-25.5514 Y2.7906
G01 X-25.5500 Y2.8200
G01 X-25.5500 Y5.2200
G01 X-25.5514 Y5.2494
G01 X-25.5558 Y5.2785
G01 X-25.5629 Y5.3071
G01 X-25.5728 Y5.3348
G01 X-25.5854 Y5.3614
G01 X-25.6006 Y5.3867
G01 X-25.6181 Y5.4103
G01 X-25.6379 Y5.4321
G01 X-25.6485 Y5.4423
G01 X-25.6713 Y5.4610
G01 X-25.6958 Y5.4773
G01 X-25.7217 Y5.4912
G01 X-25.7489 Y5.5025
G01 X-25.7771 Y5.5110
G01 X-25.8060 Y5.5168
G01 X-25.8353 Y5.5196
G01 X-25.8795 Y5.5200
G01 X-25.8795 Y13.2807
G01 X-25.8288 Y13.3528
G01 X-25.7934 Y13.4088
G01 X-25.7571 Y13.4729
G01 X-25.7240 Y13.5387
G01 X-25.6971 Y13.5992
G01 X-25.6653 Y13.6816
G01 X-25.6446 Y13.7446
G01 X-25.6250 Y13.8155
G01 X-25.6088 Y13.8874
G01 X-25.5974 Y13.9526
G01 X-25.5866 Y14.0403
G01 X-25.5818 Y14.1064
G01 X-25.5800 Y14.1800
G01 X-25.5818 Y14.2536
G01 X-25.5866 Y14.3197
G01 X-25.5974 Y14.4074
G01 X-25.6088 Y14.4726
G01 X-25.6250 Y14.5445
G01 X-25.6446 Y14.6154
G01 X-25.6653 Y14.6784
G01 X-25.6971 Y14.7608
G01 X-25.7240 Y14.8213
G01 X-25.7571 Y14.8871
G01 X-25.7934 Y14.9512
G01 X-25.8288 Y15.0072
G01 X-25.8752 Y15.0735
G01 X-25.9205 Y15.1316
G01 X-25.9686 Y15.1873
G01 X-26.0193 Y15.2407
G01 X-26.0727 Y15.2914
G01 X-26.1284 Y15.3395
G01 X-26.1865 Y15.3848
G01 X-26.2466 Y15.4272
G01 X-26.3088 Y15.4666
G01 X-26.3729 Y15.5029
G01 X-26.4387 Y15.5360
G01 X-26.5060 Y15.5658
G01 X-26.5747 Y15.5923
G01 X-26.6446 Y15.6154
G01 X-26.7155 Y15.6350
G01 X-26.7874 Y15.6512
G01 X-26.8599 Y15.6638
G01 X-26.9330 Y15.6728
G01 X-27.0064 Y15.6782
G01 X-27.0800 Y15.6800
G01 X-27.1536 Y15.6782
G01 X-27.2270 Y15.6728
G01 X-27.3001 Y15.6638
G01 X-27.3726 Y15.6512
G01 X-27.4445 Y15.6350
G01 X-27.5154 Y15.6154
G01 X-27.5853 Y15.5923
G01 X-27.6540 Y15.5658
G01 X-27.7213 Y15.5360
G01 X-27.7871 Y15.5029
G01 X-27.8512 Y15.4666
G01 X-27.9134 Y15.4272
G01 X-27.9735 Y15.3848
G01 X-28.0316 Y15.3395
G01 X-28.0873 Y15.2914
G01 X-28.1407 Y15.2407
G01 X-28.1914 Y15.1873
G01 X-28.2395 Y15.1316
G01 X-28.2848 Y15.0735
G01 X-28.3272 Y15.0134
G01 X-28.3666 Y14.9512
G01 X-28.4029 Y14.8871
G01 X-28.4360 Y14.8213
G01 X-28.4658 Y14.7540
G01 X-28.4923 Y14.6853
G01 X-28.5154 Y14.6154
G01 X-28.5350 Y14.5445
G01 X-28.5512 Y14.4726
G01 X-28.5638 Y14.4001
G01 X-28.5728 Y14.3270
G01 X-28.5782 Y14.2536
G01 X-28.5800 Y14.1837
G01 X-28.5782 Y14.1064
G01 X-28.5728 Y14.0330
G01 X-28.5638 Y13.9599
G01 X-28.5512 Y13.8874
G01 X-28.5350 Y13.8155
G01 X-28.5154 Y13.7446
G01 X-28.4923 Y13.6747
G01 X-28.4658 Y13.6060
G01 X-28.4360 Y13.5387
G01 X-28.4029 Y13.4729
G01 X-28.3666 Y13.4088
G01 X-28.3272 Y13.3466
G01 X-28.2805 Y13.2807
G00 Z1.0000
G00 X-31.7805 Y13.2807
G01 F76.20
G01 Z-0.2000
G01 F200.00
G01 X-31.7805 Y4.8773
G01 X-31.8012 Y4.8472
G01 X-31.8403 Y4.7848
G01 X-31.8729 Y4.7271
G01 X-31.9091 Y4.6546
G01 X-31.9358 Y4.5940
G01 X-31.9623 Y4.5253
G01 X-31.9854 Y4.4554
G01 X-32.0050 Y4.3845
G01 X-32.0212 Y4.3126
G01 X-32.0338 Y4.2401
G01 X-32.0428 Y4.1670
G01 X-32.0482 Y4.0936
G01 X-32.0500 Y4.0237
G01 X-32.0482 Y3.9464
G01 X-32.0428 Y3.8730
G01 X-32.0348 Y3.8072
G01 X-32.0212 Y3.7274
G01 X-32.0050 Y3.6555
G01 X-31.9854 Y3.5846
G01 X-31.9623 Y3.5147
G01 X-31.9358 Y3.4460
G01 X-31.9060 Y3.3787
G01 X-31.8729 Y3.3129
G01 X-31.8366 Y3.2488
G01 X-31.7972 Y3.1866
G01 X-31.7548 Y3.1265
G01 X-31.7095 Y3.0684
G01 X-31.6614 Y3.0127
G01 X-31.6107 Y2.9593
G01 X-31.5573 Y2.9086
G01 X-31.5016 Y2.8605
G01 X-31.4435 Y2.8152
G01 X-31.3834 Y2.7728
G01 X-31.3212 Y2.7334
G01 X-31.2571 Y2.6971
G01 X-31.1913 Y2.6640
G01 X-31.1240 Y2.6342
G01 X-31.0553 Y2.6077
G01 X-30.9854 Y2.5846
G01 X-30.9145 Y2.5650
G01 X-30.8426 Y2.5488
G01 X-30.7701 Y2.5362
G01 X-30.6970 Y2.5272
G01 X-30.6236 Y2.5218
G01 X-30.5500 Y2.5200
G01 X-30.4764 Y2.5218
G01 X-30.4030 Y2.5272
G01 X-30.3372 Y2.5352
G01 X-30.2502 Y2.5503
G01 X-30.1855 Y2.5650
G01 X-30.1076 Y2.5868
G01 X-30.0447 Y2.6077
G01 X-29.9760 Y2.6342
G01 X-29.9087 Y2.6640
G01 X-29.8494 Y2.6937
G01 X-29.7726 Y2.7373
G01 X-29.7166 Y2.7728
G01 X-29.6565 Y2.8152
G01 X-29.5984 Y2.8605
G01 X-29.5482 Y2.9037
G01 X-29.4842 Y2.9646
G01 X-29.4386 Y3.0127
G01 X-29.3905 Y3.0684
G01 X-29.3452 Y3.1265
G01 X-29.3070 Y3.1806
G01 X-29.2597 Y3.2552
G01 X-29.2271 Y3.3129
G01 X-29.1940 Y3.3787
G01 X-29.1642 Y3.4460
G01 X-29.1377 Y3.5147
G01 X-29.1146 Y3.5846
G01 X-29.0968 Y3.6484
G01 X-29.0775 Y3.7346
G01 X-29.0662 Y3.7999
G01 X-29.0566 Y3.8803
G01 X-29.0518 Y3.9464
G01 X-29.0500 Y4.0200
G01 X-29.0518 Y4.0936
G01 X-29.0572 Y4.1670
G01 X-29.0662 Y4.2401
G01 X-29.0788 Y4.3126
G01 X-29.0950 Y4.3845
G01 X-29.1146 Y4.4554
G01 X-29.1377 Y4.5253
G01 X-29.1642 Y4.5940
G01 X-29.1940 Y4.6613
G01 X-29.2271 Y4.7271
G01 X-29.2634 Y4.7912
G01 X-29.3028 Y4.8534
G01 X-29.3452 Y4.9135
G01 X-29.3795 Y4.9577
G01 X-29.3795 Y13.2807
G01 X-29.3288 Y13.3528
G01 X-29.2934 Y13.4088
G01 X-29.2571 Y13.4729
G01 X-29.2240 Y13.5387
G01 X-29.1971 Y13.5992
G01 X-29.1653 Y13.6816
G01 X-29.1446 Y13.7446
G01 X-29.1250 Y13.8155
G01 X-29.1088 Y13.8874
G01 X-29.0974 Y13.9526
G01 X-29.0866 Y14.0403
G01 X-29.0818 Y14.1064
G01 X-29.0800 Y14.1800
G01 X-29.0818 Y14.2536
G01 X-29.0866 Y14.3197
G01 X-29.0974 Y14.4074
G01 X-29.1088 Y14.4726
G01 X-29.1250 Y14.5445
G01 X-29.1446 Y14.6154
G01 X-29.1653 Y14.6784
G01 X-29.1971 Y14.7608
G01 X-29.2240 Y14.8213
G01 X-29.2571 Y14.8871
G01 X-29.2934 Y14.9512
G01 X-29.3288 Y15.0072
G01 X-29.3752 Y15.0735
G01 X-29.4205 Y15.1316
G01 X-29.4686 Y15.1873
G01 X-29.5193 Y15.2407
G01 X-29.5727 Y15.2914
G01 X-29.6284 Y15.3395
G01 X-29.6865 Y15.3848
G01 X-29.7466 Y15.4272
G01 X-29.8088 Y15.4666
G01 X-29.8729 Y15.5029
G01 X-29.9387 Y15.5360
G01 X-30.0060 Y15.5658
G01 X-30.0747 Y15.5923
G01 X-30.1446 Y15.6154
G01 X-30.2155 Y15.6350
G01 X-30.2874 Y15.6512
G01 X-30.3599 Y15.6638
G01 X-30.4330 Y15.6728
G01 X-30.5064 Y15.6782
G01 X-30.5800 Y15.6800
G01 X-30.6536 Y15.6782
G01 X-30.7270 Y15.6728
G01 X-30.8001 Y15.6638
G01 X-30.8726 Y15.6512
G01 X-30.9445 Y15.6350
G01 X-31.0154 Y15.6154
G01 X-31.0853 Y15.5923
G01 X-31.1540 Y15.5658
G01 X-31.2213 Y15.5360
G01 X-31.2871 Y15.5029
G01 X-31.3512 Y15.4666
G01 X-31.4134 Y15.4272
G01 X-31.4735 Y15.3848
G01 X-31.5316 Y15.3395
G01 X-31.5873 Y15.2914
G01 X-31.6407 Y15.2407
G01 X-31.6914 Y15.1873
G01 X-31.7395 Y15.1316
G01 X-31.7848 Y15.0735
G01 X-31.8272 Y15.0134
G01 X-31.8666 Y14.9512
G01 X-31.9029 Y14.8871
G01 X-31.9360 Y14.8213
G01 X-31.9658 Y14.7540
G01 X-31.9923 Y14.6853
G01 X-32.0154 Y14.6154
G01 X-32.0350 Y14.5445
G01 X-32.0512 Y14.4726
G01 X-32.0638 Y14.4001
G01 X-32.0728 Y14.3270
G01 X-32.0782 Y14.2536
G01 X-32.0800 Y14.1837
G01 X-32.0782 Y14.1064
G01 X-32.0728 Y14.0330
G01 X-32.0638 Y13.9599
G01 X-32.0512 Y13.8874
G01 X-32.0350 Y13.8155
G01 X-32.0154 Y13.7446
G01 X-31.9923 Y13.6747
G01 X-31.9658 Y13.6060
G01 X-31.9360 Y13.5387
G01 X-31.9029 Y13.4729
G01 X-31.8666 Y13.4088
G01 X-31.8272 Y13.3466
G01 X-31.7805 Y13.2807
G00 Z1.0000
M05
G00 Z1.0000
G00 Z30.00
G00 X0.0 Y0.0

