(G-CODE GENERATED BY FLATCAM v8.99 - www.flatcam.org - Version Date: 2019/12/15)

(Name: cut_vmc_cutout_cnc)
(Type: G-code from Geometry)
(Units: MM)

(Created on Sunday, 26 January 2020 at 15:44)

(TOOL DIAMETER: 1.0 mm)
(Feedrate: 200.0 mm/min)
(Feedrate_Z: 76.2 mm/min)
(Feedrate rapids 76.2 mm/min)

(Z_Cut: -1.8 mm)
(DepthPerCut: 0.6 mm <=>3 passes)
(Z_Move: 1.0 mm)
(Z Toolchange: 12.7 mm)
(X,Y Toolchange: 0.0000, 0.0000 mm)
(Z Start: None mm)
(Z End: 30.0 mm)
(Steps per circle: 128)
(Preprocessor Geometry: default)

(X range:  -33.5750 ...    0.5750  mm)
(Y range:   -0.5750 ...   18.5750  mm)

(Spindle Speed: 12000 RPM)
G21
G90
G94




G01 F200.00
G00 Z1.0000

M03 S12000
G00 X0.5750 Y9.0000
G01 F76.20
G01 Z-0.6000
G01 F200.00
G01 X0.5750 Y3.9928
G01 X0.5733 Y3.9555
G01 X0.5701 Y3.9247
G01 X0.5640 Y3.8878
G01 X0.5560 Y3.8533
G01 X0.5453 Y3.8175
G01 X0.5347 Y3.7884
G01 X0.5198 Y3.7541
G01 X0.5037 Y3.7226
G01 X0.4895 Y3.6982
G01 X0.4741 Y3.6746
G01 X0.4576 Y3.6517
G01 X0.4399 Y3.6297
G01 X0.4212 Y3.6085
G01 X0.4015 Y3.5883
G01 X0.3808 Y3.5691
G01 X0.3617 Y3.5529
G01 X-4.6408 Y-0.4490
G01 X-4.6707 Y-0.4714
G01 X-4.7044 Y-0.4932
G01 X-4.7353 Y-0.5105
G01 X-4.7690 Y-0.5266
G01 X-4.8063 Y-0.5414
G01 X-4.8400 Y-0.5523
G01 X-4.8762 Y-0.5615
G01 X-4.9156 Y-0.5688
G01 X-4.9508 Y-0.5729
G01 X-4.9939 Y-0.5750
G01 X-15.5000 Y-0.5750
G00 X-15.5000 Y-0.5750
G01 F76.20
G01 Z-1.2000
G01 F200.00
G01 X-4.9939 Y-0.5750
G01 X-4.9508 Y-0.5729
G01 X-4.9156 Y-0.5688
G01 X-4.8762 Y-0.5615
G01 X-4.8400 Y-0.5523
G01 X-4.8063 Y-0.5414
G01 X-4.7690 Y-0.5266
G01 X-4.7353 Y-0.5105
G01 X-4.7044 Y-0.4932
G01 X-4.6707 Y-0.4714
G01 X-4.6408 Y-0.4490
G01 X0.3617 Y3.5529
G01 X0.3808 Y3.5691
G01 X0.4015 Y3.5883
G01 X0.4212 Y3.6085
G01 X0.4399 Y3.6297
G01 X0.4576 Y3.6517
G01 X0.4741 Y3.6746
G01 X0.4895 Y3.6982
G01 X0.5037 Y3.7226
G01 X0.5198 Y3.7541
G01 X0.5347 Y3.7884
G01 X0.5453 Y3.8175
G01 X0.5560 Y3.8533
G01 X0.5640 Y3.8878
G01 X0.5701 Y3.9247
G01 X0.5733 Y3.9555
G01 X0.5750 Y3.9928
G01 X0.5750 Y9.0000
G00 X0.5750 Y9.0000
G01 F76.20
G01 Z-1.8000
G01 F200.00
G01 X0.5750 Y3.9928
G01 X0.5733 Y3.9555
G01 X0.5701 Y3.9247
G01 X0.5640 Y3.8878
G01 X0.5560 Y3.8533
G01 X0.5453 Y3.8175
G01 X0.5347 Y3.7884
G01 X0.5198 Y3.7541
G01 X0.5037 Y3.7226
G01 X0.4895 Y3.6982
G01 X0.4741 Y3.6746
G01 X0.4576 Y3.6517
G01 X0.4399 Y3.6297
G01 X0.4212 Y3.6085
G01 X0.4015 Y3.5883
G01 X0.3808 Y3.5691
G01 X0.3617 Y3.5529
G01 X-4.6408 Y-0.4490
G01 X-4.6707 Y-0.4714
G01 X-4.7044 Y-0.4932
G01 X-4.7353 Y-0.5105
G01 X-4.7690 Y-0.5266
G01 X-4.8063 Y-0.5414
G01 X-4.8400 Y-0.5523
G01 X-4.8762 Y-0.5615
G01 X-4.9156 Y-0.5688
G01 X-4.9508 Y-0.5729
G01 X-4.9939 Y-0.5750
G01 X-15.5000 Y-0.5750
G00 Z1.0000
G00 X-17.5000 Y-0.5750
G01 F76.20
G01 Z-0.6000
G01 F200.00
G01 X-33.0160 Y-0.5748
G01 X-33.0441 Y-0.5733
G01 X-33.0722 Y-0.5705
G01 X-33.1001 Y-0.5662
G01 X-33.1242 Y-0.5614
G01 X-33.1516 Y-0.5547
G01 X-33.1786 Y-0.5466
G01 X-33.2052 Y-0.5371
G01 X-33.2313 Y-0.5264
G01 X-33.2569 Y-0.5144
G01 X-33.2818 Y-0.5012
G01 X-33.3061 Y-0.4868
G01 X-33.3296 Y-0.4712
G01 X-33.3523 Y-0.4544
G01 X-33.3742 Y-0.4366
G01 X-33.3952 Y-0.4177
G01 X-33.4152 Y-0.3978
G01 X-33.4445 Y-0.3648
G01 X-33.4619 Y-0.3425
G01 X-33.4781 Y-0.3195
G01 X-33.4932 Y-0.2956
G01 X-33.5071 Y-0.2711
G01 X-33.5198 Y-0.2459
G01 X-33.5313 Y-0.2201
G01 X-33.5414 Y-0.1937
G01 X-33.5503 Y-0.1669
G01 X-33.5578 Y-0.1397
G01 X-33.5640 Y-0.1122
G01 X-33.5688 Y-0.0844
G01 X-33.5723 Y-0.0564
G01 X-33.5743 Y-0.0282
G01 X-33.5750 Y0.0000
G01 X-33.5750 Y18.0061
G01 X-33.5743 Y18.0282
G01 X-33.5723 Y18.0564
G01 X-33.5688 Y18.0844
G01 X-33.5640 Y18.1122
G01 X-33.5537 Y18.1551
G01 X-33.5454 Y18.1821
G01 X-33.5371 Y18.2052
G01 X-33.5198 Y18.2459
G01 X-33.5071 Y18.2711
G01 X-33.4932 Y18.2956
G01 X-33.4781 Y18.3195
G01 X-33.4619 Y18.3426
G01 X-33.4342 Y18.3770
G01 X-33.4066 Y18.4066
G01 X-33.3862 Y18.4261
G01 X-33.3648 Y18.4445
G01 X-33.3426 Y18.4619
G01 X-33.3195 Y18.4781
G01 X-33.2956 Y18.4932
G01 X-33.2711 Y18.5071
G01 X-33.2459 Y18.5198
G01 X-33.2201 Y18.5313
G01 X-33.1937 Y18.5414
G01 X-33.1669 Y18.5503
G01 X-33.1278 Y18.5606
G01 X-33.0965 Y18.5669
G01 X-33.0686 Y18.5709
G01 X-33.0405 Y18.5736
G01 X-33.0061 Y18.5750
G01 X-17.5000 Y18.5750
G00 X-17.5000 Y18.5750
G01 F76.20
G01 Z-1.2000
G01 F200.00
G01 X-33.0160 Y18.5748
G01 X-33.0441 Y18.5733
G01 X-33.0722 Y18.5705
G01 X-33.1001 Y18.5662
G01 X-33.1278 Y18.5606
G01 X-33.1551 Y18.5537
G01 X-33.1821 Y18.5454
G01 X-33.2087 Y18.5358
G01 X-33.2347 Y18.5249
G01 X-33.2602 Y18.5128
G01 X-33.2850 Y18.4994
G01 X-33.3092 Y18.4848
G01 X-33.3326 Y18.4691
G01 X-33.3523 Y18.4544
G01 X-33.3742 Y18.4366
G01 X-33.3952 Y18.4177
G01 X-33.4152 Y18.3978
G01 X-33.4445 Y18.3648
G01 X-33.4619 Y18.3426
G01 X-33.4781 Y18.3195
G01 X-33.4932 Y18.2956
G01 X-33.5071 Y18.2711
G01 X-33.5198 Y18.2459
G01 X-33.5313 Y18.2200
G01 X-33.5414 Y18.1937
G01 X-33.5503 Y18.1669
G01 X-33.5578 Y18.1397
G01 X-33.5640 Y18.1122
G01 X-33.5688 Y18.0844
G01 X-33.5723 Y18.0564
G01 X-33.5743 Y18.0282
G01 X-33.5750 Y18.0000
G01 X-33.5750 Y-0.0061
G01 X-33.5743 Y-0.0282
G01 X-33.5723 Y-0.0564
G01 X-33.5688 Y-0.0844
G01 X-33.5640 Y-0.1122
G01 X-33.5537 Y-0.1551
G01 X-33.5454 Y-0.1821
G01 X-33.5371 Y-0.2052
G01 X-33.5198 Y-0.2459
G01 X-33.5071 Y-0.2711
G01 X-33.4932 Y-0.2956
G01 X-33.4781 Y-0.3195
G01 X-33.4619 Y-0.3425
G01 X-33.4342 Y-0.3770
G01 X-33.4066 Y-0.4066
G01 X-33.3862 Y-0.4261
G01 X-33.3648 Y-0.4445
G01 X-33.3425 Y-0.4619
G01 X-33.3195 Y-0.4781
G01 X-33.2956 Y-0.4932
G01 X-33.2711 Y-0.5071
G01 X-33.2459 Y-0.5198
G01 X-33.2201 Y-0.5313
G01 X-33.1937 Y-0.5414
G01 X-33.1669 Y-0.5503
G01 X-33.1278 Y-0.5606
G01 X-33.1001 Y-0.5662
G01 X-33.0686 Y-0.5709
G01 X-33.0405 Y-0.5736
G01 X-33.0061 Y-0.5750
G01 X-17.5000 Y-0.5750
G00 X-17.5000 Y-0.5750
G01 F76.20
G01 Z-1.8000
G01 F200.00
G01 X-33.0160 Y-0.5748
G01 X-33.0441 Y-0.5733
G01 X-33.0722 Y-0.5705
G01 X-33.1001 Y-0.5662
G01 X-33.1242 Y-0.5614
G01 X-33.1516 Y-0.5547
G01 X-33.1786 Y-0.5466
G01 X-33.2052 Y-0.5371
G01 X-33.2313 Y-0.5264
G01 X-33.2569 Y-0.5144
G01 X-33.2818 Y-0.5012
G01 X-33.3061 Y-0.4868
G01 X-33.3296 Y-0.4712
G01 X-33.3523 Y-0.4544
G01 X-33.3742 Y-0.4366
G01 X-33.3952 Y-0.4177
G01 X-33.4152 Y-0.3978
G01 X-33.4445 Y-0.3648
G01 X-33.4619 Y-0.3425
G01 X-33.4781 Y-0.3195
G01 X-33.4932 Y-0.2956
G01 X-33.5071 Y-0.2711
G01 X-33.5198 Y-0.2459
G01 X-33.5313 Y-0.2201
G01 X-33.5414 Y-0.1937
G01 X-33.5503 Y-0.1669
G01 X-33.5578 Y-0.1397
G01 X-33.5640 Y-0.1122
G01 X-33.5688 Y-0.0844
G01 X-33.5723 Y-0.0564
G01 X-33.5743 Y-0.0282
G01 X-33.5750 Y0.0000
G01 X-33.5750 Y18.0061
G01 X-33.5743 Y18.0282
G01 X-33.5723 Y18.0564
G01 X-33.5688 Y18.0844
G01 X-33.5640 Y18.1122
G01 X-33.5537 Y18.1551
G01 X-33.5454 Y18.1821
G01 X-33.5371 Y18.2052
G01 X-33.5198 Y18.2459
G01 X-33.5071 Y18.2711
G01 X-33.4932 Y18.2956
G01 X-33.4781 Y18.3195
G01 X-33.4619 Y18.3426
G01 X-33.4342 Y18.3770
G01 X-33.4066 Y18.4066
G01 X-33.3862 Y18.4261
G01 X-33.3648 Y18.4445
G01 X-33.3426 Y18.4619
G01 X-33.3195 Y18.4781
G01 X-33.2956 Y18.4932
G01 X-33.2711 Y18.5071
G01 X-33.2459 Y18.5198
G01 X-33.2201 Y18.5313
G01 X-33.1937 Y18.5414
G01 X-33.1669 Y18.5503
G01 X-33.1278 Y18.5606
G01 X-33.0965 Y18.5669
G01 X-33.0686 Y18.5709
G01 X-33.0405 Y18.5736
G01 X-33.0061 Y18.5750
G01 X-17.5000 Y18.5750
G00 Z1.0000
G00 X-15.5000 Y18.5750
G01 F76.20
G01 Z-0.6000
G01 F200.00
G01 X-0.0000 Y18.5750
G01 X0.0405 Y18.5736
G01 X0.0844 Y18.5688
G01 X0.1242 Y18.5614
G01 X0.1551 Y18.5537
G01 X0.1937 Y18.5414
G01 X0.2313 Y18.5264
G01 X0.2602 Y18.5128
G01 X0.2956 Y18.4932
G01 X0.3195 Y18.4781
G01 X0.3523 Y18.4544
G01 X0.3770 Y18.4342
G01 X0.4066 Y18.4066
G01 X0.4261 Y18.3862
G01 X0.4522 Y18.3552
G01 X0.4712 Y18.3296
G01 X0.4932 Y18.2956
G01 X0.5071 Y18.2711
G01 X0.5249 Y18.2347
G01 X0.5371 Y18.2052
G01 X0.5503 Y18.1669
G01 X0.5606 Y18.1278
G01 X0.5669 Y18.0965
G01 X0.5723 Y18.0564
G01 X0.5748 Y18.0160
G01 X0.5750 Y11.0000
G01 X0.5736 Y10.9595
G01 X0.5688 Y10.9156
G01 X0.5614 Y10.8758
G01 X0.5503 Y10.8331
G01 X0.5371 Y10.7948
G01 X0.5198 Y10.7541
G01 X0.5012 Y10.7182
G01 X0.4848 Y10.6908
G01 X0.4619 Y10.6575
G01 X0.4342 Y10.6230
G01 X0.4066 Y10.5934
G01 X0.3770 Y10.5658
G01 X0.3523 Y10.5456
G01 X0.3195 Y10.5219
G01 X0.2850 Y10.5006
G01 X0.2459 Y10.4802
G01 X0.2087 Y10.4642
G01 X0.1669 Y10.4497
G01 X0.1278 Y10.4394
G01 X0.0844 Y10.4312
G01 X0.0441 Y10.4267
G01 X0.0000 Y10.4250
G01 X-2.4250 Y10.4250
G01 X-2.4250 Y9.5750
G01 X-0.0000 Y9.5750
G01 X0.0282 Y9.5743
G01 X0.0564 Y9.5723
G01 X0.0844 Y9.5688
G01 X0.1122 Y9.5640
G01 X0.1397 Y9.5578
G01 X0.1669 Y9.5503
G01 X0.2087 Y9.5358
G01 X0.2347 Y9.5249
G01 X0.2569 Y9.5144
G01 X0.2956 Y9.4932
G01 X0.3326 Y9.4691
G01 X0.3552 Y9.4522
G01 X0.3742 Y9.4366
G01 X0.4066 Y9.4066
G01 X0.4261 Y9.3862
G01 X0.4445 Y9.3648
G01 X0.4619 Y9.3425
G01 X0.4781 Y9.3195
G01 X0.5012 Y9.2818
G01 X0.5144 Y9.2569
G01 X0.5249 Y9.2347
G01 X0.5414 Y9.1937
G01 X0.5503 Y9.1669
G01 X0.5578 Y9.1397
G01 X0.5669 Y9.0965
G01 X0.5705 Y9.0722
G01 X0.5733 Y9.0441
G01 X0.5750 Y9.0000
G00 X0.5750 Y9.0000
G01 F76.20
G01 Z-1.2000
G01 F200.00
G01 X0.5733 Y9.0441
G01 X0.5705 Y9.0722
G01 X0.5669 Y9.0965
G01 X0.5578 Y9.1397
G01 X0.5503 Y9.1669
G01 X0.5414 Y9.1937
G01 X0.5249 Y9.2347
G01 X0.5144 Y9.2569
G01 X0.5012 Y9.2818
G01 X0.4781 Y9.3195
G01 X0.4619 Y9.3425
G01 X0.4445 Y9.3648
G01 X0.4261 Y9.3862
G01 X0.4066 Y9.4066
G01 X0.3742 Y9.4366
G01 X0.3552 Y9.4522
G01 X0.3326 Y9.4691
G01 X0.2956 Y9.4932
G01 X0.2569 Y9.5144
G01 X0.2347 Y9.5249
G01 X0.2087 Y9.5358
G01 X0.1669 Y9.5503
G01 X0.1397 Y9.5578
G01 X0.1122 Y9.5640
G01 X0.0844 Y9.5688
G01 X0.0564 Y9.5723
G01 X0.0282 Y9.5743
G01 X-0.0000 Y9.5750
G01 X-2.4250 Y9.5750
G01 X-2.4250 Y10.4250
G01 X0.0000 Y10.4250
G01 X0.0441 Y10.4267
G01 X0.0844 Y10.4312
G01 X0.1278 Y10.4394
G01 X0.1669 Y10.4497
G01 X0.2087 Y10.4642
G01 X0.2459 Y10.4802
G01 X0.2850 Y10.5006
G01 X0.3195 Y10.5219
G01 X0.3523 Y10.5456
G01 X0.3770 Y10.5658
G01 X0.4066 Y10.5934
G01 X0.4342 Y10.6230
G01 X0.4619 Y10.6575
G01 X0.4848 Y10.6908
G01 X0.5012 Y10.7182
G01 X0.5198 Y10.7541
G01 X0.5371 Y10.7948
G01 X0.5503 Y10.8331
G01 X0.5614 Y10.8758
G01 X0.5688 Y10.9156
G01 X0.5736 Y10.9595
G01 X0.5750 Y11.0000
G01 X0.5748 Y18.0160
G01 X0.5723 Y18.0564
G01 X0.5669 Y18.0965
G01 X0.5606 Y18.1278
G01 X0.5503 Y18.1669
G01 X0.5371 Y18.2052
G01 X0.5249 Y18.2347
G01 X0.5071 Y18.2711
G01 X0.4932 Y18.2956
G01 X0.4712 Y18.3296
G01 X0.4522 Y18.3552
G01 X0.4261 Y18.3862
G01 X0.4066 Y18.4066
G01 X0.3770 Y18.4342
G01 X0.3523 Y18.4544
G01 X0.3195 Y18.4781
G01 X0.2956 Y18.4932
G01 X0.2602 Y18.5128
G01 X0.2313 Y18.5264
G01 X0.1937 Y18.5414
G01 X0.1551 Y18.5537
G01 X0.1242 Y18.5614
G01 X0.0844 Y18.5688
G01 X0.0405 Y18.5736
G01 X-0.0000 Y18.5750
G01 X-15.5000 Y18.5750
G00 X-15.5000 Y18.5750
G01 F76.20
G01 Z-1.8000
G01 F200.00
G01 X-0.0000 Y18.5750
G01 X0.0405 Y18.5736
G01 X0.0844 Y18.5688
G01 X0.1242 Y18.5614
G01 X0.1551 Y18.5537
G01 X0.1937 Y18.5414
G01 X0.2313 Y18.5264
G01 X0.2602 Y18.5128
G01 X0.2956 Y18.4932
G01 X0.3195 Y18.4781
G01 X0.3523 Y18.4544
G01 X0.3770 Y18.4342
G01 X0.4066 Y18.4066
G01 X0.4261 Y18.3862
G01 X0.4522 Y18.3552
G01 X0.4712 Y18.3296
G01 X0.4932 Y18.2956
G01 X0.5071 Y18.2711
G01 X0.5249 Y18.2347
G01 X0.5371 Y18.2052
G01 X0.5503 Y18.1669
G01 X0.5606 Y18.1278
G01 X0.5669 Y18.0965
G01 X0.5723 Y18.0564
G01 X0.5748 Y18.0160
G01 X0.5750 Y11.0000
G01 X0.5736 Y10.9595
G01 X0.5688 Y10.9156
G01 X0.5614 Y10.8758
G01 X0.5503 Y10.8331
G01 X0.5371 Y10.7948
G01 X0.5198 Y10.7541
G01 X0.5012 Y10.7182
G01 X0.4848 Y10.6908
G01 X0.4619 Y10.6575
G01 X0.4342 Y10.6230
G01 X0.4066 Y10.5934
G01 X0.3770 Y10.5658
G01 X0.3523 Y10.5456
G01 X0.3195 Y10.5219
G01 X0.2850 Y10.5006
G01 X0.2459 Y10.4802
G01 X0.2087 Y10.4642
G01 X0.1669 Y10.4497
G01 X0.1278 Y10.4394
G01 X0.0844 Y10.4312
G01 X0.0441 Y10.4267
G01 X0.0000 Y10.4250
G01 X-2.4250 Y10.4250
G01 X-2.4250 Y9.5750
G01 X-0.0000 Y9.5750
G01 X0.0282 Y9.5743
G01 X0.0564 Y9.5723
G01 X0.0844 Y9.5688
G01 X0.1122 Y9.5640
G01 X0.1397 Y9.5578
G01 X0.1669 Y9.5503
G01 X0.2087 Y9.5358
G01 X0.2347 Y9.5249
G01 X0.2569 Y9.5144
G01 X0.2956 Y9.4932
G01 X0.3326 Y9.4691
G01 X0.3552 Y9.4522
G01 X0.3742 Y9.4366
G01 X0.4066 Y9.4066
G01 X0.4261 Y9.3862
G01 X0.4445 Y9.3648
G01 X0.4619 Y9.3425
G01 X0.4781 Y9.3195
G01 X0.5012 Y9.2818
G01 X0.5144 Y9.2569
G01 X0.5249 Y9.2347
G01 X0.5414 Y9.1937
G01 X0.5503 Y9.1669
G01 X0.5578 Y9.1397
G01 X0.5669 Y9.0965
G01 X0.5705 Y9.0722
G01 X0.5733 Y9.0441
G01 X0.5750 Y9.0000
G00 Z1.0000
M05
G00 Z1.0000
G00 Z30.00
G00 X0.0 Y0.0

