(G-CODE GENERATED BY FLATCAM v8.99 - www.flatcam.org - Version Date: 2019/12/15)

(Name: drill_vmc_cnc)
(Type: G-code from Excellon)
(Units: MM)

(Created on Sunday, 26 January 2020 at 15:44)

(Feedrate: 76.2 mm/min)
(Feedrate rapids 76.2 mm/min)

(Z_Cut: -2.0 mm)
(Z_Move: 1.0 mm)
(Z Toolchange: 20.0 mm)
(X,Y Toolchange: 0.0000, 0.0000 mm)
(Z Start: None mm)
(Z End: 20.0 mm)
(Steps per circle: 128)
(Preprocessor Excellon: default)

(X range:    4.0000 ...   31.1800  mm)
(Y range:    3.4200 ...   14.7800  mm)

(Spindle Speed: 12000.0 RPM)
G21
G90
G94




G01 F76.20
G00 Z1.0000

M03 S12000.0
G00 X-13.0800 Y4.0200
G01 Z-2.0000
G01 Z0
G00 Z1.0000
G00 X-15.6200 Y4.0200
G01 Z-2.0000
G01 Z0
G00 Z1.0000
G00 X-18.1600 Y4.0200
G01 Z-2.0000
G01 Z0
G00 Z1.0000
M03 S12000.0
G00 X-27.0500 Y4.0200
G01 Z-2.0000
G01 Z0
G00 Z1.0000
G00 X-30.5500 Y4.0200
G01 Z-2.0000
G01 Z0
G00 Z1.0000
G00 X-30.5800 Y14.1800
G01 Z-2.0000
G01 Z0
G00 Z1.0000
G00 X-27.0800 Y14.1800
G01 Z-2.0000
G01 Z0
G00 Z1.0000
G00 X-23.5800 Y14.1800
G01 Z-2.0000
G01 Z0
G00 Z1.0000
G00 X-20.0800 Y14.1800
G01 Z-2.0000
G01 Z0
G00 Z1.0000
G00 X-16.5800 Y14.1800
G01 Z-2.0000
G01 Z0
G00 Z1.0000
G00 X-13.0800 Y14.1800
G01 Z-2.0000
G01 Z0
G00 Z1.0000
M03 S12000.0
G00 X-6.0000 Y10.0000
G01 Z-2.0000
G01 Z0
G00 Z1.0000
M05
G00 Z20.00
G00 X0.0 Y0.0

