(G-CODE GENERATED BY FLATCAM v8.99 - www.flatcam.org - Version Date: 2019/12/15)

(Name: drill_vmc_cnc)
(Type: G-code from Excellon)
(Units: MM)

(Created on Saturday, 25 January 2020 at 16:33)

(Feedrate: 76.2 mm/min)
(Feedrate rapids 76.2 mm/min)

(Z_Cut: -2.0 mm)
(Z_Move: 1.0 mm)
(Z Toolchange: 20.0 mm)
(X,Y Toolchange: 0.0000, 0.0000 mm)
(Z Start: None mm)
(Z End: 20.0 mm)
(Steps per circle: 128)
(Preprocessor Excellon: default)

(X range:    5.0000 ...   28.9200  mm)
(Y range:    3.4200 ...   14.7800  mm)

(Spindle Speed: 12000.0 RPM)
G21
G90
G94




G01 F76.20
G00 Z1.0000

M03 S12000.0
G00 X-12.9200 Y4.0200
G01 Z-2.0000
G01 Z0
G00 Z1.0000
G00 X-15.4600 Y4.0200
G01 Z-2.0000
G01 Z0
G00 Z1.0000
G00 X-18.0000 Y4.0200
G01 Z-2.0000
G01 Z0
G00 Z1.0000
M03 S12000.0
G00 X-15.6200 Y14.1800
G01 Z-2.0000
G01 Z0
G00 Z1.0000
G00 X-19.1200 Y14.1800
G01 Z-2.0000
G01 Z0
G00 Z1.0000
G00 X-22.6200 Y14.1800
G01 Z-2.0000
G01 Z0
G00 Z1.0000
G00 X-26.1200 Y14.1800
G01 Z-2.0000
G01 Z0
G00 Z1.0000
G00 X-28.3200 Y4.0200
G01 Z-2.0000
G01 Z0
G00 Z1.0000
G00 X-24.8200 Y4.0200
G01 Z-2.0000
G01 Z0
G00 Z1.0000
M03 S12000.0
G00 X-7.0000 Y10.0000
G01 Z-2.0000
G01 Z0
G00 Z1.0000
M05
G00 Z20.00
G00 X0.0 Y0.0

