(G-CODE GENERATED BY FLATCAM v8.93 - www.flatcam.org - Version Date: 2019/08/10)

(Name: cuivre_1_cutout_cnc)
(Type: G-code from Geometry)
(Units: MM)

(Created on Saturday, 02 November 2019 at 19:24)

(TOOL DIAMETER: 1.0 mm)
(Feedrate: 120.0 mm/min)
(Feedrate_Z: 120.0 mm/min)
(Feedrate rapids 76.2 mm/min)

(Z_Cut: -1.6 mm)
(DepthPerCut: 0.4 mm <=>4 passes)
(Z_Move: 1.0 mm)
(Z Toolchange: 12.7 mm)
(X,Y Toolchange: 0.0000, 0.0000 mm)
(Z Start: None mm)
(Z End: 12.7 mm)
(Steps per circle: 128)
(Postprocessor Geometry: default)

(X range:  -69.1950 ...    0.0408  mm)
(Y range:    0.0100 ...   96.9171  mm)

(Spindle Speed: 12000 RPM)

G21
G90
G94

G01 F120.00
G00 Z1.0000

M03 S12000
G00 X-0.4592 Y0.0100
G01 F120.00
G01 Z-0.4000
G01 F120.00
G01 X-16.5182 Y0.0100
G00 X-16.5182 Y0.0100
G01 F120.00
G01 Z-0.8000
G01 F120.00
G01 X-0.4592 Y0.0100
G00 X-0.4592 Y0.0100
G01 F120.00
G01 Z-1.2000
G01 F120.00
G01 X-16.5182 Y0.0100
G00 X-16.5182 Y0.0100
G01 F120.00
G01 Z-1.6000
G01 F120.00
G01 X-0.4592 Y0.0100
G00 Z1.0000
G00 X-0.4592 Y0.0100
G01 F120.00
G01 Z-0.4000
G01 F120.00
G01 X-0.4102 Y0.0124
G01 X-0.3617 Y0.0196
G01 X-0.3141 Y0.0315
G01 X-0.2679 Y0.0481
G01 X-0.2236 Y0.0690
G01 X-0.1815 Y0.0943
G01 X-0.1421 Y0.1235
G01 X-0.1057 Y0.1564
G01 X-0.0727 Y0.1928
G01 X-0.0435 Y0.2322
G01 X-0.0183 Y0.2743
G01 X0.0027 Y0.3187
G01 X0.0192 Y0.3649
G01 X0.0311 Y0.4125
G01 X0.0383 Y0.4610
G01 X0.0408 Y0.5100
G01 X0.0408 Y23.4868
G00 X0.0408 Y23.4868
G01 F120.00
G01 Z-0.8000
G01 F120.00
G01 X0.0408 Y0.5100
G01 X0.0383 Y0.4610
G01 X0.0311 Y0.4125
G01 X0.0192 Y0.3649
G01 X0.0027 Y0.3187
G01 X-0.0183 Y0.2743
G01 X-0.0435 Y0.2322
G01 X-0.0727 Y0.1928
G01 X-0.1057 Y0.1564
G01 X-0.1421 Y0.1235
G01 X-0.1815 Y0.0943
G01 X-0.2236 Y0.0690
G01 X-0.2679 Y0.0481
G01 X-0.3141 Y0.0315
G01 X-0.3617 Y0.0196
G01 X-0.4102 Y0.0124
G01 X-0.4592 Y0.0100
G00 X-0.4592 Y0.0100
G01 F120.00
G01 Z-1.2000
G01 F120.00
G01 X-0.4102 Y0.0124
G01 X-0.3617 Y0.0196
G01 X-0.3141 Y0.0315
G01 X-0.2679 Y0.0481
G01 X-0.2236 Y0.0690
G01 X-0.1815 Y0.0943
G01 X-0.1421 Y0.1235
G01 X-0.1057 Y0.1564
G01 X-0.0727 Y0.1928
G01 X-0.0435 Y0.2322
G01 X-0.0183 Y0.2743
G01 X0.0027 Y0.3187
G01 X0.0192 Y0.3649
G01 X0.0311 Y0.4125
G01 X0.0383 Y0.4610
G01 X0.0408 Y0.5100
G01 X0.0408 Y23.4868
G00 X0.0408 Y23.4868
G01 F120.00
G01 Z-1.6000
G01 F120.00
G01 X0.0408 Y0.5100
G01 X0.0383 Y0.4610
G01 X0.0311 Y0.4125
G01 X0.0192 Y0.3649
G01 X0.0027 Y0.3187
G01 X-0.0183 Y0.2743
G01 X-0.0435 Y0.2322
G01 X-0.0727 Y0.1928
G01 X-0.1057 Y0.1564
G01 X-0.1421 Y0.1235
G01 X-0.1815 Y0.0943
G01 X-0.2236 Y0.0690
G01 X-0.2679 Y0.0481
G01 X-0.3141 Y0.0315
G01 X-0.3617 Y0.0196
G01 X-0.4102 Y0.0124
G01 X-0.4592 Y0.0100
G00 Z1.0000
G00 X-18.5182 Y0.0100
G01 F120.00
G01 Z-0.4000
G01 F120.00
G01 X-50.6361 Y0.0100
G00 X-50.6361 Y0.0100
G01 F120.00
G01 Z-0.8000
G01 F120.00
G01 X-18.5182 Y0.0100
G00 X-18.5182 Y0.0100
G01 F120.00
G01 Z-1.2000
G01 F120.00
G01 X-50.6361 Y0.0100
G00 X-50.6361 Y0.0100
G01 F120.00
G01 Z-1.6000
G01 F120.00
G01 X-18.5182 Y0.0100
G00 Z1.0000
G00 X0.0408 Y25.4868
G01 F120.00
G01 Z-0.4000
G01 F120.00
G01 X0.0408 Y71.4403
G00 X0.0408 Y71.4403
G01 F120.00
G01 Z-0.8000
G01 F120.00
G01 X0.0408 Y25.4868
G00 X0.0408 Y25.4868
G01 F120.00
G01 Z-1.2000
G01 F120.00
G01 X0.0408 Y71.4403
G00 X0.0408 Y71.4403
G01 F120.00
G01 Z-1.6000
G01 F120.00
G01 X0.0408 Y25.4868
G00 Z1.0000
G00 X0.0408 Y73.4403
G01 F120.00
G01 Z-0.4000
G01 F120.00
G01 X0.0408 Y96.4171
G01 X0.0383 Y96.4661
G01 X0.0311 Y96.5146
G01 X0.0192 Y96.5622
G01 X0.0027 Y96.6084
G01 X-0.0183 Y96.6528
G01 X-0.0435 Y96.6948
G01 X-0.0727 Y96.7343
G01 X-0.1057 Y96.7706
G01 X-0.1421 Y96.8036
G01 X-0.1815 Y96.8328
G01 X-0.2236 Y96.8580
G01 X-0.2679 Y96.8790
G01 X-0.3141 Y96.8955
G01 X-0.3617 Y96.9075
G01 X-0.4102 Y96.9147
G01 X-0.4592 Y96.9171
G01 X-16.5182 Y96.9171
G00 X-16.5182 Y96.9171
G01 F120.00
G01 Z-0.8000
G01 F120.00
G01 X-0.4592 Y96.9171
G01 X-0.4102 Y96.9147
G01 X-0.3617 Y96.9075
G01 X-0.3141 Y96.8955
G01 X-0.2679 Y96.8790
G01 X-0.2236 Y96.8580
G01 X-0.1815 Y96.8328
G01 X-0.1421 Y96.8036
G01 X-0.1057 Y96.7706
G01 X-0.0727 Y96.7343
G01 X-0.0435 Y96.6948
G01 X-0.0183 Y96.6528
G01 X0.0027 Y96.6084
G01 X0.0192 Y96.5622
G01 X0.0311 Y96.5146
G01 X0.0383 Y96.4661
G01 X0.0408 Y96.4171
G01 X0.0408 Y73.4403
G00 X0.0408 Y73.4403
G01 F120.00
G01 Z-1.2000
G01 F120.00
G01 X0.0408 Y96.4171
G01 X0.0383 Y96.4661
G01 X0.0311 Y96.5146
G01 X0.0192 Y96.5622
G01 X0.0027 Y96.6084
G01 X-0.0183 Y96.6528
G01 X-0.0435 Y96.6948
G01 X-0.0727 Y96.7343
G01 X-0.1057 Y96.7706
G01 X-0.1421 Y96.8036
G01 X-0.1815 Y96.8328
G01 X-0.2236 Y96.8580
G01 X-0.2679 Y96.8790
G01 X-0.3141 Y96.8955
G01 X-0.3617 Y96.9075
G01 X-0.4102 Y96.9147
G01 X-0.4592 Y96.9171
G01 X-16.5182 Y96.9171
G00 X-16.5182 Y96.9171
G01 F120.00
G01 Z-1.6000
G01 F120.00
G01 X-0.4592 Y96.9171
G01 X-0.4102 Y96.9147
G01 X-0.3617 Y96.9075
G01 X-0.3141 Y96.8955
G01 X-0.2679 Y96.8790
G01 X-0.2236 Y96.8580
G01 X-0.1815 Y96.8328
G01 X-0.1421 Y96.8036
G01 X-0.1057 Y96.7706
G01 X-0.0727 Y96.7343
G01 X-0.0435 Y96.6948
G01 X-0.0183 Y96.6528
G01 X0.0027 Y96.6084
G01 X0.0192 Y96.5622
G01 X0.0311 Y96.5146
G01 X0.0383 Y96.4661
G01 X0.0408 Y96.4171
G01 X0.0408 Y73.4403
G00 Z1.0000
G00 X-18.5182 Y96.9171
G01 F120.00
G01 Z-0.4000
G01 F120.00
G01 X-50.6361 Y96.9171
G00 X-50.6361 Y96.9171
G01 F120.00
G01 Z-0.8000
G01 F120.00
G01 X-18.5182 Y96.9171
G00 X-18.5182 Y96.9171
G01 F120.00
G01 Z-1.2000
G01 F120.00
G01 X-50.6361 Y96.9171
G00 X-50.6361 Y96.9171
G01 F120.00
G01 Z-1.6000
G01 F120.00
G01 X-18.5182 Y96.9171
G00 Z1.0000
G00 X-52.6361 Y96.9171
G01 F120.00
G01 Z-0.4000
G01 F120.00
G01 X-68.6950 Y96.9171
G01 X-68.7440 Y96.9147
G01 X-68.7926 Y96.9075
G01 X-68.8402 Y96.8955
G01 X-68.8864 Y96.8790
G01 X-68.9307 Y96.8580
G01 X-68.9728 Y96.8328
G01 X-69.0122 Y96.8036
G01 X-69.0486 Y96.7706
G01 X-69.0815 Y96.7343
G01 X-69.1107 Y96.6948
G01 X-69.1360 Y96.6528
G01 X-69.1569 Y96.6084
G01 X-69.1735 Y96.5622
G01 X-69.1854 Y96.5146
G01 X-69.1926 Y96.4661
G01 X-69.1950 Y96.4171
G01 X-69.1950 Y73.4403
G00 X-69.1950 Y73.4403
G01 F120.00
G01 Z-0.8000
G01 F120.00
G01 X-69.1950 Y96.4171
G01 X-69.1926 Y96.4661
G01 X-69.1854 Y96.5146
G01 X-69.1735 Y96.5622
G01 X-69.1569 Y96.6084
G01 X-69.1360 Y96.6528
G01 X-69.1107 Y96.6948
G01 X-69.0815 Y96.7343
G01 X-69.0486 Y96.7706
G01 X-69.0122 Y96.8036
G01 X-68.9728 Y96.8328
G01 X-68.9307 Y96.8580
G01 X-68.8864 Y96.8790
G01 X-68.8402 Y96.8955
G01 X-68.7926 Y96.9075
G01 X-68.7440 Y96.9147
G01 X-68.6950 Y96.9171
G01 X-52.6361 Y96.9171
G00 X-52.6361 Y96.9171
G01 F120.00
G01 Z-1.2000
G01 F120.00
G01 X-68.6950 Y96.9171
G01 X-68.7440 Y96.9147
G01 X-68.7926 Y96.9075
G01 X-68.8402 Y96.8955
G01 X-68.8864 Y96.8790
G01 X-68.9307 Y96.8580
G01 X-68.9728 Y96.8328
G01 X-69.0122 Y96.8036
G01 X-69.0486 Y96.7706
G01 X-69.0815 Y96.7343
G01 X-69.1107 Y96.6948
G01 X-69.1360 Y96.6528
G01 X-69.1569 Y96.6084
G01 X-69.1735 Y96.5622
G01 X-69.1854 Y96.5146
G01 X-69.1926 Y96.4661
G01 X-69.1950 Y96.4171
G01 X-69.1950 Y73.4403
G00 X-69.1950 Y73.4403
G01 F120.00
G01 Z-1.6000
G01 F120.00
G01 X-69.1950 Y96.4171
G01 X-69.1926 Y96.4661
G01 X-69.1854 Y96.5146
G01 X-69.1735 Y96.5622
G01 X-69.1569 Y96.6084
G01 X-69.1360 Y96.6528
G01 X-69.1107 Y96.6948
G01 X-69.0815 Y96.7343
G01 X-69.0486 Y96.7706
G01 X-69.0122 Y96.8036
G01 X-68.9728 Y96.8328
G01 X-68.9307 Y96.8580
G01 X-68.8864 Y96.8790
G01 X-68.8402 Y96.8955
G01 X-68.7926 Y96.9075
G01 X-68.7440 Y96.9147
G01 X-68.6950 Y96.9171
G01 X-52.6361 Y96.9171
G00 Z1.0000
G00 X-69.1950 Y71.4403
G01 F120.00
G01 Z-0.4000
G01 F120.00
G01 X-69.1950 Y25.4868
G00 X-69.1950 Y25.4868
G01 F120.00
G01 Z-0.8000
G01 F120.00
G01 X-69.1950 Y71.4403
G00 X-69.1950 Y71.4403
G01 F120.00
G01 Z-1.2000
G01 F120.00
G01 X-69.1950 Y25.4868
G00 X-69.1950 Y25.4868
G01 F120.00
G01 Z-1.6000
G01 F120.00
G01 X-69.1950 Y71.4403
G00 Z1.0000
G00 X-69.1950 Y23.4868
G01 F120.00
G01 Z-0.4000
G01 F120.00
G01 X-69.1950 Y0.5100
G01 X-69.1926 Y0.4610
G01 X-69.1854 Y0.4125
G01 X-69.1735 Y0.3649
G01 X-69.1569 Y0.3187
G01 X-69.1360 Y0.2743
G01 X-69.1107 Y0.2322
G01 X-69.0815 Y0.1928
G01 X-69.0486 Y0.1564
G01 X-69.0122 Y0.1235
G01 X-68.9728 Y0.0943
G01 X-68.9307 Y0.0690
G01 X-68.8864 Y0.0481
G01 X-68.8402 Y0.0315
G01 X-68.7926 Y0.0196
G01 X-68.7440 Y0.0124
G01 X-68.6950 Y0.0100
G01 X-52.6361 Y0.0100
G00 X-52.6361 Y0.0100
G01 F120.00
G01 Z-0.8000
G01 F120.00
G01 X-68.6950 Y0.0100
G01 X-68.7440 Y0.0124
G01 X-68.7926 Y0.0196
G01 X-68.8402 Y0.0315
G01 X-68.8864 Y0.0481
G01 X-68.9307 Y0.0690
G01 X-68.9728 Y0.0943
G01 X-69.0122 Y0.1235
G01 X-69.0486 Y0.1564
G01 X-69.0815 Y0.1928
G01 X-69.1107 Y0.2322
G01 X-69.1360 Y0.2743
G01 X-69.1569 Y0.3187
G01 X-69.1735 Y0.3649
G01 X-69.1854 Y0.4125
G01 X-69.1926 Y0.4610
G01 X-69.1950 Y0.5100
G01 X-69.1950 Y23.4868
G00 X-69.1950 Y23.4868
G01 F120.00
G01 Z-1.2000
G01 F120.00
G01 X-69.1950 Y0.5100
G01 X-69.1926 Y0.4610
G01 X-69.1854 Y0.4125
G01 X-69.1735 Y0.3649
G01 X-69.1569 Y0.3187
G01 X-69.1360 Y0.2743
G01 X-69.1107 Y0.2322
G01 X-69.0815 Y0.1928
G01 X-69.0486 Y0.1564
G01 X-69.0122 Y0.1235
G01 X-68.9728 Y0.0943
G01 X-68.9307 Y0.0690
G01 X-68.8864 Y0.0481
G01 X-68.8402 Y0.0315
G01 X-68.7926 Y0.0196
G01 X-68.7440 Y0.0124
G01 X-68.6950 Y0.0100
G01 X-52.6361 Y0.0100
G00 X-52.6361 Y0.0100
G01 F120.00
G01 Z-1.6000
G01 F120.00
G01 X-68.6950 Y0.0100
G01 X-68.7440 Y0.0124
G01 X-68.7926 Y0.0196
G01 X-68.8402 Y0.0315
G01 X-68.8864 Y0.0481
G01 X-68.9307 Y0.0690
G01 X-68.9728 Y0.0943
G01 X-69.0122 Y0.1235
G01 X-69.0486 Y0.1564
G01 X-69.0815 Y0.1928
G01 X-69.1107 Y0.2322
G01 X-69.1360 Y0.2743
G01 X-69.1569 Y0.3187
G01 X-69.1735 Y0.3649
G01 X-69.1854 Y0.4125
G01 X-69.1926 Y0.4610
G01 X-69.1950 Y0.5100
G01 X-69.1950 Y23.4868
G00 Z1.0000
M05
G00 Z1.0000
G00 Z12.70
G00 X0.0 Y0.0

M02