(G-CODE GENERATED BY FLATCAM v8.93 - www.flatcam.org - Version Date: 2019/08/10)

(Name: cuivre_2_cutout_cnc)
(Type: G-code from Geometry)
(Units: MM)

(Created on Sunday, 03 November 2019 at 19:19)

(TOOL DIAMETER: 1.0 mm)
(Feedrate: 170.0 mm/min)
(Feedrate_Z: 170.0 mm/min)
(Feedrate rapids 76.2 mm/min)

(Z_Cut: -1.6 mm)
(DepthPerCut: 0.4 mm <=>4 passes)
(Z_Move: 1.0 mm)
(Z Toolchange: 12.7 mm)
(X,Y Toolchange: 0.0000, 0.0000 mm)
(Z Start: None mm)
(Z End: 12.7 mm)
(Steps per circle: 128)
(Postprocessor Geometry: default)

(X range:    1.8050 ...   71.0408  mm)
(Y range:    0.0100 ...   96.9171  mm)

(Spindle Speed: 12000 RPM)

G21
G90
G94

G01 F170.00
G00 Z1.0000

M03 S12000
G00 X18.3639 Y0.0100
G01 F170.00
G01 Z-0.4000
G01 F170.00
G01 X2.3050 Y0.0100
G01 X2.2560 Y0.0124
G01 X2.2074 Y0.0196
G01 X2.1598 Y0.0315
G01 X2.1136 Y0.0481
G01 X2.0693 Y0.0690
G01 X2.0272 Y0.0943
G01 X1.9878 Y0.1235
G01 X1.9514 Y0.1564
G01 X1.9185 Y0.1928
G01 X1.8893 Y0.2322
G01 X1.8640 Y0.2743
G01 X1.8431 Y0.3187
G01 X1.8265 Y0.3649
G01 X1.8146 Y0.4125
G01 X1.8074 Y0.4610
G01 X1.8050 Y0.5100
G01 X1.8050 Y23.4868
G00 X1.8050 Y23.4868
G01 F170.00
G01 Z-0.8000
G01 F170.00
G01 X1.8050 Y0.5100
G01 X1.8074 Y0.4610
G01 X1.8146 Y0.4125
G01 X1.8265 Y0.3649
G01 X1.8431 Y0.3187
G01 X1.8640 Y0.2743
G01 X1.8893 Y0.2322
G01 X1.9185 Y0.1928
G01 X1.9514 Y0.1564
G01 X1.9878 Y0.1235
G01 X2.0272 Y0.0943
G01 X2.0693 Y0.0690
G01 X2.1136 Y0.0481
G01 X2.1598 Y0.0315
G01 X2.2074 Y0.0196
G01 X2.2560 Y0.0124
G01 X2.3050 Y0.0100
G01 X18.3639 Y0.0100
G00 X18.3639 Y0.0100
G01 F170.00
G01 Z-1.2000
G01 F170.00
G01 X2.3050 Y0.0100
G01 X2.2560 Y0.0124
G01 X2.2074 Y0.0196
G01 X2.1598 Y0.0315
G01 X2.1136 Y0.0481
G01 X2.0693 Y0.0690
G01 X2.0272 Y0.0943
G01 X1.9878 Y0.1235
G01 X1.9514 Y0.1564
G01 X1.9185 Y0.1928
G01 X1.8893 Y0.2322
G01 X1.8640 Y0.2743
G01 X1.8431 Y0.3187
G01 X1.8265 Y0.3649
G01 X1.8146 Y0.4125
G01 X1.8074 Y0.4610
G01 X1.8050 Y0.5100
G01 X1.8050 Y23.4868
G00 X1.8050 Y23.4868
G01 F170.00
G01 Z-1.6000
G01 F170.00
G01 X1.8050 Y0.5100
G01 X1.8074 Y0.4610
G01 X1.8146 Y0.4125
G01 X1.8265 Y0.3649
G01 X1.8431 Y0.3187
G01 X1.8640 Y0.2743
G01 X1.8893 Y0.2322
G01 X1.9185 Y0.1928
G01 X1.9514 Y0.1564
G01 X1.9878 Y0.1235
G01 X2.0272 Y0.0943
G01 X2.0693 Y0.0690
G01 X2.1136 Y0.0481
G01 X2.1598 Y0.0315
G01 X2.2074 Y0.0196
G01 X2.2560 Y0.0124
G01 X2.3050 Y0.0100
G01 X18.3639 Y0.0100
G00 Z1.0000
G00 X20.3639 Y0.0100
G01 F170.00
G01 Z-0.4000
G01 F170.00
G01 X52.4818 Y0.0100
G00 X52.4818 Y0.0100
G01 F170.00
G01 Z-0.8000
G01 F170.00
G01 X20.3639 Y0.0100
G00 X20.3639 Y0.0100
G01 F170.00
G01 Z-1.2000
G01 F170.00
G01 X52.4818 Y0.0100
G00 X52.4818 Y0.0100
G01 F170.00
G01 Z-1.6000
G01 F170.00
G01 X20.3639 Y0.0100
G00 Z1.0000
G00 X1.8050 Y25.4868
G01 F170.00
G01 Z-0.4000
G01 F170.00
G01 X1.8050 Y71.4403
G00 X1.8050 Y71.4403
G01 F170.00
G01 Z-0.8000
G01 F170.00
G01 X1.8050 Y25.4868
G00 X1.8050 Y25.4868
G01 F170.00
G01 Z-1.2000
G01 F170.00
G01 X1.8050 Y71.4403
G00 X1.8050 Y71.4403
G01 F170.00
G01 Z-1.6000
G01 F170.00
G01 X1.8050 Y25.4868
G00 Z1.0000
G00 X1.8050 Y73.4403
G01 F170.00
G01 Z-0.4000
G01 F170.00
G01 X1.8050 Y96.4171
G01 X1.8074 Y96.4661
G01 X1.8146 Y96.5146
G01 X1.8265 Y96.5622
G01 X1.8431 Y96.6084
G01 X1.8640 Y96.6528
G01 X1.8893 Y96.6948
G01 X1.9185 Y96.7343
G01 X1.9514 Y96.7706
G01 X1.9878 Y96.8036
G01 X2.0272 Y96.8328
G01 X2.0693 Y96.8580
G01 X2.1136 Y96.8790
G01 X2.1598 Y96.8955
G01 X2.2074 Y96.9075
G01 X2.2560 Y96.9147
G01 X2.3050 Y96.9171
G01 X18.3639 Y96.9171
G00 X18.3639 Y96.9171
G01 F170.00
G01 Z-0.8000
G01 F170.00
G01 X2.3050 Y96.9171
G01 X2.2560 Y96.9147
G01 X2.2074 Y96.9075
G01 X2.1598 Y96.8955
G01 X2.1136 Y96.8790
G01 X2.0693 Y96.8580
G01 X2.0272 Y96.8328
G01 X1.9878 Y96.8036
G01 X1.9514 Y96.7706
G01 X1.9185 Y96.7343
G01 X1.8893 Y96.6948
G01 X1.8640 Y96.6528
G01 X1.8431 Y96.6084
G01 X1.8265 Y96.5622
G01 X1.8146 Y96.5146
G01 X1.8074 Y96.4661
G01 X1.8050 Y96.4171
G01 X1.8050 Y73.4403
G00 X1.8050 Y73.4403
G01 F170.00
G01 Z-1.2000
G01 F170.00
G01 X1.8050 Y96.4171
G01 X1.8074 Y96.4661
G01 X1.8146 Y96.5146
G01 X1.8265 Y96.5622
G01 X1.8431 Y96.6084
G01 X1.8640 Y96.6528
G01 X1.8893 Y96.6948
G01 X1.9185 Y96.7343
G01 X1.9514 Y96.7706
G01 X1.9878 Y96.8036
G01 X2.0272 Y96.8328
G01 X2.0693 Y96.8580
G01 X2.1136 Y96.8790
G01 X2.1598 Y96.8955
G01 X2.2074 Y96.9075
G01 X2.2560 Y96.9147
G01 X2.3050 Y96.9171
G01 X18.3639 Y96.9171
G00 X18.3639 Y96.9171
G01 F170.00
G01 Z-1.6000
G01 F170.00
G01 X2.3050 Y96.9171
G01 X2.2560 Y96.9147
G01 X2.2074 Y96.9075
G01 X2.1598 Y96.8955
G01 X2.1136 Y96.8790
G01 X2.0693 Y96.8580
G01 X2.0272 Y96.8328
G01 X1.9878 Y96.8036
G01 X1.9514 Y96.7706
G01 X1.9185 Y96.7343
G01 X1.8893 Y96.6948
G01 X1.8640 Y96.6528
G01 X1.8431 Y96.6084
G01 X1.8265 Y96.5622
G01 X1.8146 Y96.5146
G01 X1.8074 Y96.4661
G01 X1.8050 Y96.4171
G01 X1.8050 Y73.4403
G00 Z1.0000
G00 X20.3639 Y96.9171
G01 F170.00
G01 Z-0.4000
G01 F170.00
G01 X52.4818 Y96.9171
G00 X52.4818 Y96.9171
G01 F170.00
G01 Z-0.8000
G01 F170.00
G01 X20.3639 Y96.9171
G00 X20.3639 Y96.9171
G01 F170.00
G01 Z-1.2000
G01 F170.00
G01 X52.4818 Y96.9171
G00 X52.4818 Y96.9171
G01 F170.00
G01 Z-1.6000
G01 F170.00
G01 X20.3639 Y96.9171
G00 Z1.0000
G00 X54.4818 Y96.9171
G01 F170.00
G01 Z-0.4000
G01 F170.00
G01 X70.5408 Y96.9171
G01 X70.5898 Y96.9147
G01 X70.6383 Y96.9075
G01 X70.6859 Y96.8955
G01 X70.7321 Y96.8790
G01 X70.7764 Y96.8580
G01 X70.8185 Y96.8328
G01 X70.8579 Y96.8036
G01 X70.8943 Y96.7706
G01 X70.9273 Y96.7343
G01 X70.9565 Y96.6948
G01 X70.9817 Y96.6528
G01 X71.0027 Y96.6084
G01 X71.0192 Y96.5622
G01 X71.0311 Y96.5146
G01 X71.0383 Y96.4661
G01 X71.0408 Y96.4171
G01 X71.0408 Y73.4403
G00 X71.0408 Y73.4403
G01 F170.00
G01 Z-0.8000
G01 F170.00
G01 X71.0408 Y96.4171
G01 X71.0383 Y96.4661
G01 X71.0311 Y96.5146
G01 X71.0192 Y96.5622
G01 X71.0027 Y96.6084
G01 X70.9817 Y96.6528
G01 X70.9565 Y96.6948
G01 X70.9273 Y96.7343
G01 X70.8943 Y96.7706
G01 X70.8579 Y96.8036
G01 X70.8185 Y96.8328
G01 X70.7764 Y96.8580
G01 X70.7321 Y96.8790
G01 X70.6859 Y96.8955
G01 X70.6383 Y96.9075
G01 X70.5898 Y96.9147
G01 X70.5408 Y96.9171
G01 X54.4818 Y96.9171
G00 X54.4818 Y96.9171
G01 F170.00
G01 Z-1.2000
G01 F170.00
G01 X70.5408 Y96.9171
G01 X70.5898 Y96.9147
G01 X70.6383 Y96.9075
G01 X70.6859 Y96.8955
G01 X70.7321 Y96.8790
G01 X70.7764 Y96.8580
G01 X70.8185 Y96.8328
G01 X70.8579 Y96.8036
G01 X70.8943 Y96.7706
G01 X70.9273 Y96.7343
G01 X70.9565 Y96.6948
G01 X70.9817 Y96.6528
G01 X71.0027 Y96.6084
G01 X71.0192 Y96.5622
G01 X71.0311 Y96.5146
G01 X71.0383 Y96.4661
G01 X71.0408 Y96.4171
G01 X71.0408 Y73.4403
G00 X71.0408 Y73.4403
G01 F170.00
G01 Z-1.6000
G01 F170.00
G01 X71.0408 Y96.4171
G01 X71.0383 Y96.4661
G01 X71.0311 Y96.5146
G01 X71.0192 Y96.5622
G01 X71.0027 Y96.6084
G01 X70.9817 Y96.6528
G01 X70.9565 Y96.6948
G01 X70.9273 Y96.7343
G01 X70.8943 Y96.7706
G01 X70.8579 Y96.8036
G01 X70.8185 Y96.8328
G01 X70.7764 Y96.8580
G01 X70.7321 Y96.8790
G01 X70.6859 Y96.8955
G01 X70.6383 Y96.9075
G01 X70.5898 Y96.9147
G01 X70.5408 Y96.9171
G01 X54.4818 Y96.9171
G00 Z1.0000
G00 X71.0408 Y71.4403
G01 F170.00
G01 Z-0.4000
G01 F170.00
G01 X71.0408 Y25.4868
G00 X71.0408 Y25.4868
G01 F170.00
G01 Z-0.8000
G01 F170.00
G01 X71.0408 Y71.4403
G00 X71.0408 Y71.4403
G01 F170.00
G01 Z-1.2000
G01 F170.00
G01 X71.0408 Y25.4868
G00 X71.0408 Y25.4868
G01 F170.00
G01 Z-1.6000
G01 F170.00
G01 X71.0408 Y71.4403
G00 Z1.0000
G00 X71.0408 Y23.4868
G01 F170.00
G01 Z-0.4000
G01 F170.00
G01 X71.0408 Y0.5100
G01 X71.0383 Y0.4610
G01 X71.0311 Y0.4125
G01 X71.0192 Y0.3649
G01 X71.0027 Y0.3187
G01 X70.9817 Y0.2743
G01 X70.9565 Y0.2322
G01 X70.9273 Y0.1928
G01 X70.8943 Y0.1564
G01 X70.8579 Y0.1235
G01 X70.8185 Y0.0943
G01 X70.7764 Y0.0690
G01 X70.7321 Y0.0481
G01 X70.6859 Y0.0315
G01 X70.6383 Y0.0196
G01 X70.5898 Y0.0124
G01 X70.5408 Y0.0100
G00 X70.5408 Y0.0100
G01 F170.00
G01 Z-0.8000
G01 F170.00
G01 X70.5898 Y0.0124
G01 X70.6383 Y0.0196
G01 X70.6859 Y0.0315
G01 X70.7321 Y0.0481
G01 X70.7764 Y0.0690
G01 X70.8185 Y0.0943
G01 X70.8579 Y0.1235
G01 X70.8943 Y0.1564
G01 X70.9273 Y0.1928
G01 X70.9565 Y0.2322
G01 X70.9817 Y0.2743
G01 X71.0027 Y0.3187
G01 X71.0192 Y0.3649
G01 X71.0311 Y0.4125
G01 X71.0383 Y0.4610
G01 X71.0408 Y0.5100
G01 X71.0408 Y23.4868
G00 X71.0408 Y23.4868
G01 F170.00
G01 Z-1.2000
G01 F170.00
G01 X71.0408 Y0.5100
G01 X71.0383 Y0.4610
G01 X71.0311 Y0.4125
G01 X71.0192 Y0.3649
G01 X71.0027 Y0.3187
G01 X70.9817 Y0.2743
G01 X70.9565 Y0.2322
G01 X70.9273 Y0.1928
G01 X70.8943 Y0.1564
G01 X70.8579 Y0.1235
G01 X70.8185 Y0.0943
G01 X70.7764 Y0.0690
G01 X70.7321 Y0.0481
G01 X70.6859 Y0.0315
G01 X70.6383 Y0.0196
G01 X70.5898 Y0.0124
G01 X70.5408 Y0.0100
G00 X70.5408 Y0.0100
G01 F170.00
G01 Z-1.6000
G01 F170.00
G01 X70.5898 Y0.0124
G01 X70.6383 Y0.0196
G01 X70.6859 Y0.0315
G01 X70.7321 Y0.0481
G01 X70.7764 Y0.0690
G01 X70.8185 Y0.0943
G01 X70.8579 Y0.1235
G01 X70.8943 Y0.1564
G01 X70.9273 Y0.1928
G01 X70.9565 Y0.2322
G01 X70.9817 Y0.2743
G01 X71.0027 Y0.3187
G01 X71.0192 Y0.3649
G01 X71.0311 Y0.4125
G01 X71.0383 Y0.4610
G01 X71.0408 Y0.5100
G01 X71.0408 Y23.4868
G00 Z1.0000
G00 X70.5408 Y0.0100
G01 F170.00
G01 Z-0.4000
G01 F170.00
G01 X54.4818 Y0.0100
G00 X54.4818 Y0.0100
G01 F170.00
G01 Z-0.8000
G01 F170.00
G01 X70.5408 Y0.0100
G00 X70.5408 Y0.0100
G01 F170.00
G01 Z-1.2000
G01 F170.00
G01 X54.4818 Y0.0100
G00 X54.4818 Y0.0100
G01 F170.00
G01 Z-1.6000
G01 F170.00
G01 X70.5408 Y0.0100
G00 Z1.0000
M05
G00 Z1.0000
G00 Z12.70
G00 X0.0 Y0.0

M02