(G-CODE GENERATED BY FLATCAM v8.93 - www.flatcam.org - Version Date: 2019/08/10)

(Name: cuivre_greenhouse)
(Type: G-code from Geometry)
(Units: MM)

(Created on Sunday, 03 November 2019 at 16:43)

(TOOL DIAMETER: 0.6 mm)
(Feedrate: 120.0 mm/min)
(Feedrate_Z: 76.2 mm/min)
(Feedrate rapids 76.2 mm/min)

(Z_Cut: -0.2 mm)
(Z_Move: 1.0 mm)
(Z Toolchange: 12.7 mm)
(X,Y Toolchange: 0.0000, 0.0000 mm)
(Z Start: None mm)
(Z End: 12.7 mm)
(Steps per circle: 128)
(Postprocessor Geometry: default)

(X range:  -68.9950 ...   -0.1592  mm)
(Y range:    0.2100 ...   96.7171  mm)

(Spindle Speed: 12000 RPM)

G21
G90
G94

G01 F120.00
G00 Z1.0000

M03 S12000
G00 X-15.9586 Y9.9059
G01 F76.20
G01 Z-0.2000
G01 F120.00
G01 X-15.9600 Y9.9600
G01 X-15.9588 Y10.0141
G01 X-15.9546 Y10.0754
G01 X-15.9474 Y10.1365
G01 X-15.9359 Y10.2047
G01 X-15.9242 Y10.2572
G01 X-15.9081 Y10.3165
G01 X-15.8892 Y10.3750
G01 X-15.8660 Y10.4359
G01 X-15.8428 Y10.4888
G01 X-15.8086 Y10.5569
G01 X-15.7787 Y10.6090
G01 X-15.7448 Y10.6619
G01 X-15.7126 Y10.7074
G01 X-15.6722 Y10.7588
G01 X-15.6305 Y10.8065
G01 X-15.5932 Y10.8457
G01 X-15.5540 Y10.8830
G01 X-15.5077 Y10.9235
G01 X-15.4549 Y10.9651
G01 X-15.4094 Y10.9973
G01 X-15.3451 Y11.0380
G01 X-15.2914 Y11.0680
G01 X-15.2363 Y11.0953
G01 X-15.1834 Y11.1185
G01 X-15.1225 Y11.1417
G01 X-15.0640 Y11.1606
G01 X-15.0047 Y11.1767
G01 X-14.9522 Y11.1884
G01 X-14.8985 Y11.1978
G01 X-14.8229 Y11.2071
G01 X-14.7763 Y11.2105
G01 X-14.7149 Y11.2124
G01 X-14.6125 Y11.2125
G01 X-14.5584 Y11.2113
G01 X-14.4842 Y11.2059
G01 X-14.4215 Y11.1978
G01 X-14.3678 Y11.1884
G01 X-14.3153 Y11.1767
G01 X-14.2419 Y11.1563
G01 X-14.1975 Y11.1417
G01 X-14.1413 Y11.1204
G01 X-14.0795 Y11.1512
G01 X-14.0210 Y11.1767
G01 X-13.9752 Y11.1944
G01 X-13.9147 Y11.2148
G01 X-13.8533 Y11.2322
G01 X-13.7842 Y11.2480
G01 X-13.7137 Y11.2599
G01 X-13.6503 Y11.2674
G01 X-13.6014 Y11.2710
G01 X-13.5376 Y11.2729
G01 X-12.3800 Y11.2730
G01 X-12.3088 Y11.2710
G01 X-12.2470 Y11.2661
G01 X-12.2012 Y11.2605
G01 X-6.6128 Y11.2605
G01 X-6.5605 Y11.2932
G01 X-6.5071 Y11.3234
G01 X-6.4260 Y11.3642
G01 X-6.3598 Y11.3934
G01 X-6.2991 Y11.4168
G01 X-6.2129 Y11.4453
G01 X-6.1537 Y11.4617
G01 X-6.0796 Y11.4787
G01 X-5.9901 Y11.4942
G01 X-5.9292 Y11.5017
G01 X-5.8534 Y11.5077
G01 X-5.7700 Y11.5100
G01 X-5.6866 Y11.5077
G01 X-5.6125 Y11.5019
G01 X-5.5353 Y11.4921
G01 X-5.4673 Y11.4802
G01 X-5.4005 Y11.4652
G01 X-5.3271 Y11.4453
G01 X-5.2548 Y11.4218
G01 X-5.1802 Y11.3934
G01 X-5.1140 Y11.3642
G01 X-5.0459 Y11.3304
G01 X-4.9795 Y11.2932
G01 X-4.9150 Y11.2528
G01 X-4.8454 Y11.2040
G01 X-4.7825 Y11.1546
G01 X-4.7237 Y11.1035
G01 X-4.6740 Y11.0560
G01 X-4.6166 Y10.9954
G01 X-4.5672 Y10.9376
G01 X-4.5260 Y10.8846
G01 X-4.4772 Y10.8150
G01 X-4.4368 Y10.7505
G01 X-4.3996 Y10.6841
G01 X-4.3658 Y10.6160
G01 X-4.3366 Y10.5498
G01 X-4.3082 Y10.4752
G01 X-4.2847 Y10.4029
G01 X-4.2648 Y10.3295
G01 X-4.2498 Y10.2627
G01 X-4.2379 Y10.1947
G01 X-4.2283 Y10.1192
G01 X-4.2223 Y10.0434
G01 X-4.2200 Y9.9600
G01 X-4.2223 Y9.8766
G01 X-4.2281 Y9.8025
G01 X-4.2379 Y9.7253
G01 X-4.2498 Y9.6573
G01 X-4.2648 Y9.5905
G01 X-4.2847 Y9.5171
G01 X-4.3082 Y9.4448
G01 X-4.3366 Y9.3702
G01 X-4.3658 Y9.3040
G01 X-4.3996 Y9.2359
G01 X-4.4368 Y9.1695
G01 X-4.4772 Y9.1050
G01 X-4.5260 Y9.0354
G01 X-4.5754 Y8.9725
G01 X-4.6265 Y8.9137
G01 X-4.6740 Y8.8640
G01 X-4.7346 Y8.8066
G01 X-4.7924 Y8.7572
G01 X-4.8454 Y8.7160
G01 X-4.9150 Y8.6672
G01 X-4.9795 Y8.6268
G01 X-5.0459 Y8.5896
G01 X-5.1140 Y8.5558
G01 X-5.1802 Y8.5266
G01 X-5.2548 Y8.4982
G01 X-5.3271 Y8.4747
G01 X-5.4005 Y8.4548
G01 X-5.4673 Y8.4398
G01 X-5.5353 Y8.4279
G01 X-5.6108 Y8.4183
G01 X-5.6866 Y8.4123
G01 X-5.7700 Y8.4100
G01 X-5.8534 Y8.4123
G01 X-5.9275 Y8.4181
G01 X-5.9901 Y8.4258
G01 X-6.0796 Y8.4413
G01 X-6.1395 Y8.4548
G01 X-6.2129 Y8.4747
G01 X-6.2991 Y8.5032
G01 X-6.3598 Y8.5266
G01 X-6.4260 Y8.5558
G01 X-6.5071 Y8.5966
G01 X-6.5605 Y8.6268
G01 X-6.6128 Y8.6595
G01 X-12.3675 Y8.6595
G01 X-12.4387 Y8.6615
G01 X-12.5005 Y8.6664
G01 X-12.5463 Y8.6720
G01 X-13.5376 Y8.6721
G01 X-13.6014 Y8.6740
G01 X-13.6650 Y8.6791
G01 X-13.7137 Y8.6851
G01 X-13.7767 Y8.6956
G01 X-13.8390 Y8.7093
G01 X-13.9006 Y8.7259
G01 X-13.9752 Y8.7506
G01 X-14.0347 Y8.7739
G01 X-14.0795 Y8.7938
G01 X-14.1145 Y8.8110
G01 X-14.1366 Y8.8015
G01 X-14.1975 Y8.7783
G01 X-14.2419 Y8.7637
G01 X-14.3010 Y8.7469
G01 X-14.3754 Y8.7302
G01 X-14.4215 Y8.7222
G01 X-14.4824 Y8.7143
G01 X-14.5584 Y8.7087
G01 X-14.6125 Y8.7075
G01 X-14.7149 Y8.7076
G01 X-14.7616 Y8.7087
G01 X-14.8229 Y8.7129
G01 X-14.8840 Y8.7201
G01 X-14.9522 Y8.7316
G01 X-15.0047 Y8.7433
G01 X-15.0640 Y8.7594
G01 X-15.1225 Y8.7783
G01 X-15.1834 Y8.8015
G01 X-15.2363 Y8.8247
G01 X-15.3044 Y8.8589
G01 X-15.3565 Y8.8888
G01 X-15.4094 Y8.9227
G01 X-15.4549 Y8.9549
G01 X-15.4963 Y8.9872
G01 X-15.5431 Y9.0271
G01 X-15.5879 Y9.0692
G01 X-15.6404 Y9.1244
G01 X-15.6803 Y9.1712
G01 X-15.7126 Y9.2126
G01 X-15.7448 Y9.2581
G01 X-15.7779 Y9.3098
G01 X-15.8155 Y9.3761
G01 X-15.8428 Y9.4312
G01 X-15.8660 Y9.4841
G01 X-15.8842 Y9.5311
G01 X-15.9038 Y9.5894
G01 X-15.9206 Y9.6485
G01 X-15.9344 Y9.7084
G01 X-15.9453 Y9.7690
G01 X-15.9532 Y9.8299
G01 X-15.9586 Y9.9059
G00 Z1.0000
G00 X-15.9586 Y22.6059
G01 F76.20
G01 Z-0.2000
G01 F120.00
G01 X-15.9600 Y22.6600
G01 X-15.9588 Y22.7141
G01 X-15.9546 Y22.7754
G01 X-15.9474 Y22.8365
G01 X-15.9359 Y22.9047
G01 X-15.9242 Y22.9572
G01 X-15.9081 Y23.0165
G01 X-15.8892 Y23.0750
G01 X-15.8660 Y23.1359
G01 X-15.8428 Y23.1888
G01 X-15.8086 Y23.2569
G01 X-15.7787 Y23.3090
G01 X-15.7448 Y23.3619
G01 X-15.7126 Y23.4074
G01 X-15.6710 Y23.4602
G01 X-15.6305 Y23.5065
G01 X-15.5931 Y23.5457
G01 X-15.5540 Y23.5830
G01 X-15.5077 Y23.6235
G01 X-15.4549 Y23.6651
G01 X-15.4094 Y23.6973
G01 X-15.3577 Y23.7304
G01 X-15.3044 Y23.7611
G01 X-15.2489 Y23.7894
G01 X-15.1834 Y23.8185
G01 X-15.1364 Y23.8367
G01 X-15.0781 Y23.8563
G01 X-15.0190 Y23.8731
G01 X-14.9522 Y23.8884
G01 X-14.8985 Y23.8978
G01 X-14.8376 Y23.9057
G01 X-14.7616 Y23.9113
G01 X-14.7075 Y23.9125
G01 X-14.6125 Y23.9125
G01 X-14.5437 Y23.9105
G01 X-14.4971 Y23.9071
G01 X-14.4495 Y23.9016
G01 X-14.3954 Y23.9191
G01 X-14.3338 Y23.9357
G01 X-14.2790 Y23.9480
G01 X-14.2231 Y23.9578
G01 X-14.1451 Y23.9674
G01 X-14.0962 Y23.9710
G01 X-14.0324 Y23.9729
G01 X-12.3800 Y23.9730
G01 X-12.3088 Y23.9710
G01 X-12.2470 Y23.9661
G01 X-12.1819 Y23.9578
G01 X-12.1191 Y23.9465
G01 X-12.0712 Y23.9357
G01 X-12.0096 Y23.9191
G01 X-11.9488 Y23.8994
G01 X-11.8857 Y23.8754
G01 X-11.8181 Y23.8453
G01 X-11.7605 Y23.8159
G01 X-11.7064 Y23.7849
G01 X-11.6514 Y23.7497
G01 X-11.6040 Y23.7161
G01 X-11.5507 Y23.6743
G01 X-11.5122 Y23.6410
G01 X-11.4604 Y23.5921
G01 X-11.1938 Y23.3255
G01 X-9.4354 Y23.3254
G01 X-9.3716 Y23.3235
G01 X-9.3080 Y23.3184
G01 X-9.2592 Y23.3124
G01 X-9.1963 Y23.3019
G01 X-9.1339 Y23.2882
G01 X-9.0723 Y23.2716
G01 X-8.9977 Y23.2469
G01 X-8.9383 Y23.2236
G01 X-8.8808 Y23.1978
G01 X-8.8363 Y23.1753
G01 X-8.7691 Y23.1374
G01 X-8.7142 Y23.1022
G01 X-8.6668 Y23.0686
G01 X-8.6235 Y23.0349
G01 X-8.5749 Y22.9935
G01 X-8.5232 Y22.9446
G01 X-6.9991 Y21.4205
G01 X-6.6128 Y21.4205
G01 X-6.5605 Y21.4532
G01 X-6.5071 Y21.4834
G01 X-6.4260 Y21.5242
G01 X-6.3598 Y21.5534
G01 X-6.2991 Y21.5768
G01 X-6.2129 Y21.6053
G01 X-6.1537 Y21.6217
G01 X-6.0796 Y21.6387
G01 X-5.9901 Y21.6542
G01 X-5.9292 Y21.6617
G01 X-5.8534 Y21.6677
G01 X-5.7626 Y21.6699
G01 X-5.7013 Y21.6684
G01 X-5.6254 Y21.6632
G01 X-5.5353 Y21.6521
G01 X-5.4673 Y21.6402
G01 X-5.4005 Y21.6252
G01 X-5.3130 Y21.6010
G01 X-5.2548 Y21.5818
G01 X-5.1837 Y21.5547
G01 X-5.1007 Y21.5180
G01 X-5.0329 Y21.4834
G01 X-4.9681 Y21.4464
G01 X-4.9150 Y21.4128
G01 X-4.8526 Y21.3693
G01 X-4.7811 Y21.3134
G01 X-4.7237 Y21.2635
G01 X-4.6740 Y21.2160
G01 X-4.6166 Y21.1554
G01 X-4.5672 Y21.0976
G01 X-4.5260 Y21.0446
G01 X-4.4772 Y20.9750
G01 X-4.4444 Y20.9231
G01 X-4.4066 Y20.8571
G01 X-4.3658 Y20.7760
G01 X-4.3366 Y20.7098
G01 X-4.3132 Y20.6491
G01 X-4.2847 Y20.5629
G01 X-4.2648 Y20.4895
G01 X-4.2498 Y20.4227
G01 X-4.2358 Y20.3401
G01 X-4.2281 Y20.2775
G01 X-4.2223 Y20.2034
G01 X-4.2201 Y20.1126
G01 X-4.2216 Y20.0513
G01 X-4.2268 Y19.9754
G01 X-4.2379 Y19.8853
G01 X-4.2498 Y19.8173
G01 X-4.2648 Y19.7505
G01 X-4.2890 Y19.6630
G01 X-4.3132 Y19.5909
G01 X-4.3366 Y19.5302
G01 X-4.3658 Y19.4640
G01 X-4.4066 Y19.3829
G01 X-4.4436 Y19.3181
G01 X-4.4772 Y19.2650
G01 X-4.5260 Y19.1954
G01 X-4.5754 Y19.1325
G01 X-4.6166 Y19.0846
G01 X-4.6740 Y19.0240
G01 X-4.7346 Y18.9666
G01 X-4.7924 Y18.9172
G01 X-4.8454 Y18.8760
G01 X-4.9150 Y18.8272
G01 X-4.9669 Y18.7944
G01 X-5.0329 Y18.7566
G01 X-5.1140 Y18.7158
G01 X-5.1802 Y18.6866
G01 X-5.2409 Y18.6632
G01 X-5.3130 Y18.6390
G01 X-5.4005 Y18.6148
G01 X-5.4673 Y18.5998
G01 X-5.5353 Y18.5879
G01 X-5.6108 Y18.5783
G01 X-5.6866 Y18.5723
G01 X-5.7774 Y18.5701
G01 X-5.8534 Y18.5723
G01 X-5.9275 Y18.5781
G01 X-6.0047 Y18.5879
G01 X-6.0796 Y18.6013
G01 X-6.1395 Y18.6148
G01 X-6.2129 Y18.6347
G01 X-6.2852 Y18.6582
G01 X-6.3598 Y18.6866
G01 X-6.4386 Y18.7217
G01 X-6.5071 Y18.7566
G01 X-6.5605 Y18.7868
G01 X-6.6128 Y18.8195
G01 X-7.5378 Y18.8195
G01 X-7.5942 Y18.8208
G01 X-7.6579 Y18.8251
G01 X-7.7213 Y18.8326
G01 X-7.7918 Y18.8445
G01 X-7.8466 Y18.8568
G01 X-7.9082 Y18.8734
G01 X-7.9828 Y18.8981
G01 X-8.0422 Y18.9214
G01 X-8.0997 Y18.9472
G01 X-8.1443 Y18.9697
G01 X-8.2114 Y19.0076
G01 X-8.2664 Y19.0428
G01 X-8.3138 Y19.0764
G01 X-8.3570 Y19.1101
G01 X-8.4056 Y19.1515
G01 X-8.4574 Y19.2004
G01 X-9.9815 Y20.7245
G01 X-11.7325 Y20.7245
G01 X-11.8037 Y20.7265
G01 X-11.8655 Y20.7314
G01 X-11.9160 Y20.7376
G01 X-11.9865 Y20.7496
G01 X-12.0413 Y20.7618
G01 X-12.1029 Y20.7784
G01 X-12.1637 Y20.7981
G01 X-12.2268 Y20.8221
G01 X-12.2944 Y20.8522
G01 X-12.3520 Y20.8816
G01 X-12.4074 Y20.9134
G01 X-12.4611 Y20.9478
G01 X-12.5085 Y20.9814
G01 X-12.5618 Y21.0232
G01 X-12.6003 Y21.0565
G01 X-12.6521 Y21.1054
G01 X-12.9187 Y21.3720
G01 X-14.0250 Y21.3720
G01 X-14.0815 Y21.3733
G01 X-14.1580 Y21.3789
G01 X-14.2231 Y21.3872
G01 X-14.2790 Y21.3971
G01 X-14.3338 Y21.4093
G01 X-14.3971 Y21.4265
G01 X-14.4360 Y21.4201
G01 X-14.4824 Y21.4143
G01 X-14.5584 Y21.4087
G01 X-14.6125 Y21.4075
G01 X-14.7149 Y21.4076
G01 X-14.7616 Y21.4087
G01 X-14.8229 Y21.4129
G01 X-14.8840 Y21.4201
G01 X-14.9522 Y21.4316
G01 X-15.0190 Y21.4469
G01 X-15.0781 Y21.4637
G01 X-15.1225 Y21.4783
G01 X-15.1800 Y21.5001
G01 X-15.2489 Y21.5306
G01 X-15.2914 Y21.5520
G01 X-15.3451 Y21.5820
G01 X-15.4094 Y21.6227
G01 X-15.4549 Y21.6549
G01 X-15.5063 Y21.6953
G01 X-15.5431 Y21.7271
G01 X-15.5879 Y21.7692
G01 X-15.6404 Y21.8244
G01 X-15.6710 Y21.8598
G01 X-15.7091 Y21.9080
G01 X-15.7529 Y21.9703
G01 X-15.7855 Y22.0224
G01 X-15.8155 Y22.0761
G01 X-15.8369 Y22.1186
G01 X-15.8618 Y22.1739
G01 X-15.8892 Y22.2450
G01 X-15.9038 Y22.2894
G01 X-15.9206 Y22.3485
G01 X-15.9359 Y22.4153
G01 X-15.9453 Y22.4690
G01 X-15.9532 Y22.5299
G01 X-15.9586 Y22.6059
G00 Z1.0000
G00 X-7.3183 Y25.1313
G01 F76.20
G01 Z-0.2000
G01 F120.00
G01 X-7.3200 Y25.2000
G01 X-7.3177 Y25.2834
G01 X-7.3119 Y25.3575
G01 X-7.3021 Y25.4347
G01 X-7.2902 Y25.5027
G01 X-7.2717 Y25.5837
G01 X-7.2510 Y25.6570
G01 X-7.2268 Y25.7291
G01 X-7.2034 Y25.7898
G01 X-7.1683 Y25.8686
G01 X-7.1334 Y25.9371
G01 X-7.0964 Y26.0019
G01 X-7.0546 Y26.0672
G01 X-7.0140 Y26.1246
G01 X-6.9646 Y26.1875
G01 X-6.9135 Y26.2463
G01 X-6.8660 Y26.2960
G01 X-6.8054 Y26.3534
G01 X-6.7476 Y26.4028
G01 X-6.6946 Y26.4440
G01 X-6.6250 Y26.4928
G01 X-6.5605 Y26.5332
G01 X-6.4941 Y26.5704
G01 X-6.4260 Y26.6042
G01 X-6.3598 Y26.6334
G01 X-6.2852 Y26.6618
G01 X-6.2129 Y26.6853
G01 X-6.1395 Y26.7052
G01 X-6.0727 Y26.7202
G01 X-5.9901 Y26.7342
G01 X-5.9146 Y26.7432
G01 X-5.8387 Y26.7484
G01 X-5.7700 Y26.7500
G01 X-5.6866 Y26.7477
G01 X-5.6125 Y26.7419
G01 X-5.5353 Y26.7321
G01 X-5.4673 Y26.7202
G01 X-5.3863 Y26.7017
G01 X-5.3130 Y26.6810
G01 X-5.2409 Y26.6568
G01 X-5.1802 Y26.6334
G01 X-5.1014 Y26.5983
G01 X-5.0329 Y26.5634
G01 X-4.9681 Y26.5264
G01 X-4.9028 Y26.4846
G01 X-4.8454 Y26.4440
G01 X-4.7825 Y26.3946
G01 X-4.7237 Y26.3435
G01 X-4.6740 Y26.2960
G01 X-4.6166 Y26.2354
G01 X-4.5672 Y26.1776
G01 X-4.5260 Y26.1246
G01 X-4.4772 Y26.0550
G01 X-4.4368 Y25.9905
G01 X-4.3996 Y25.9241
G01 X-4.3658 Y25.8560
G01 X-4.3366 Y25.7898
G01 X-4.3082 Y25.7152
G01 X-4.2847 Y25.6429
G01 X-4.2648 Y25.5695
G01 X-4.2498 Y25.5027
G01 X-4.2358 Y25.4201
G01 X-4.2268 Y25.3446
G01 X-4.2216 Y25.2687
G01 X-4.2200 Y25.2000
G01 X-4.2223 Y25.1166
G01 X-4.2281 Y25.0425
G01 X-4.2379 Y24.9653
G01 X-4.2498 Y24.8973
G01 X-4.2683 Y24.8163
G01 X-4.2890 Y24.7430
G01 X-4.3132 Y24.6709
G01 X-4.3366 Y24.6102
G01 X-4.3717 Y24.5314
G01 X-4.4066 Y24.4629
G01 X-4.4436 Y24.3981
G01 X-4.4854 Y24.3328
G01 X-4.5260 Y24.2754
G01 X-4.5754 Y24.2125
G01 X-4.6265 Y24.1537
G01 X-4.6740 Y24.1040
G01 X-4.7346 Y24.0466
G01 X-4.7924 Y23.9972
G01 X-4.8454 Y23.9560
G01 X-4.9150 Y23.9072
G01 X-4.9795 Y23.8668
G01 X-5.0459 Y23.8296
G01 X-5.1140 Y23.7958
G01 X-5.1802 Y23.7666
G01 X-5.2548 Y23.7382
G01 X-5.3271 Y23.7147
G01 X-5.4005 Y23.6948
G01 X-5.4673 Y23.6798
G01 X-5.5499 Y23.6658
G01 X-5.6254 Y23.6568
G01 X-5.7013 Y23.6516
G01 X-5.7700 Y23.6500
G01 X-5.8534 Y23.6523
G01 X-5.9275 Y23.6581
G01 X-6.0047 Y23.6679
G01 X-6.0727 Y23.6798
G01 X-6.1537 Y23.6983
G01 X-6.2270 Y23.7190
G01 X-6.2991 Y23.7432
G01 X-6.3598 Y23.7666
G01 X-6.4386 Y23.8017
G01 X-6.5071 Y23.8366
G01 X-6.5719 Y23.8736
G01 X-6.6372 Y23.9154
G01 X-6.6946 Y23.9560
G01 X-6.7575 Y24.0054
G01 X-6.8163 Y24.0565
G01 X-6.8660 Y24.1040
G01 X-6.9234 Y24.1646
G01 X-6.9728 Y24.2224
G01 X-7.0140 Y24.2754
G01 X-7.0628 Y24.3450
G01 X-7.1032 Y24.4095
G01 X-7.1404 Y24.4759
G01 X-7.1742 Y24.5440
G01 X-7.2034 Y24.6102
G01 X-7.2318 Y24.6848
G01 X-7.2553 Y24.7571
G01 X-7.2752 Y24.8305
G01 X-7.2902 Y24.8973
G01 X-7.3042 Y24.9799
G01 X-7.3132 Y25.0554
G01 X-7.3183 Y25.1313
G00 Z1.0000
G00 X-15.9586 Y35.3059
G01 F76.20
G01 Z-0.2000
G01 F120.00
G01 X-15.9600 Y35.3600
G01 X-15.9588 Y35.4141
G01 X-15.9532 Y35.4901
G01 X-15.9453 Y35.5510
G01 X-15.9359 Y35.6047
G01 X-15.9242 Y35.6572
G01 X-15.9081 Y35.7165
G01 X-15.8842 Y35.7889
G01 X-15.8660 Y35.8359
G01 X-15.8369 Y35.9014
G01 X-15.8086 Y35.9569
G01 X-15.7787 Y36.0090
G01 X-15.7529 Y36.0497
G01 X-15.7178 Y36.1001
G01 X-15.6803 Y36.1488
G01 X-15.6404 Y36.1956
G01 X-15.5879 Y36.2508
G01 X-15.5540 Y36.2830
G01 X-15.5077 Y36.3235
G01 X-15.4549 Y36.3651
G01 X-15.4094 Y36.3973
G01 X-15.3451 Y36.4380
G01 X-15.2914 Y36.4680
G01 X-15.2489 Y36.4894
G01 X-15.1834 Y36.5185
G01 X-15.1364 Y36.5367
G01 X-15.0640 Y36.5606
G01 X-15.0047 Y36.5767
G01 X-14.9522 Y36.5884
G01 X-14.8985 Y36.5978
G01 X-14.8376 Y36.6057
G01 X-14.7763 Y36.6105
G01 X-14.7149 Y36.6124
G01 X-14.6125 Y36.6125
G01 X-14.5584 Y36.6113
G01 X-14.4824 Y36.6057
G01 X-14.4215 Y36.5978
G01 X-14.3609 Y36.5869
G01 X-14.3153 Y36.5767
G01 X-14.2560 Y36.5606
G01 X-14.1975 Y36.5417
G01 X-14.1413 Y36.5204
G01 X-14.0795 Y36.5512
G01 X-14.0245 Y36.5754
G01 X-13.9614 Y36.5994
G01 X-13.9006 Y36.6191
G01 X-13.8390 Y36.6357
G01 X-13.7842 Y36.6480
G01 X-13.7137 Y36.6599
G01 X-13.6503 Y36.6674
G01 X-13.5867 Y36.6717
G01 X-13.5302 Y36.6730
G01 X-12.3800 Y36.6730
G01 X-12.3088 Y36.6710
G01 X-12.2452 Y36.6659
G01 X-12.1965 Y36.6599
G01 X-12.1335 Y36.6494
G01 X-12.0712 Y36.6357
G01 X-12.0096 Y36.6191
G01 X-11.9488 Y36.5994
G01 X-11.8857 Y36.5754
G01 X-11.8181 Y36.5453
G01 X-11.7735 Y36.5228
G01 X-11.7178 Y36.4917
G01 X-11.6514 Y36.4497
G01 X-11.6040 Y36.4161
G01 X-11.5507 Y36.3743
G01 X-11.5122 Y36.3410
G01 X-11.4657 Y36.2972
G01 X-7.9988 Y32.8305
G01 X-7.0200 Y32.8305
G01 X-6.9488 Y32.8285
G01 X-6.8870 Y32.8236
G01 X-6.8219 Y32.8153
G01 X-6.7660 Y32.8054
G01 X-6.7112 Y32.7932
G01 X-6.6355 Y32.7723
G01 X-6.5750 Y32.7519
G01 X-6.5156 Y32.7286
G01 X-6.4581 Y32.7028
G01 X-6.4005 Y32.6734
G01 X-6.3464 Y32.6424
G01 X-6.3037 Y32.6153
G01 X-6.2394 Y32.5701
G01 X-6.1907 Y32.5318
G01 X-6.1522 Y32.4985
G01 X-6.1004 Y32.4496
G01 X-5.4464 Y31.7955
G01 X-5.3863 Y31.7817
G01 X-5.3271 Y31.7653
G01 X-5.2409 Y31.7368
G01 X-5.1802 Y31.7134
G01 X-5.1140 Y31.6842
G01 X-5.0459 Y31.6504
G01 X-4.9681 Y31.6064
G01 X-4.9028 Y31.5646
G01 X-4.8454 Y31.5240
G01 X-4.7924 Y31.4828
G01 X-4.7237 Y31.4235
G01 X-4.6740 Y31.3760
G01 X-4.6265 Y31.3263
G01 X-4.5766 Y31.2689
G01 X-4.5295 Y31.2092
G01 X-4.4772 Y31.1350
G01 X-4.4444 Y31.0831
G01 X-4.4066 Y31.0171
G01 X-4.3658 Y30.9360
G01 X-4.3366 Y30.8698
G01 X-4.3132 Y30.8091
G01 X-4.2847 Y30.7229
G01 X-4.2648 Y30.6495
G01 X-4.2498 Y30.5827
G01 X-4.2379 Y30.5147
G01 X-4.2283 Y30.4392
G01 X-4.2216 Y30.3487
G01 X-4.2200 Y30.2800
G01 X-4.2216 Y30.2113
G01 X-4.2268 Y30.1354
G01 X-4.2358 Y30.0599
G01 X-4.2513 Y29.9704
G01 X-4.2648 Y29.9105
G01 X-4.2847 Y29.8371
G01 X-4.3132 Y29.7509
G01 X-4.3366 Y29.6902
G01 X-4.3717 Y29.6114
G01 X-4.4066 Y29.5429
G01 X-4.4436 Y29.4781
G01 X-4.4854 Y29.4128
G01 X-4.5260 Y29.3554
G01 X-4.5754 Y29.2925
G01 X-4.6265 Y29.2337
G01 X-4.6740 Y29.1840
G01 X-4.7346 Y29.1266
G01 X-4.7924 Y29.0772
G01 X-4.8454 Y29.0360
G01 X-4.9150 Y28.9872
G01 X-4.9795 Y28.9468
G01 X-5.0459 Y28.9096
G01 X-5.1140 Y28.8758
G01 X-5.1802 Y28.8466
G01 X-5.2548 Y28.8182
G01 X-5.3271 Y28.7947
G01 X-5.4005 Y28.7748
G01 X-5.4673 Y28.7598
G01 X-5.5499 Y28.7458
G01 X-5.6254 Y28.7368
G01 X-5.7013 Y28.7316
G01 X-5.7700 Y28.7300
G01 X-5.8534 Y28.7323
G01 X-5.9275 Y28.7381
G01 X-6.0047 Y28.7479
G01 X-6.0727 Y28.7598
G01 X-6.1537 Y28.7783
G01 X-6.2270 Y28.7990
G01 X-6.2991 Y28.8232
G01 X-6.3598 Y28.8466
G01 X-6.4386 Y28.8817
G01 X-6.5071 Y28.9166
G01 X-6.5719 Y28.9536
G01 X-6.6372 Y28.9954
G01 X-6.6992 Y29.0395
G01 X-6.7575 Y29.0854
G01 X-6.8054 Y29.1266
G01 X-6.8607 Y29.1788
G01 X-6.9135 Y29.2337
G01 X-6.9634 Y29.2911
G01 X-7.0140 Y29.3554
G01 X-7.0628 Y29.4250
G01 X-7.0956 Y29.4769
G01 X-7.1334 Y29.5429
G01 X-7.1683 Y29.6114
G01 X-7.2034 Y29.6902
G01 X-7.2318 Y29.7648
G01 X-7.2553 Y29.8371
G01 X-7.2717 Y29.8963
G01 X-7.2855 Y29.9564
G01 X-7.5587 Y30.2295
G01 X-8.5449 Y30.2296
G01 X-8.5940 Y30.2308
G01 X-8.6576 Y30.2351
G01 X-8.7356 Y30.2447
G01 X-8.7915 Y30.2545
G01 X-8.8463 Y30.2668
G01 X-8.9079 Y30.2834
G01 X-8.9687 Y30.3031
G01 X-9.0419 Y30.3314
G01 X-9.0994 Y30.3572
G01 X-9.1440 Y30.3797
G01 X-9.2111 Y30.4176
G01 X-9.2661 Y30.4528
G01 X-9.3135 Y30.4864
G01 X-9.3568 Y30.5201
G01 X-9.4053 Y30.5615
G01 X-9.4571 Y30.6104
G01 X-12.9187 Y34.0720
G01 X-13.5302 Y34.0720
G01 X-13.6014 Y34.0740
G01 X-13.6632 Y34.0789
G01 X-13.7283 Y34.0872
G01 X-13.7842 Y34.0971
G01 X-13.8390 Y34.1093
G01 X-13.9006 Y34.1259
G01 X-13.9614 Y34.1456
G01 X-14.0245 Y34.1696
G01 X-14.0795 Y34.1938
G01 X-14.1145 Y34.2110
G01 X-14.1366 Y34.2015
G01 X-14.1836 Y34.1833
G01 X-14.2419 Y34.1637
G01 X-14.3010 Y34.1469
G01 X-14.3678 Y34.1316
G01 X-14.4215 Y34.1222
G01 X-14.4824 Y34.1143
G01 X-14.5437 Y34.1095
G01 X-14.6125 Y34.1075
G01 X-14.7075 Y34.1075
G01 X-14.7763 Y34.1095
G01 X-14.8358 Y34.1141
G01 X-14.8985 Y34.1222
G01 X-14.9522 Y34.1316
G01 X-15.0047 Y34.1433
G01 X-15.0640 Y34.1594
G01 X-15.1225 Y34.1783
G01 X-15.1834 Y34.2015
G01 X-15.2489 Y34.2306
G01 X-15.2914 Y34.2520
G01 X-15.3451 Y34.2820
G01 X-15.4094 Y34.3227
G01 X-15.4549 Y34.3549
G01 X-15.4963 Y34.3872
G01 X-15.5540 Y34.4370
G01 X-15.5932 Y34.4743
G01 X-15.6305 Y34.5135
G01 X-15.6803 Y34.5712
G01 X-15.7126 Y34.6126
G01 X-15.7448 Y34.6581
G01 X-15.7855 Y34.7224
G01 X-15.8155 Y34.7761
G01 X-15.8369 Y34.8186
G01 X-15.8674 Y34.8875
G01 X-15.8842 Y34.9311
G01 X-15.9038 Y34.9894
G01 X-15.9242 Y35.0628
G01 X-15.9359 Y35.1153
G01 X-15.9453 Y35.1690
G01 X-15.9546 Y35.2446
G01 X-15.9586 Y35.3059
G00 Z1.0000
G00 X-22.9497 Y32.5634
G01 F76.20
G01 Z-0.2000
G01 F120.00
G01 X-22.9501 Y47.2797
G01 X-22.9491 Y47.3080
G01 X-22.9474 Y47.3271
G01 X-22.9443 Y47.3496
G01 X-22.9390 Y47.3763
G01 X-22.9295 Y47.4106
G01 X-22.9189 Y47.4397
G01 X-22.9030 Y47.4744
G01 X-22.8862 Y47.5043
G01 X-22.8703 Y47.5281
G01 X-22.8496 Y47.5548
G01 X-22.8250 Y47.5816
G01 X-22.4480 Y47.9586
G01 X-22.4252 Y48.0113
G01 X-22.4052 Y48.0474
G01 X-22.3929 Y48.0661
G01 X-22.3767 Y48.0879
G01 X-22.3633 Y48.1041
G01 X-22.3440 Y48.1247
G01 X-22.3233 Y48.1441
G01 X-22.3072 Y48.1575
G01 X-22.2904 Y48.1701
G01 X-22.2678 Y48.1852
G01 X-22.2498 Y48.1959
G01 X-22.2305 Y48.2060
G01 X-22.2020 Y48.2187
G01 X-22.1789 Y48.2273
G01 X-22.1589 Y48.2335
G01 X-22.1386 Y48.2387
G01 X-22.1181 Y48.2430
G01 X-22.0974 Y48.2462
G01 X-22.0765 Y48.2484
G01 X-22.0556 Y48.2496
G01 X-22.0346 Y48.2497
G01 X-22.0137 Y48.2489
G01 X-21.9946 Y48.2472
G01 X-21.9721 Y48.2440
G01 X-21.9515 Y48.2401
G01 X-21.9311 Y48.2352
G01 X-21.9110 Y48.2292
G01 X-21.8912 Y48.2223
G01 X-21.8535 Y48.2060
G01 X-21.8174 Y48.1860
G01 X-21.7863 Y48.1648
G01 X-21.7607 Y48.1441
G01 X-21.7453 Y48.1299
G01 X-21.7306 Y48.1150
G01 X-21.7166 Y48.0993
G01 X-21.7034 Y48.0830
G01 X-21.6911 Y48.0661
G01 X-21.6796 Y48.0486
G01 X-21.6689 Y48.0305
G01 X-21.6588 Y48.0113
G01 X-21.6425 Y47.9735
G01 X-21.6313 Y47.9397
G01 X-21.6232 Y47.9064
G01 X-21.6178 Y47.8719
G01 X-21.6159 Y47.8511
G01 X-21.6150 Y47.8301
G01 X-21.6149 Y46.8961
G01 X-21.6159 Y46.8678
G01 X-21.6176 Y46.8487
G01 X-21.6207 Y46.8262
G01 X-21.6267 Y46.7950
G01 X-21.5801 Y46.5609
G01 X-21.4475 Y46.3625
G01 X-21.4212 Y46.3446
G01 X-21.4045 Y46.3320
G01 X-21.3884 Y46.3186
G01 X-21.3677 Y46.2993
G01 X-19.6950 Y44.6266
G01 X-19.6757 Y44.6059
G01 X-19.6584 Y44.5849
G01 X-19.6379 Y44.5557
G01 X-19.6270 Y44.5378
G01 X-19.6170 Y44.5194
G01 X-19.6053 Y44.4948
G01 X-19.5975 Y44.4754
G01 X-19.5863 Y44.4415
G01 X-19.5810 Y44.4212
G01 X-19.5757 Y44.3945
G01 X-19.5714 Y44.3591
G01 X-19.5700 Y44.3320
G01 X-19.5699 Y44.0312
G01 X-19.4025 Y43.6269
G01 X-19.0931 Y43.3175
G01 X-18.6888 Y43.1501
G01 X-18.2512 Y43.1501
G01 X-17.8469 Y43.3175
G01 X-17.6342 Y43.5301
G01 X-17.6141 Y43.5484
G01 X-17.5932 Y43.5651
G01 X-17.5686 Y43.5821
G01 X-17.5507 Y43.5930
G01 X-17.5323 Y43.6030
G01 X-17.5134 Y43.6121
G01 X-17.4883 Y43.6225
G01 X-17.4685 Y43.6295
G01 X-17.4484 Y43.6354
G01 X-17.4211 Y43.6418
G01 X-17.3867 Y43.6472
G01 X-17.3658 Y43.6491
G01 X-17.3375 Y43.6501
G01 X-16.0311 Y43.6501
G01 X-16.0028 Y43.6491
G01 X-15.9837 Y43.6474
G01 X-15.9612 Y43.6443
G01 X-15.9300 Y43.6383
G01 X-15.6959 Y43.6849
G01 X-15.4975 Y43.8175
G01 X-15.4708 Y43.8556
G01 X-15.4536 Y43.8766
G01 X-15.4394 Y43.8920
G01 X-15.2033 Y44.1282
G01 X-15.1826 Y44.1476
G01 X-15.1665 Y44.1610
G01 X-15.1447 Y44.1772
G01 X-15.1272 Y44.1887
G01 X-15.1091 Y44.1993
G01 X-15.0898 Y44.2095
G01 X-15.0614 Y44.2222
G01 X-15.0383 Y44.2308
G01 X-15.0182 Y44.2370
G01 X-14.9979 Y44.2422
G01 X-14.9713 Y44.2475
G01 X-14.9505 Y44.2505
G01 X-14.9296 Y44.2524
G01 X-14.9013 Y44.2533
G01 X-13.7021 Y44.2533
G01 X-13.4944 Y44.2946
G01 X-13.4665 Y44.2992
G01 X-13.4456 Y44.3014
G01 X-13.4111 Y44.3028
G01 X-13.3766 Y44.3014
G01 X-13.3412 Y44.2970
G01 X-13.3206 Y44.2931
G01 X-13.3002 Y44.2882
G01 X-13.2742 Y44.2803
G01 X-13.2511 Y44.2717
G01 X-13.2226 Y44.2590
G01 X-13.1979 Y44.2458
G01 X-13.1678 Y44.2267
G01 X-13.1508 Y44.2143
G01 X-13.1298 Y44.1971
G01 X-13.1091 Y44.1777
G01 X-13.0898 Y44.1571
G01 X-13.0690 Y44.1315
G01 X-12.9972 Y44.0250
G01 X-12.9052 Y43.9628
G01 X-12.8796 Y43.9421
G01 X-12.8589 Y43.9228
G01 X-8.5772 Y39.6411
G01 X-8.5579 Y39.6204
G01 X-8.5372 Y39.5948
G01 X-8.4750 Y39.5028
G01 X-8.0450 Y39.2155
G01 X-7.5378 Y39.1146
G01 X-7.4376 Y39.1343
G01 X-7.4169 Y39.1372
G01 X-7.3813 Y39.1398
G01 X-6.7668 Y39.1401
G01 X-6.7385 Y39.1391
G01 X-6.7114 Y39.1364
G01 X-6.6832 Y39.1318
G01 X-6.6559 Y39.1254
G01 X-6.6358 Y39.1195
G01 X-6.6102 Y39.1103
G01 X-6.0783 Y38.8901
G01 X-5.4617 Y38.8901
G01 X-4.8920 Y39.1260
G01 X-4.4890 Y39.5291
G01 X-4.4683 Y39.5484
G01 X-4.4473 Y39.5657
G01 X-4.4303 Y39.5780
G01 X-4.4128 Y39.5895
G01 X-4.3948 Y39.6002
G01 X-4.3755 Y39.6103
G01 X-4.3470 Y39.6230
G01 X-4.3239 Y39.6316
G01 X-4.3039 Y39.6378
G01 X-4.2836 Y39.6431
G01 X-4.2631 Y39.6473
G01 X-4.2424 Y39.6505
G01 X-4.2215 Y39.6527
G01 X-4.2006 Y39.6539
G01 X-4.1796 Y39.6541
G01 X-4.1396 Y39.6515
G01 X-4.1034 Y39.6459
G01 X-4.0701 Y39.6378
G01 X-4.0501 Y39.6316
G01 X-4.0270 Y39.6230
G01 X-3.9922 Y39.6071
G01 X-3.9738 Y39.5971
G01 X-3.9559 Y39.5862
G01 X-3.9386 Y39.5744
G01 X-3.9218 Y39.5618
G01 X-3.9057 Y39.5484
G01 X-3.8903 Y39.5342
G01 X-3.8657 Y39.5084
G01 X-3.8523 Y39.4923
G01 X-3.8397 Y39.4755
G01 X-3.8279 Y39.4582
G01 X-3.8170 Y39.4403
G01 X-3.8070 Y39.4219
G01 X-3.7979 Y39.4030
G01 X-3.7911 Y39.3871
G01 X-3.7825 Y39.3640
G01 X-3.7763 Y39.3440
G01 X-3.7710 Y39.3237
G01 X-3.7657 Y39.2970
G01 X-3.7614 Y39.2616
G01 X-3.7600 Y39.2345
G01 X-3.7602 Y37.5734
G01 X-3.7614 Y37.5525
G01 X-3.7636 Y37.5316
G01 X-3.7668 Y37.5109
G01 X-3.7710 Y37.4904
G01 X-3.7805 Y37.4560
G01 X-3.7875 Y37.4362
G01 X-3.7953 Y37.4168
G01 X-3.8070 Y37.3922
G01 X-3.8170 Y37.3738
G01 X-3.8279 Y37.3559
G01 X-3.8397 Y37.3386
G01 X-3.8523 Y37.3218
G01 X-3.8657 Y37.3057
G01 X-3.8799 Y37.2903
G01 X-3.8948 Y37.2756
G01 X-3.9104 Y37.2616
G01 X-3.9267 Y37.2484
G01 X-3.9437 Y37.2361
G01 X-3.9738 Y37.2170
G01 X-3.9922 Y37.2070
G01 X-4.0111 Y37.1979
G01 X-4.0270 Y37.1911
G01 X-4.0501 Y37.1825
G01 X-4.0701 Y37.1763
G01 X-4.0904 Y37.1710
G01 X-4.1109 Y37.1668
G01 X-4.1316 Y37.1636
G01 X-4.1587 Y37.1609
G01 X-4.1870 Y37.1599
G01 X-5.9473 Y37.1599
G01 X-6.4723 Y37.0555
G01 X-6.5673 Y36.9921
G01 X-6.5852 Y36.9812
G01 X-6.6036 Y36.9712
G01 X-6.6225 Y36.9621
G01 X-6.6476 Y36.9517
G01 X-6.6674 Y36.9448
G01 X-6.7018 Y36.9353
G01 X-6.7223 Y36.9310
G01 X-6.7430 Y36.9278
G01 X-6.7639 Y36.9256
G01 X-6.7848 Y36.9244
G01 X-6.9779 Y36.9242
G01 X-7.1370 Y36.8925
G01 X-7.2362 Y36.8262
G01 X-7.3025 Y36.7270
G01 X-7.3342 Y36.5679
G01 X-7.3344 Y36.3748
G01 X-7.3356 Y36.3539
G01 X-7.3378 Y36.3330
G01 X-7.3439 Y36.2979
G01 X-7.3505 Y36.2715
G01 X-7.3617 Y36.2376
G01 X-7.3721 Y36.2125
G01 X-7.3812 Y36.1936
G01 X-7.3912 Y36.1752
G01 X-7.4021 Y36.1573
G01 X-7.4655 Y36.0623
G01 X-7.6052 Y35.3600
G01 X-7.4655 Y34.6577
G01 X-7.4021 Y34.5627
G01 X-7.3912 Y34.5448
G01 X-7.3812 Y34.5264
G01 X-7.3721 Y34.5075
G01 X-7.3617 Y34.4824
G01 X-7.3505 Y34.4485
G01 X-7.3439 Y34.4221
G01 X-7.3378 Y34.3870
G01 X-7.3356 Y34.3661
G01 X-7.3344 Y34.3452
G01 X-7.3342 Y34.1521
G01 X-7.3025 Y33.9930
G01 X-7.2362 Y33.8938
G01 X-7.1370 Y33.8275
G01 X-6.9779 Y33.7958
G01 X-6.7848 Y33.7956
G01 X-6.7639 Y33.7944
G01 X-6.7430 Y33.7922
G01 X-6.7223 Y33.7890
G01 X-6.7018 Y33.7847
G01 X-6.6674 Y33.7752
G01 X-6.6476 Y33.7683
G01 X-6.6225 Y33.7579
G01 X-6.6036 Y33.7488
G01 X-6.5852 Y33.7388
G01 X-6.5673 Y33.7279
G01 X-6.4723 Y33.6645
G01 X-5.9473 Y33.5601
G01 X-4.1870 Y33.5601
G01 X-4.1587 Y33.5591
G01 X-4.1396 Y33.5574
G01 X-4.1171 Y33.5543
G01 X-4.0965 Y33.5503
G01 X-4.0761 Y33.5454
G01 X-4.0560 Y33.5395
G01 X-4.0362 Y33.5325
G01 X-4.0168 Y33.5247
G01 X-3.9978 Y33.5158
G01 X-3.9738 Y33.5030
G01 X-3.9559 Y33.4921
G01 X-3.9386 Y33.4803
G01 X-3.9218 Y33.4677
G01 X-3.9057 Y33.4543
G01 X-3.8903 Y33.4401
G01 X-3.8756 Y33.4252
G01 X-3.8616 Y33.4096
G01 X-3.8449 Y33.3887
G01 X-3.8246 Y33.3588
G01 X-3.8070 Y33.3278
G01 X-3.7911 Y33.2930
G01 X-3.7805 Y33.2640
G01 X-3.7710 Y33.2296
G01 X-3.7668 Y33.2091
G01 X-3.7636 Y33.1884
G01 X-3.7609 Y33.1613
G01 X-3.7599 Y33.1330
G01 X-3.7599 Y31.4929
G01 X-3.7614 Y31.4584
G01 X-3.7657 Y31.4230
G01 X-3.7710 Y31.3963
G01 X-3.7805 Y31.3619
G01 X-3.7911 Y31.3329
G01 X-3.8038 Y31.3044
G01 X-3.8170 Y31.2797
G01 X-3.8361 Y31.2496
G01 X-3.8523 Y31.2277
G01 X-3.8756 Y31.2007
G01 X-3.8948 Y31.1815
G01 X-3.9218 Y31.1582
G01 X-3.9437 Y31.1420
G01 X-3.9738 Y31.1229
G01 X-3.9978 Y31.1101
G01 X-4.0270 Y31.0970
G01 X-4.0501 Y31.0884
G01 X-4.0701 Y31.0822
G01 X-4.0904 Y31.0769
G01 X-4.1109 Y31.0727
G01 X-4.1316 Y31.0695
G01 X-4.1525 Y31.0673
G01 X-4.1734 Y31.0661
G01 X-4.1944 Y31.0659
G01 X-4.2153 Y31.0668
G01 X-4.2344 Y31.0685
G01 X-4.2569 Y31.0716
G01 X-4.2775 Y31.0756
G01 X-4.2979 Y31.0805
G01 X-4.3239 Y31.0884
G01 X-4.3436 Y31.0956
G01 X-4.3629 Y31.1038
G01 X-4.3818 Y31.1129
G01 X-4.4116 Y31.1297
G01 X-4.4303 Y31.1420
G01 X-4.4522 Y31.1582
G01 X-4.4792 Y31.1815
G01 X-4.8920 Y31.5940
G01 X-5.4239 Y31.8144
G01 X-5.4422 Y31.8228
G01 X-5.4614 Y31.8329
G01 X-5.4783 Y31.8428
G01 X-5.4970 Y31.8551
G01 X-5.5288 Y31.8794
G01 X-5.5557 Y31.9040
G01 X-5.9857 Y32.3342
G01 X-6.0039 Y32.3543
G01 X-6.0206 Y32.3752
G01 X-6.0828 Y32.4672
G01 X-6.5128 Y32.7545
G01 X-7.0200 Y32.8554
G01 X-7.1202 Y32.8357
G01 X-7.1409 Y32.8328
G01 X-7.1765 Y32.8302
G01 X-7.8357 Y32.8302
G01 X-7.8696 Y32.8326
G01 X-7.8921 Y32.8357
G01 X-7.9188 Y32.8410
G01 X-7.9391 Y32.8463
G01 X-7.9729 Y32.8575
G01 X-7.9923 Y32.8653
G01 X-8.0169 Y32.8770
G01 X-8.0468 Y32.8938
G01 X-8.0655 Y32.9061
G01 X-8.0873 Y32.9223
G01 X-8.1034 Y32.9357
G01 X-8.1241 Y32.9550
G01 X-11.3405 Y36.1714
G01 X-11.3599 Y36.1921
G01 X-11.3806 Y36.2177
G01 X-11.4428 Y36.3097
G01 X-11.8728 Y36.5970
G01 X-12.3800 Y36.6979
G01 X-12.4802 Y36.6782
G01 X-12.5156 Y36.6739
G01 X-12.5501 Y36.6724
G01 X-13.2689 Y36.6727
G01 X-13.3029 Y36.6751
G01 X-13.3319 Y36.6794
G01 X-13.3670 Y36.6874
G01 X-13.3932 Y36.6954
G01 X-13.4156 Y36.7037
G01 X-13.4459 Y36.7174
G01 X-13.4700 Y36.7305
G01 X-13.5004 Y36.7499
G01 X-13.5223 Y36.7663
G01 X-13.5494 Y36.7900
G01 X-13.5687 Y36.8095
G01 X-13.5920 Y36.8370
G01 X-13.6081 Y36.8591
G01 X-13.6271 Y36.8897
G01 X-13.6398 Y36.9140
G01 X-13.6516 Y36.9407
G01 X-13.6611 Y36.9670
G01 X-13.6688 Y36.9933
G01 X-13.6763 Y37.0285
G01 X-13.6801 Y37.0579
G01 X-13.7014 Y37.0338
G01 X-13.7404 Y36.9929
G01 X-13.7812 Y36.9539
G01 X-13.8293 Y36.9120
G01 X-13.8913 Y36.8636
G01 X-13.9314 Y36.8353
G01 X-13.9851 Y36.8009
G01 X-14.0535 Y36.7622
G01 X-14.1107 Y36.7338
G01 X-14.1657 Y36.7096
G01 X-14.2288 Y36.6856
G01 X-14.2755 Y36.6702
G01 X-14.3369 Y36.6529
G01 X-14.4060 Y36.6371
G01 X-14.4619 Y36.6273
G01 X-14.5399 Y36.6176
G01 X-14.6035 Y36.6133
G01 X-14.6600 Y36.6120
G01 X-15.2995 Y36.6120
G01 X-15.3058 Y36.5874
G01 X-15.3121 Y36.5675
G01 X-15.3202 Y36.5456
G01 X-15.3275 Y36.5288
G01 X-15.3366 Y36.5101
G01 X-15.3533 Y36.4806
G01 X-15.3656 Y36.4619
G01 X-15.3780 Y36.4451
G01 X-15.3951 Y36.4243
G01 X-15.4141 Y36.4040
G01 X-15.4350 Y36.3845
G01 X-15.4510 Y36.3712
G01 X-15.4787 Y36.3510
G01 X-15.6105 Y36.2630
G01 X-15.8873 Y35.8487
G01 X-15.9845 Y35.3600
G01 X-15.8873 Y34.8713
G01 X-15.7094 Y34.6050
G01 X-15.6954 Y34.5817
G01 X-15.6794 Y34.5498
G01 X-15.6690 Y34.5247
G01 X-15.6621 Y34.5049
G01 X-15.6526 Y34.4705
G01 X-15.6472 Y34.4438
G01 X-15.6443 Y34.4231
G01 X-15.6417 Y34.3875
G01 X-15.6415 Y34.3665
G01 X-15.6429 Y34.3394
G01 X-15.6451 Y34.3185
G01 X-15.6497 Y34.2903
G01 X-15.6561 Y34.2630
G01 X-15.6640 Y34.2370
G01 X-15.6726 Y34.2138
G01 X-15.6853 Y34.1854
G01 X-15.6954 Y34.1661
G01 X-15.7094 Y34.1428
G01 X-15.7265 Y34.1182
G01 X-15.7419 Y34.0987
G01 X-15.7571 Y34.0817
G01 X-15.7763 Y34.0625
G01 X-15.7920 Y34.0485
G01 X-15.8128 Y34.0318
G01 X-15.8762 Y33.9887
G01 X-15.9425 Y33.8895
G01 X-15.9742 Y33.7304
G01 X-15.9742 Y32.5770
G01 X-15.9756 Y32.5425
G01 X-15.9800 Y32.5071
G01 X-15.9853 Y32.4804
G01 X-15.9905 Y32.4601
G01 X-16.0017 Y32.4262
G01 X-16.0096 Y32.4068
G01 X-16.0184 Y32.3878
G01 X-16.0312 Y32.3638
G01 X-16.0421 Y32.3459
G01 X-16.0592 Y32.3213
G01 X-16.0747 Y32.3018
G01 X-16.0898 Y32.2848
G01 X-16.1045 Y32.2699
G01 X-16.1247 Y32.2516
G01 X-16.1456 Y32.2349
G01 X-16.1701 Y32.2179
G01 X-16.1935 Y32.2039
G01 X-16.2128 Y32.1938
G01 X-16.2412 Y32.1811
G01 X-16.2643 Y32.1725
G01 X-16.2843 Y32.1663
G01 X-16.3046 Y32.1610
G01 X-16.3252 Y32.1568
G01 X-16.3459 Y32.1536
G01 X-16.3667 Y32.1514
G01 X-16.3876 Y32.1502
G01 X-17.3375 Y32.1499
G01 X-17.3720 Y32.1514
G01 X-17.3929 Y32.1536
G01 X-17.4136 Y32.1568
G01 X-17.4341 Y32.1610
G01 X-17.4544 Y32.1663
G01 X-17.4883 Y32.1775
G01 X-17.5077 Y32.1853
G01 X-17.5267 Y32.1942
G01 X-17.5507 Y32.2070
G01 X-17.5686 Y32.2179
G01 X-17.5932 Y32.2349
G01 X-17.6127 Y32.2504
G01 X-17.6342 Y32.2699
G01 X-17.8469 Y32.4825
G01 X-18.2512 Y32.6499
G01 X-18.6888 Y32.6499
G01 X-19.0931 Y32.4825
G01 X-19.3058 Y32.2699
G01 X-19.3259 Y32.2516
G01 X-19.3541 Y32.2297
G01 X-19.3767 Y32.2146
G01 X-19.3947 Y32.2039
G01 X-19.4140 Y32.1938
G01 X-19.4425 Y32.1811
G01 X-19.4656 Y32.1725
G01 X-19.4916 Y32.1646
G01 X-19.5189 Y32.1582
G01 X-19.5471 Y32.1536
G01 X-19.5742 Y32.1509
G01 X-19.6025 Y32.1499
G01 X-22.5230 Y32.1499
G01 X-22.5513 Y32.1509
G01 X-22.5704 Y32.1526
G01 X-22.5929 Y32.1557
G01 X-22.6135 Y32.1597
G01 X-22.6339 Y32.1646
G01 X-22.6540 Y32.1705
G01 X-22.6738 Y32.1775
G01 X-22.6989 Y32.1879
G01 X-22.7178 Y32.1970
G01 X-22.7362 Y32.2070
G01 X-22.7541 Y32.2179
G01 X-22.7714 Y32.2297
G01 X-22.7882 Y32.2423
G01 X-22.8043 Y32.2557
G01 X-22.8301 Y32.2803
G01 X-22.8484 Y32.3004
G01 X-22.8616 Y32.3167
G01 X-22.8739 Y32.3337
G01 X-22.8854 Y32.3512
G01 X-22.8961 Y32.3692
G01 X-22.9062 Y32.3885
G01 X-22.9147 Y32.4068
G01 X-22.9225 Y32.4262
G01 X-22.9295 Y32.4460
G01 X-22.9354 Y32.4661
G01 X-22.9403 Y32.4865
G01 X-22.9443 Y32.5071
G01 X-22.9472 Y32.5278
G01 X-22.9497 Y32.5634
G00 Z1.0000
G00 X-24.2897 Y26.3168
G01 F76.20
G01 Z-0.2000
G01 F120.00
G01 X-24.2898 Y30.5787
G01 X-24.2874 Y30.6126
G01 X-24.2843 Y30.6351
G01 X-24.2790 Y30.6617
G01 X-24.2737 Y30.6820
G01 X-24.2625 Y30.7159
G01 X-24.2546 Y30.7353
G01 X-24.2458 Y30.7543
G01 X-24.2330 Y30.7783
G01 X-24.2221 Y30.7962
G01 X-24.2051 Y30.8208
G01 X-24.1896 Y30.8403
G01 X-24.1701 Y30.8618
G01 X-24.1552 Y30.8766
G01 X-24.1396 Y30.8905
G01 X-24.1187 Y30.9072
G01 X-24.0941 Y30.9242
G01 X-24.0708 Y30.9382
G01 X-24.0389 Y30.9543
G01 X-24.0138 Y30.9647
G01 X-23.9799 Y30.9759
G01 X-23.9466 Y30.9839
G01 X-23.9184 Y30.9886
G01 X-23.8913 Y30.9912
G01 X-23.8630 Y30.9922
G01 X-23.8285 Y30.9908
G01 X-23.7931 Y30.9864
G01 X-23.5500 Y30.9383
G01 X-23.5188 Y30.9443
G01 X-23.4980 Y30.9472
G01 X-23.4772 Y30.9491
G01 X-23.4489 Y30.9501
G01 X-19.6025 Y30.9501
G01 X-19.5680 Y30.9486
G01 X-19.5326 Y30.9443
G01 X-19.5059 Y30.9390
G01 X-19.4856 Y30.9337
G01 X-19.4517 Y30.9225
G01 X-19.4266 Y30.9121
G01 X-19.4077 Y30.9030
G01 X-19.3779 Y30.8862
G01 X-19.3592 Y30.8739
G01 X-19.3273 Y30.8496
G01 X-19.3058 Y30.8301
G01 X-19.0931 Y30.6175
G01 X-18.6888 Y30.4501
G01 X-18.2512 Y30.4501
G01 X-17.8469 Y30.6175
G01 X-17.6342 Y30.8301
G01 X-17.6141 Y30.8484
G01 X-17.5932 Y30.8651
G01 X-17.5686 Y30.8821
G01 X-17.5507 Y30.8930
G01 X-17.5323 Y30.9030
G01 X-17.5134 Y30.9121
G01 X-17.4883 Y30.9225
G01 X-17.4685 Y30.9295
G01 X-17.4484 Y30.9354
G01 X-17.4211 Y30.9418
G01 X-17.3867 Y30.9472
G01 X-17.3658 Y30.9491
G01 X-17.3375 Y30.9501
G01 X-16.0311 Y30.9501
G01 X-16.0028 Y30.9491
G01 X-15.9837 Y30.9474
G01 X-15.9612 Y30.9443
G01 X-15.9300 Y30.9383
G01 X-15.6959 Y30.9849
G01 X-15.4975 Y31.1175
G01 X-15.4708 Y31.1556
G01 X-15.4536 Y31.1766
G01 X-15.4394 Y31.1920
G01 X-15.2033 Y31.4282
G01 X-15.1826 Y31.4476
G01 X-15.1665 Y31.4610
G01 X-15.1498 Y31.4736
G01 X-15.1324 Y31.4854
G01 X-15.1145 Y31.4963
G01 X-15.0961 Y31.5063
G01 X-15.0614 Y31.5222
G01 X-15.0383 Y31.5308
G01 X-15.0182 Y31.5370
G01 X-14.9979 Y31.5422
G01 X-14.9713 Y31.5475
G01 X-14.9359 Y31.5519
G01 X-14.9087 Y31.5532
G01 X-13.7021 Y31.5533
G01 X-13.5430 Y31.5850
G01 X-13.4438 Y31.6513
G01 X-13.3775 Y31.7505
G01 X-13.3458 Y31.9096
G01 X-13.3458 Y33.4689
G01 X-13.3449 Y33.4972
G01 X-13.3422 Y33.5243
G01 X-13.3376 Y33.5525
G01 X-13.3295 Y33.5858
G01 X-13.3233 Y33.6058
G01 X-13.3147 Y33.6290
G01 X-13.2988 Y33.6637
G01 X-13.2888 Y33.6821
G01 X-13.2779 Y33.7000
G01 X-13.2661 Y33.7173
G01 X-13.2535 Y33.7341
G01 X-13.2401 Y33.7502
G01 X-13.2259 Y33.7656
G01 X-13.2110 Y33.7803
G01 X-13.1953 Y33.7943
G01 X-13.1672 Y33.8162
G01 X-13.1499 Y33.8280
G01 X-13.1320 Y33.8389
G01 X-13.1135 Y33.8489
G01 X-13.0947 Y33.8580
G01 X-13.0788 Y33.8648
G01 X-13.0557 Y33.8734
G01 X-13.0296 Y33.8813
G01 X-13.0093 Y33.8862
G01 X-12.9887 Y33.8902
G01 X-12.9679 Y33.8931
G01 X-12.9471 Y33.8950
G01 X-12.9261 Y33.8959
G01 X-12.9052 Y33.8957
G01 X-12.8842 Y33.8946
G01 X-12.8634 Y33.8923
G01 X-12.8427 Y33.8891
G01 X-12.8222 Y33.8849
G01 X-12.7878 Y33.8754
G01 X-12.7622 Y33.8662
G01 X-12.7303 Y33.8521
G01 X-12.7110 Y33.8420
G01 X-12.6877 Y33.8280
G01 X-12.6631 Y33.8110
G01 X-12.6375 Y33.7902
G01 X-12.6168 Y33.7709
G01 X-9.5770 Y30.7311
G01 X-9.5576 Y30.7104
G01 X-9.5369 Y30.6848
G01 X-9.4747 Y30.5928
G01 X-9.0447 Y30.3055
G01 X-8.5375 Y30.2046
G01 X-8.4373 Y30.2243
G01 X-8.4166 Y30.2272
G01 X-8.3810 Y30.2298
G01 X-7.7217 Y30.2298
G01 X-7.6879 Y30.2274
G01 X-7.6654 Y30.2243
G01 X-7.6387 Y30.2190
G01 X-7.6184 Y30.2137
G01 X-7.5846 Y30.2025
G01 X-7.5651 Y30.1947
G01 X-7.5461 Y30.1858
G01 X-7.5222 Y30.1730
G01 X-7.4920 Y30.1539
G01 X-7.4602 Y30.1296
G01 X-7.4386 Y30.1101
G01 X-7.3940 Y30.0657
G01 X-7.3747 Y30.0450
G01 X-7.3575 Y30.0239
G01 X-7.3451 Y30.0070
G01 X-7.3260 Y29.9769
G01 X-7.3128 Y29.9522
G01 X-7.3015 Y29.9271
G01 X-7.0840 Y29.4020
G01 X-6.6480 Y28.9660
G01 X-6.0783 Y28.7301
G01 X-5.4617 Y28.7301
G01 X-4.8920 Y28.9660
G01 X-4.4890 Y29.3691
G01 X-4.4683 Y29.3884
G01 X-4.4522 Y29.4018
G01 X-4.4354 Y29.4144
G01 X-4.4181 Y29.4262
G01 X-4.4002 Y29.4371
G01 X-4.3755 Y29.4503
G01 X-4.3378 Y29.4666
G01 X-4.3039 Y29.4778
G01 X-4.2706 Y29.4859
G01 X-4.2362 Y29.4913
G01 X-4.2006 Y29.4939
G01 X-4.1734 Y29.4939
G01 X-4.1525 Y29.4927
G01 X-4.1316 Y29.4905
G01 X-4.1034 Y29.4859
G01 X-4.0701 Y29.4778
G01 X-4.0362 Y29.4666
G01 X-3.9985 Y29.4503
G01 X-3.9738 Y29.4371
G01 X-3.9437 Y29.4180
G01 X-3.9118 Y29.3937
G01 X-3.8850 Y29.3691
G01 X-3.8616 Y29.3437
G01 X-3.8397 Y29.3155
G01 X-3.8246 Y29.2929
G01 X-3.8070 Y29.2619
G01 X-3.7953 Y29.2373
G01 X-3.7825 Y29.2040
G01 X-3.7746 Y29.1780
G01 X-3.7668 Y29.1432
G01 X-3.7628 Y29.1163
G01 X-3.7602 Y29.0807
G01 X-3.7599 Y26.4129
G01 X-3.7614 Y26.3784
G01 X-3.7657 Y26.3430
G01 X-3.7710 Y26.3163
G01 X-3.7763 Y26.2960
G01 X-3.7825 Y26.2760
G01 X-3.7911 Y26.2529
G01 X-3.7979 Y26.2370
G01 X-3.8139 Y26.2051
G01 X-3.8238 Y26.1883
G01 X-3.8361 Y26.1696
G01 X-3.8523 Y26.1477
G01 X-3.8756 Y26.1207
G01 X-3.8948 Y26.1015
G01 X-3.9218 Y26.0782
G01 X-3.9437 Y26.0620
G01 X-3.9738 Y26.0429
G01 X-3.9985 Y26.0297
G01 X-4.0270 Y26.0170
G01 X-4.0560 Y26.0065
G01 X-4.0904 Y25.9969
G01 X-4.1171 Y25.9916
G01 X-4.1525 Y25.9873
G01 X-4.1796 Y25.9859
G01 X-4.2153 Y25.9868
G01 X-4.2424 Y25.9895
G01 X-4.2706 Y25.9941
G01 X-4.2979 Y26.0005
G01 X-4.3239 Y26.0084
G01 X-4.3470 Y26.0170
G01 X-4.3755 Y26.0297
G01 X-4.3948 Y26.0398
G01 X-4.4116 Y26.0497
G01 X-4.4303 Y26.0620
G01 X-4.4473 Y26.0743
G01 X-4.4683 Y26.0916
G01 X-4.4890 Y26.1109
G01 X-4.8920 Y26.5140
G01 X-5.4617 Y26.7499
G01 X-6.0783 Y26.7499
G01 X-6.6480 Y26.5140
G01 X-7.0840 Y26.0780
G01 X-7.3199 Y25.5083
G01 X-7.3199 Y24.8917
G01 X-7.0840 Y24.3220
G01 X-6.6480 Y23.8860
G01 X-6.0783 Y23.6501
G01 X-5.4617 Y23.6501
G01 X-4.8920 Y23.8860
G01 X-4.4890 Y24.2891
G01 X-4.4683 Y24.3084
G01 X-4.4473 Y24.3257
G01 X-4.4303 Y24.3380
G01 X-4.4128 Y24.3495
G01 X-4.3948 Y24.3602
G01 X-4.3755 Y24.3703
G01 X-4.3470 Y24.3830
G01 X-4.3239 Y24.3916
G01 X-4.3039 Y24.3978
G01 X-4.2706 Y24.4059
G01 X-4.2424 Y24.4105
G01 X-4.2153 Y24.4132
G01 X-4.1870 Y24.4142
G01 X-4.1587 Y24.4132
G01 X-4.1316 Y24.4105
G01 X-4.1034 Y24.4059
G01 X-4.0761 Y24.3995
G01 X-4.0501 Y24.3916
G01 X-4.0270 Y24.3830
G01 X-3.9985 Y24.3703
G01 X-3.9738 Y24.3571
G01 X-3.9559 Y24.3462
G01 X-3.9267 Y24.3257
G01 X-3.9057 Y24.3084
G01 X-3.8799 Y24.2838
G01 X-3.8657 Y24.2684
G01 X-3.8523 Y24.2523
G01 X-3.8397 Y24.2355
G01 X-3.8279 Y24.2182
G01 X-3.8170 Y24.2003
G01 X-3.8070 Y24.1819
G01 X-3.7953 Y24.1573
G01 X-3.7875 Y24.1379
G01 X-3.7805 Y24.1181
G01 X-3.7710 Y24.0837
G01 X-3.7668 Y24.0632
G01 X-3.7636 Y24.0425
G01 X-3.7614 Y24.0216
G01 X-3.7602 Y24.0007
G01 X-3.7599 Y21.3329
G01 X-3.7609 Y21.3046
G01 X-3.7626 Y21.2855
G01 X-3.7657 Y21.2630
G01 X-3.7710 Y21.2363
G01 X-3.7805 Y21.2019
G01 X-3.7875 Y21.1821
G01 X-3.7953 Y21.1627
G01 X-3.8070 Y21.1381
G01 X-3.8170 Y21.1197
G01 X-3.8279 Y21.1018
G01 X-3.8484 Y21.0726
G01 X-3.8604 Y21.0577
G01 X-3.8756 Y21.0407
G01 X-3.8903 Y21.0258
G01 X-3.9057 Y21.0116
G01 X-3.9313 Y20.9908
G01 X-3.9612 Y20.9705
G01 X-3.9792 Y20.9598
G01 X-3.9985 Y20.9497
G01 X-4.0362 Y20.9334
G01 X-4.0701 Y20.9222
G01 X-4.1034 Y20.9141
G01 X-4.1378 Y20.9087
G01 X-4.1587 Y20.9068
G01 X-4.1796 Y20.9059
G01 X-4.2153 Y20.9068
G01 X-4.2424 Y20.9095
G01 X-4.2775 Y20.9156
G01 X-4.3039 Y20.9222
G01 X-4.3378 Y20.9334
G01 X-4.3629 Y20.9438
G01 X-4.3948 Y20.9598
G01 X-4.4181 Y20.9738
G01 X-4.4473 Y20.9943
G01 X-4.4683 Y21.0116
G01 X-4.4890 Y21.0309
G01 X-4.8920 Y21.4340
G01 X-5.4617 Y21.6699
G01 X-6.0783 Y21.6699
G01 X-6.6034 Y21.4524
G01 X-6.6299 Y21.4425
G01 X-6.6559 Y21.4346
G01 X-6.6907 Y21.4268
G01 X-6.7114 Y21.4236
G01 X-6.7323 Y21.4214
G01 X-6.7594 Y21.4200
G01 X-6.8298 Y21.4200
G01 X-6.8569 Y21.4214
G01 X-6.8924 Y21.4257
G01 X-6.9190 Y21.4310
G01 X-6.9534 Y21.4405
G01 X-6.9732 Y21.4475
G01 X-6.9983 Y21.4579
G01 X-7.0172 Y21.4670
G01 X-7.0470 Y21.4838
G01 X-7.0658 Y21.4961
G01 X-7.0876 Y21.5123
G01 X-7.1037 Y21.5257
G01 X-7.1244 Y21.5450
G01 X-8.4084 Y22.8292
G01 X-8.4267 Y22.8493
G01 X-8.4434 Y22.8702
G01 X-8.5056 Y22.9622
G01 X-8.9356 Y23.2495
G01 X-9.4428 Y23.3504
G01 X-9.5429 Y23.3307
G01 X-9.5783 Y23.3264
G01 X-9.6129 Y23.3249
G01 X-11.0172 Y23.3249
G01 X-11.0455 Y23.3259
G01 X-11.0646 Y23.3276
G01 X-11.0871 Y23.3307
G01 X-11.1138 Y23.3360
G01 X-11.1341 Y23.3413
G01 X-11.1541 Y23.3475
G01 X-11.1772 Y23.3561
G01 X-11.1931 Y23.3629
G01 X-11.2119 Y23.3720
G01 X-11.2303 Y23.3820
G01 X-11.2482 Y23.3929
G01 X-11.2728 Y23.4099
G01 X-11.2923 Y23.4254
G01 X-11.3139 Y23.4449
G01 X-11.3457 Y23.4767
G01 X-11.3639 Y23.4968
G01 X-11.3771 Y23.5131
G01 X-11.3895 Y23.5301
G01 X-11.4428 Y23.6097
G01 X-11.8728 Y23.8970
G01 X-12.3800 Y23.9979
G01 X-12.4802 Y23.9782
G01 X-12.5156 Y23.9739
G01 X-12.5501 Y23.9724
G01 X-13.2626 Y23.9725
G01 X-13.2900 Y23.9739
G01 X-13.3110 Y23.9761
G01 X-13.3390 Y23.9807
G01 X-13.3670 Y23.9874
G01 X-13.3932 Y23.9954
G01 X-13.4268 Y24.0085
G01 X-13.4515 Y24.0203
G01 X-13.4700 Y24.0305
G01 X-13.4881 Y24.0416
G01 X-13.5114 Y24.0579
G01 X-13.5385 Y24.0800
G01 X-13.5578 Y24.0981
G01 X-13.5826 Y24.1254
G01 X-13.6046 Y24.1540
G01 X-13.6196 Y24.1769
G01 X-13.6370 Y24.2084
G01 X-13.6485 Y24.2333
G01 X-13.6611 Y24.2670
G01 X-13.6688 Y24.2933
G01 X-13.6763 Y24.3285
G01 X-13.6801 Y24.3579
G01 X-13.7014 Y24.3338
G01 X-13.7404 Y24.2929
G01 X-13.7812 Y24.2539
G01 X-13.8293 Y24.2120
G01 X-13.8913 Y24.1636
G01 X-13.9314 Y24.1353
G01 X-13.9851 Y24.1009
G01 X-14.0535 Y24.0622
G01 X-14.1107 Y24.0338
G01 X-14.1657 Y24.0096
G01 X-14.2288 Y23.9856
G01 X-14.2755 Y23.9702
G01 X-14.3369 Y23.9529
G01 X-14.4060 Y23.9371
G01 X-14.4619 Y23.9273
G01 X-14.5399 Y23.9176
G01 X-14.6035 Y23.9133
G01 X-14.6600 Y23.9120
G01 X-15.2995 Y23.9120
G01 X-15.3058 Y23.8874
G01 X-15.3121 Y23.8675
G01 X-15.3202 Y23.8456
G01 X-15.3275 Y23.8288
G01 X-15.3366 Y23.8101
G01 X-15.3533 Y23.7806
G01 X-15.3656 Y23.7619
G01 X-15.3780 Y23.7451
G01 X-15.3951 Y23.7243
G01 X-15.4141 Y23.7040
G01 X-15.4350 Y23.6845
G01 X-15.4510 Y23.6712
G01 X-15.4787 Y23.6510
G01 X-15.6105 Y23.5630
G01 X-15.8873 Y23.1487
G01 X-15.9845 Y22.6600
G01 X-15.8873 Y22.1713
G01 X-15.7094 Y21.9050
G01 X-15.6954 Y21.8817
G01 X-15.6794 Y21.8498
G01 X-15.6690 Y21.8247
G01 X-15.6621 Y21.8049
G01 X-15.6526 Y21.7705
G01 X-15.6483 Y21.7500
G01 X-15.6451 Y21.7293
G01 X-15.6424 Y21.7022
G01 X-15.6415 Y21.6739
G01 X-15.6424 Y21.6456
G01 X-15.6451 Y21.6185
G01 X-15.6497 Y21.5903
G01 X-15.6561 Y21.5630
G01 X-15.6621 Y21.5429
G01 X-15.6726 Y21.5138
G01 X-15.6853 Y21.4854
G01 X-15.6954 Y21.4661
G01 X-15.7094 Y21.4428
G01 X-15.7265 Y21.4182
G01 X-15.7419 Y21.3987
G01 X-15.7571 Y21.3817
G01 X-15.7763 Y21.3625
G01 X-15.7920 Y21.3485
G01 X-15.8128 Y21.3318
G01 X-15.8762 Y21.2887
G01 X-15.9425 Y21.1895
G01 X-15.9742 Y21.0304
G01 X-15.9742 Y19.8770
G01 X-15.9751 Y19.8487
G01 X-15.9768 Y19.8296
G01 X-15.9800 Y19.8071
G01 X-15.9839 Y19.7865
G01 X-15.9889 Y19.7661
G01 X-15.9948 Y19.7460
G01 X-16.0017 Y19.7262
G01 X-16.0096 Y19.7068
G01 X-16.0181 Y19.6885
G01 X-16.0282 Y19.6692
G01 X-16.0380 Y19.6524
G01 X-16.0503 Y19.6337
G01 X-16.0747 Y19.6018
G01 X-16.0898 Y19.5848
G01 X-16.1045 Y19.5699
G01 X-16.1200 Y19.5557
G01 X-16.1361 Y19.5423
G01 X-16.1579 Y19.5261
G01 X-16.1880 Y19.5070
G01 X-16.2127 Y19.4938
G01 X-16.2446 Y19.4797
G01 X-16.2703 Y19.4705
G01 X-16.3046 Y19.4610
G01 X-16.3252 Y19.4568
G01 X-16.3459 Y19.4536
G01 X-16.3729 Y19.4509
G01 X-16.4012 Y19.4499
G01 X-17.3375 Y19.4499
G01 X-17.3658 Y19.4509
G01 X-17.3849 Y19.4526
G01 X-17.4211 Y19.4582
G01 X-17.4484 Y19.4646
G01 X-17.4685 Y19.4705
G01 X-17.4883 Y19.4775
G01 X-17.5134 Y19.4879
G01 X-17.5323 Y19.4970
G01 X-17.5507 Y19.5070
G01 X-17.5686 Y19.5179
G01 X-17.5932 Y19.5349
G01 X-17.6127 Y19.5504
G01 X-17.6342 Y19.5699
G01 X-17.8469 Y19.7825
G01 X-18.2512 Y19.9499
G01 X-18.6888 Y19.9499
G01 X-19.0931 Y19.7825
G01 X-19.1664 Y19.7095
G01 X-19.1820 Y19.6956
G01 X-19.1983 Y19.6824
G01 X-19.2275 Y19.6618
G01 X-19.2454 Y19.6509
G01 X-19.2701 Y19.6378
G01 X-19.2985 Y19.6250
G01 X-19.3276 Y19.6145
G01 X-19.3619 Y19.6050
G01 X-19.3886 Y19.5997
G01 X-19.4240 Y19.5953
G01 X-19.4586 Y19.5939
G01 X-19.4931 Y19.5953
G01 X-19.5285 Y19.5997
G01 X-19.5552 Y19.6050
G01 X-19.5895 Y19.6145
G01 X-19.6151 Y19.6237
G01 X-19.6470 Y19.6378
G01 X-19.6663 Y19.6479
G01 X-19.6896 Y19.6618
G01 X-19.7142 Y19.6789
G01 X-19.7337 Y19.6944
G01 X-19.7553 Y19.7138
G01 X-22.8200 Y22.7784
G01 X-22.8434 Y22.8038
G01 X-22.8653 Y22.8320
G01 X-22.8771 Y22.8493
G01 X-22.8911 Y22.8726
G01 X-22.9071 Y22.9045
G01 X-22.9175 Y22.9296
G01 X-22.9287 Y22.9635
G01 X-22.9353 Y22.9899
G01 X-22.9414 Y23.0250
G01 X-22.9441 Y23.0521
G01 X-22.9451 Y23.0804
G01 X-22.9451 Y24.4589
G01 X-22.9441 Y24.4872
G01 X-22.9424 Y24.5063
G01 X-22.9393 Y24.5288
G01 X-22.9333 Y24.5600
G01 X-22.9799 Y24.7941
G01 X-23.1125 Y24.9925
G01 X-23.1388 Y25.0104
G01 X-23.1555 Y25.0230
G01 X-23.1716 Y25.0364
G01 X-23.1923 Y25.0557
G01 X-24.1650 Y26.0284
G01 X-24.1884 Y26.0538
G01 X-24.2016 Y26.0701
G01 X-24.2139 Y26.0871
G01 X-24.2330 Y26.1172
G01 X-24.2462 Y26.1419
G01 X-24.2625 Y26.1796
G01 X-24.2737 Y26.2135
G01 X-24.2818 Y26.2468
G01 X-24.2872 Y26.2812
G01 X-24.2897 Y26.3168
G00 Z1.0000
G00 X-25.5598 Y21.6399
G01 F76.20
G01 Z-0.2000
G01 F120.00
G01 X-25.5601 Y24.6956
G01 X-25.5591 Y24.7239
G01 X-25.5564 Y24.7510
G01 X-25.5532 Y24.7717
G01 X-25.5490 Y24.7922
G01 X-25.5437 Y24.8125
G01 X-25.5375 Y24.8325
G01 X-25.5289 Y24.8556
G01 X-25.5221 Y24.8715
G01 X-25.5061 Y24.9034
G01 X-25.4962 Y24.9202
G01 X-25.4839 Y24.9389
G01 X-25.4596 Y24.9708
G01 X-25.4444 Y24.9878
G01 X-25.4297 Y25.0027
G01 X-25.4143 Y25.0169
G01 X-25.3982 Y25.0303
G01 X-25.3814 Y25.0429
G01 X-25.3641 Y25.0547
G01 X-25.3462 Y25.0656
G01 X-25.3278 Y25.0756
G01 X-25.2930 Y25.0915
G01 X-25.2699 Y25.1001
G01 X-25.2499 Y25.1063
G01 X-25.2296 Y25.1116
G01 X-25.2091 Y25.1158
G01 X-25.1884 Y25.1190
G01 X-25.1675 Y25.1212
G01 X-25.1466 Y25.1224
G01 X-25.1256 Y25.1226
G01 X-25.0856 Y25.1200
G01 X-25.0494 Y25.1144
G01 X-25.0221 Y25.1080
G01 X-25.0020 Y25.1020
G01 X-24.9822 Y25.0951
G01 X-24.9571 Y25.0847
G01 X-24.9252 Y25.0687
G01 X-24.9019 Y25.0547
G01 X-24.8727 Y25.0342
G01 X-24.8578 Y25.0222
G01 X-24.8408 Y25.0070
G01 X-24.2606 Y24.4268
G01 X-24.2466 Y24.4112
G01 X-24.2334 Y24.3949
G01 X-24.2211 Y24.3779
G01 X-24.2096 Y24.3604
G01 X-24.1989 Y24.3424
G01 X-24.1888 Y24.3231
G01 X-24.1725 Y24.2854
G01 X-24.1656 Y24.2656
G01 X-24.1596 Y24.2455
G01 X-24.1518 Y24.2107
G01 X-24.1486 Y24.1900
G01 X-24.1464 Y24.1691
G01 X-24.1449 Y24.1346
G01 X-24.1449 Y22.7561
G01 X-24.1459 Y22.7278
G01 X-24.1476 Y22.7087
G01 X-24.1507 Y22.6862
G01 X-24.1567 Y22.6550
G01 X-24.1101 Y22.4209
G01 X-23.9775 Y22.2225
G01 X-23.9512 Y22.2046
G01 X-23.9345 Y22.1920
G01 X-23.9184 Y22.1786
G01 X-23.8977 Y22.1593
G01 X-20.2357 Y18.4973
G01 X-20.2164 Y18.4766
G01 X-20.2030 Y18.4605
G01 X-20.1904 Y18.4438
G01 X-20.1725 Y18.4175
G01 X-19.9741 Y18.2849
G01 X-19.7400 Y18.2383
G01 X-19.6942 Y18.2464
G01 X-19.6734 Y18.2486
G01 X-19.6524 Y18.2498
G01 X-19.5889 Y18.2498
G01 X-19.5680 Y18.2486
G01 X-19.5471 Y18.2464
G01 X-19.5189 Y18.2418
G01 X-19.4856 Y18.2337
G01 X-19.4517 Y18.2225
G01 X-19.4266 Y18.2121
G01 X-19.3947 Y18.1961
G01 X-19.3714 Y18.1821
G01 X-19.3468 Y18.1651
G01 X-19.3212 Y18.1443
G01 X-19.3005 Y18.1250
G01 X-19.0931 Y17.9175
G01 X-18.6888 Y17.7501
G01 X-18.2512 Y17.7501
G01 X-17.8469 Y17.9175
G01 X-17.6342 Y18.1301
G01 X-17.6141 Y18.1484
G01 X-17.5932 Y18.1651
G01 X-17.5686 Y18.1821
G01 X-17.5507 Y18.1930
G01 X-17.5267 Y18.2058
G01 X-17.5077 Y18.2147
G01 X-17.4883 Y18.2225
G01 X-17.4544 Y18.2337
G01 X-17.4341 Y18.2390
G01 X-17.4136 Y18.2432
G01 X-17.3929 Y18.2464
G01 X-17.3720 Y18.2486
G01 X-17.3375 Y18.2501
G01 X-16.0311 Y18.2501
G01 X-16.0028 Y18.2491
G01 X-15.9837 Y18.2474
G01 X-15.9612 Y18.2443
G01 X-15.9300 Y18.2383
G01 X-15.6959 Y18.2849
G01 X-15.4975 Y18.4175
G01 X-15.4708 Y18.4556
G01 X-15.4536 Y18.4766
G01 X-15.4394 Y18.4920
G01 X-15.2033 Y18.7282
G01 X-15.1826 Y18.7476
G01 X-15.1665 Y18.7610
G01 X-15.1447 Y18.7772
G01 X-15.1272 Y18.7887
G01 X-15.1091 Y18.7993
G01 X-15.0898 Y18.8094
G01 X-15.0614 Y18.8222
G01 X-15.0383 Y18.8308
G01 X-15.0122 Y18.8386
G01 X-14.9919 Y18.8436
G01 X-14.9713 Y18.8475
G01 X-14.9505 Y18.8505
G01 X-14.9296 Y18.8524
G01 X-14.9013 Y18.8533
G01 X-13.7021 Y18.8533
G01 X-13.5430 Y18.8850
G01 X-13.4438 Y18.9513
G01 X-13.3775 Y19.0505
G01 X-13.3458 Y19.2096
G01 X-13.3458 Y20.7406
G01 X-13.3449 Y20.7689
G01 X-13.3422 Y20.7960
G01 X-13.3376 Y20.8242
G01 X-13.3311 Y20.8515
G01 X-13.3233 Y20.8775
G01 X-13.3104 Y20.9108
G01 X-13.2988 Y20.9354
G01 X-13.2820 Y20.9652
G01 X-13.2661 Y20.9890
G01 X-13.2453 Y21.0158
G01 X-13.2207 Y21.0426
G01 X-13.2000 Y21.0619
G01 X-13.1745 Y21.0826
G01 X-13.1446 Y21.1030
G01 X-13.1135 Y21.1206
G01 X-13.0890 Y21.1322
G01 X-13.0557 Y21.1451
G01 X-13.0296 Y21.1530
G01 X-13.0024 Y21.1594
G01 X-12.9679 Y21.1648
G01 X-12.9471 Y21.1667
G01 X-12.9114 Y21.1676
G01 X-12.8842 Y21.1662
G01 X-12.8488 Y21.1619
G01 X-12.8222 Y21.1566
G01 X-12.7878 Y21.1470
G01 X-12.7587 Y21.1365
G01 X-12.7303 Y21.1238
G01 X-12.7056 Y21.1106
G01 X-12.6815 Y21.0957
G01 X-12.2397 Y20.8005
G01 X-11.7325 Y20.6996
G01 X-11.6323 Y20.7193
G01 X-11.5969 Y20.7236
G01 X-11.5698 Y20.7250
G01 X-10.1581 Y20.7251
G01 X-10.1298 Y20.7241
G01 X-10.1107 Y20.7224
G01 X-10.0882 Y20.7193
G01 X-10.0676 Y20.7153
G01 X-10.0412 Y20.7087
G01 X-10.0212 Y20.7025
G01 X-9.9981 Y20.6939
G01 X-9.9822 Y20.6871
G01 X-9.9503 Y20.6711
G01 X-9.9335 Y20.6612
G01 X-9.9148 Y20.6489
G01 X-9.8829 Y20.6246
G01 X-9.8561 Y20.6000
G01 X-8.5721 Y19.3158
G01 X-8.5538 Y19.2957
G01 X-8.5372 Y19.2748
G01 X-8.4750 Y19.1828
G01 X-8.0450 Y18.8955
G01 X-7.5378 Y18.7946
G01 X-7.4376 Y18.8143
G01 X-7.4169 Y18.8172
G01 X-7.3813 Y18.8198
G01 X-6.7668 Y18.8201
G01 X-6.7385 Y18.8191
G01 X-6.7114 Y18.8164
G01 X-6.6832 Y18.8118
G01 X-6.6559 Y18.8054
G01 X-6.6358 Y18.7995
G01 X-6.6102 Y18.7903
G01 X-6.0783 Y18.5701
G01 X-5.4617 Y18.5701
G01 X-4.8920 Y18.8060
G01 X-4.4792 Y19.2185
G01 X-4.4522 Y19.2418
G01 X-4.4303 Y19.2580
G01 X-4.4002 Y19.2771
G01 X-4.3755 Y19.2903
G01 X-4.3470 Y19.3030
G01 X-4.3239 Y19.3116
G01 X-4.3039 Y19.3178
G01 X-4.2836 Y19.3231
G01 X-4.2569 Y19.3284
G01 X-4.2362 Y19.3313
G01 X-4.2153 Y19.3332
G01 X-4.1870 Y19.3342
G01 X-4.1587 Y19.3332
G01 X-4.1396 Y19.3315
G01 X-4.1171 Y19.3284
G01 X-4.0904 Y19.3231
G01 X-4.0701 Y19.3178
G01 X-4.0501 Y19.3116
G01 X-4.0270 Y19.3030
G01 X-3.9985 Y19.2903
G01 X-3.9792 Y19.2802
G01 X-3.9559 Y19.2662
G01 X-3.9313 Y19.2492
G01 X-3.9104 Y19.2325
G01 X-3.8903 Y19.2142
G01 X-3.8756 Y19.1993
G01 X-3.8523 Y19.1723
G01 X-3.8361 Y19.1504
G01 X-3.8170 Y19.1203
G01 X-3.8042 Y19.0963
G01 X-3.7911 Y19.0671
G01 X-3.7825 Y19.0440
G01 X-3.7746 Y19.0180
G01 X-3.7682 Y18.9907
G01 X-3.7636 Y18.9625
G01 X-3.7609 Y18.9354
G01 X-3.7599 Y18.9071
G01 X-3.7599 Y17.2670
G01 X-3.7609 Y17.2387
G01 X-3.7626 Y17.2196
G01 X-3.7657 Y17.1971
G01 X-3.7710 Y17.1704
G01 X-3.7805 Y17.1360
G01 X-3.7911 Y17.1070
G01 X-3.8070 Y17.0722
G01 X-3.8238 Y17.0424
G01 X-3.8397 Y17.0186
G01 X-3.8604 Y16.9918
G01 X-3.8756 Y16.9748
G01 X-3.8903 Y16.9599
G01 X-3.9057 Y16.9457
G01 X-3.9218 Y16.9323
G01 X-3.9386 Y16.9197
G01 X-3.9559 Y16.9079
G01 X-3.9738 Y16.8970
G01 X-3.9922 Y16.8870
G01 X-4.0270 Y16.8711
G01 X-4.0501 Y16.8625
G01 X-4.0701 Y16.8563
G01 X-4.0904 Y16.8510
G01 X-4.1109 Y16.8468
G01 X-4.1316 Y16.8436
G01 X-4.1525 Y16.8414
G01 X-4.1870 Y16.8399
G01 X-5.9473 Y16.8399
G01 X-6.4723 Y16.7355
G01 X-7.0677 Y16.3377
G01 X-7.4655 Y15.7423
G01 X-7.6052 Y15.0400
G01 X-7.4655 Y14.3377
G01 X-7.0677 Y13.7423
G01 X-6.4723 Y13.3445
G01 X-5.9473 Y13.2401
G01 X-4.1870 Y13.2401
G01 X-4.1525 Y13.2386
G01 X-4.1316 Y13.2364
G01 X-4.1109 Y13.2332
G01 X-4.0761 Y13.2254
G01 X-4.0560 Y13.2195
G01 X-4.0362 Y13.2125
G01 X-3.9985 Y13.1962
G01 X-3.9624 Y13.1762
G01 X-3.9313 Y13.1551
G01 X-3.9057 Y13.1343
G01 X-3.8903 Y13.1201
G01 X-3.8756 Y13.1052
G01 X-3.8616 Y13.0896
G01 X-3.8484 Y13.0733
G01 X-3.8279 Y13.0441
G01 X-3.8170 Y13.0262
G01 X-3.8070 Y13.0078
G01 X-3.7911 Y12.9730
G01 X-3.7825 Y12.9499
G01 X-3.7763 Y12.9299
G01 X-3.7682 Y12.8966
G01 X-3.7628 Y12.8622
G01 X-3.7602 Y12.8266
G01 X-3.7600 Y11.1655
G01 X-3.7609 Y11.1446
G01 X-3.7636 Y11.1175
G01 X-3.7668 Y11.0968
G01 X-3.7710 Y11.0763
G01 X-3.7763 Y11.0560
G01 X-3.7825 Y11.0360
G01 X-3.7911 Y11.0129
G01 X-3.8038 Y10.9844
G01 X-3.8238 Y10.9483
G01 X-3.8449 Y10.9172
G01 X-3.8657 Y10.8916
G01 X-3.8903 Y10.8658
G01 X-3.9057 Y10.8516
G01 X-3.9218 Y10.8382
G01 X-3.9386 Y10.8256
G01 X-3.9559 Y10.8138
G01 X-3.9738 Y10.8029
G01 X-3.9922 Y10.7929
G01 X-4.0168 Y10.7812
G01 X-4.0362 Y10.7734
G01 X-4.0560 Y10.7665
G01 X-4.0904 Y10.7569
G01 X-4.1109 Y10.7527
G01 X-4.1316 Y10.7495
G01 X-4.1525 Y10.7473
G01 X-4.1734 Y10.7461
G01 X-4.2006 Y10.7461
G01 X-4.2215 Y10.7473
G01 X-4.2424 Y10.7495
G01 X-4.2631 Y10.7527
G01 X-4.2836 Y10.7569
G01 X-4.3180 Y10.7665
G01 X-4.3378 Y10.7734
G01 X-4.3629 Y10.7838
G01 X-4.3818 Y10.7929
G01 X-4.4002 Y10.8029
G01 X-4.4181 Y10.8138
G01 X-4.4354 Y10.8256
G01 X-4.4522 Y10.8382
G01 X-4.4683 Y10.8516
G01 X-4.4890 Y10.8709
G01 X-4.8920 Y11.2740
G01 X-5.4617 Y11.5099
G01 X-6.0783 Y11.5099
G01 X-6.6160 Y11.2875
G01 X-6.6499 Y11.2763
G01 X-6.6832 Y11.2682
G01 X-6.7176 Y11.2628
G01 X-6.7532 Y11.2602
G01 X-12.1471 Y11.2599
G01 X-12.1816 Y11.2614
G01 X-12.2170 Y11.2657
G01 X-12.3800 Y11.2979
G01 X-12.4802 Y11.2782
G01 X-12.5156 Y11.2739
G01 X-12.5365 Y11.2727
G01 X-13.2626 Y11.2725
G01 X-13.3029 Y11.2751
G01 X-13.3390 Y11.2807
G01 X-13.3731 Y11.2891
G01 X-13.3932 Y11.2954
G01 X-13.4156 Y11.3037
G01 X-13.4515 Y11.3203
G01 X-13.4700 Y11.3305
G01 X-13.4881 Y11.3416
G01 X-13.5174 Y11.3624
G01 X-13.5337 Y11.3758
G01 X-13.5494 Y11.3900
G01 X-13.5644 Y11.4050
G01 X-13.5786 Y11.4206
G01 X-13.5978 Y11.4446
G01 X-13.6196 Y11.4769
G01 X-13.6302 Y11.4952
G01 X-13.6398 Y11.5140
G01 X-13.6541 Y11.5471
G01 X-13.6611 Y11.5670
G01 X-13.6672 Y11.5872
G01 X-13.6743 Y11.6174
G01 X-13.6801 Y11.6579
G01 X-13.7014 Y11.6338
G01 X-13.7404 Y11.5929
G01 X-13.7812 Y11.5539
G01 X-13.8293 Y11.5120
G01 X-13.8913 Y11.4636
G01 X-13.9314 Y11.4353
G01 X-13.9851 Y11.4009
G01 X-14.0535 Y11.3622
G01 X-14.1107 Y11.3338
G01 X-14.1657 Y11.3096
G01 X-14.2288 Y11.2856
G01 X-14.2755 Y11.2702
G01 X-14.3369 Y11.2529
G01 X-14.4060 Y11.2371
G01 X-14.4619 Y11.2273
G01 X-14.5399 Y11.2176
G01 X-14.6035 Y11.2133
G01 X-14.6600 Y11.2120
G01 X-15.2995 Y11.2120
G01 X-15.3058 Y11.1874
G01 X-15.3121 Y11.1675
G01 X-15.3202 Y11.1456
G01 X-15.3275 Y11.1288
G01 X-15.3366 Y11.1101
G01 X-15.3533 Y11.0806
G01 X-15.3656 Y11.0619
G01 X-15.3780 Y11.0451
G01 X-15.3951 Y11.0243
G01 X-15.4141 Y11.0040
G01 X-15.4350 Y10.9845
G01 X-15.4510 Y10.9712
G01 X-15.4787 Y10.9510
G01 X-15.6105 Y10.8630
G01 X-15.8873 Y10.4487
G01 X-15.9845 Y9.9600
G01 X-15.8873 Y9.4713
G01 X-15.7134 Y9.2112
G01 X-15.6985 Y9.1871
G01 X-15.6853 Y9.1624
G01 X-15.6726 Y9.1339
G01 X-15.6640 Y9.1108
G01 X-15.6578 Y9.0908
G01 X-15.6526 Y9.0705
G01 X-15.6472 Y9.0438
G01 X-15.6443 Y9.0231
G01 X-15.6424 Y9.0022
G01 X-15.6415 Y8.9739
G01 X-15.6424 Y8.9456
G01 X-15.6441 Y8.9265
G01 X-15.6472 Y8.9040
G01 X-15.6526 Y8.8773
G01 X-15.6621 Y8.8429
G01 X-15.6690 Y8.8231
G01 X-15.6769 Y8.8037
G01 X-15.6885 Y8.7791
G01 X-15.7053 Y8.7493
G01 X-15.7265 Y8.7182
G01 X-15.7472 Y8.6926
G01 X-15.7665 Y8.6719
G01 X-15.7872 Y8.6526
G01 X-15.8128 Y8.6318
G01 X-15.8762 Y8.5887
G01 X-15.9425 Y8.4895
G01 X-15.9742 Y8.3304
G01 X-15.9744 Y7.1176
G01 X-15.9756 Y7.0966
G01 X-15.9778 Y7.0758
G01 X-15.9839 Y7.0406
G01 X-15.9889 Y7.0203
G01 X-15.9948 Y7.0002
G01 X-16.0017 Y6.9804
G01 X-16.0096 Y6.9610
G01 X-16.0181 Y6.9427
G01 X-16.0282 Y6.9234
G01 X-16.0380 Y6.9065
G01 X-16.0503 Y6.8878
G01 X-16.0747 Y6.8560
G01 X-16.0941 Y6.8344
G01 X-17.1410 Y5.7874
G01 X-17.1617 Y5.7681
G01 X-17.1827 Y5.7508
G01 X-17.1997 Y5.7385
G01 X-17.2298 Y5.7194
G01 X-17.2545 Y5.7062
G01 X-17.2830 Y5.6935
G01 X-17.3061 Y5.6849
G01 X-17.3321 Y5.6770
G01 X-17.3594 Y5.6706
G01 X-17.3938 Y5.6652
G01 X-17.4147 Y5.6633
G01 X-17.4504 Y5.6624
G01 X-17.4775 Y5.6638
G01 X-17.5129 Y5.6681
G01 X-17.5396 Y5.6734
G01 X-17.5740 Y5.6829
G01 X-17.6030 Y5.6935
G01 X-17.6315 Y5.7062
G01 X-17.6508 Y5.7163
G01 X-17.6741 Y5.7303
G01 X-17.6987 Y5.7473
G01 X-17.7196 Y5.7640
G01 X-17.7450 Y5.7874
G01 X-17.7643 Y5.8081
G01 X-17.7816 Y5.8291
G01 X-17.7939 Y5.8461
G01 X-17.8130 Y5.8762
G01 X-17.8230 Y5.8946
G01 X-17.8347 Y5.9192
G01 X-17.8475 Y5.9525
G01 X-17.8554 Y5.9785
G01 X-17.8618 Y6.0058
G01 X-17.8664 Y6.0340
G01 X-17.8691 Y6.0611
G01 X-17.8701 Y6.0894
G01 X-17.8701 Y9.7118
G01 X-17.8691 Y9.7401
G01 X-17.8674 Y9.7593
G01 X-17.8643 Y9.7818
G01 X-17.8583 Y9.8130
G01 X-17.9049 Y10.0471
G01 X-18.0375 Y10.2455
G01 X-18.2359 Y10.3781
G01 X-18.4700 Y10.4247
G01 X-18.5158 Y10.4165
G01 X-18.5366 Y10.4143
G01 X-18.5576 Y10.4132
G01 X-18.7479 Y10.4130
G01 X-18.7688 Y10.4139
G01 X-18.7959 Y10.4165
G01 X-18.8166 Y10.4198
G01 X-18.8371 Y10.4240
G01 X-18.8715 Y10.4335
G01 X-18.8913 Y10.4404
G01 X-18.9107 Y10.4483
G01 X-18.9290 Y10.4568
G01 X-18.9483 Y10.4669
G01 X-18.9716 Y10.4809
G01 X-18.9962 Y10.4979
G01 X-19.0218 Y10.5187
G01 X-19.0425 Y10.5380
G01 X-19.1866 Y10.6825
G01 X-19.2006 Y10.6981
G01 X-19.2138 Y10.7144
G01 X-19.2404 Y10.7525
G01 X-19.4389 Y10.8851
G01 X-19.6729 Y10.9317
G01 X-19.7187 Y10.9236
G01 X-19.7396 Y10.9214
G01 X-19.7667 Y10.9200
G01 X-20.3096 Y10.9199
G01 X-20.3441 Y10.9214
G01 X-20.3650 Y10.9236
G01 X-20.3932 Y10.9282
G01 X-20.4205 Y10.9346
G01 X-20.4406 Y10.9406
G01 X-20.4604 Y10.9475
G01 X-20.4855 Y10.9579
G01 X-20.5044 Y10.9670
G01 X-20.5342 Y10.9838
G01 X-20.5530 Y10.9961
G01 X-20.5748 Y11.0123
G01 X-20.5909 Y11.0257
G01 X-20.6116 Y11.0450
G01 X-22.1900 Y12.6234
G01 X-22.2093 Y12.6441
G01 X-22.2227 Y12.6602
G01 X-22.2353 Y12.6770
G01 X-22.2471 Y12.6943
G01 X-22.2611 Y12.7176
G01 X-22.2771 Y12.7495
G01 X-22.2875 Y12.7746
G01 X-22.2987 Y12.8085
G01 X-22.3040 Y12.8288
G01 X-22.3093 Y12.8555
G01 X-22.3136 Y12.8909
G01 X-22.3150 Y12.9180
G01 X-22.3151 Y17.8819
G01 X-22.3141 Y17.9102
G01 X-22.3124 Y17.9294
G01 X-22.3093 Y17.9519
G01 X-22.3033 Y17.9831
G01 X-22.3499 Y18.2172
G01 X-22.4825 Y18.4156
G01 X-22.5088 Y18.4335
G01 X-22.5255 Y18.4461
G01 X-22.5416 Y18.4595
G01 X-22.5623 Y18.4788
G01 X-25.4444 Y21.3613
G01 X-25.4584 Y21.3769
G01 X-25.4716 Y21.3932
G01 X-25.4921 Y21.4224
G01 X-25.5090 Y21.4510
G01 X-25.5192 Y21.4711
G01 X-25.5275 Y21.4900
G01 X-25.5352 Y21.5098
G01 X-25.5417 Y21.5295
G01 X-25.5503 Y21.5629
G01 X-25.5543 Y21.5835
G01 X-25.5572 Y21.6043
G01 X-25.5598 Y21.6399
G00 Z1.0000
G00 X-34.1738 Y10.5484
G01 F76.20
G01 Z-0.2000
G01 F120.00
G01 X-34.1750 Y10.5950
G01 X-34.1739 Y10.6416
G01 X-34.1703 Y10.6955
G01 X-34.1641 Y10.7491
G01 X-34.1538 Y10.8099
G01 X-34.1437 Y10.8551
G01 X-34.1254 Y10.9213
G01 X-34.1081 Y10.9725
G01 X-34.0926 Y11.0126
G01 X-34.0725 Y11.0586
G01 X-34.0485 Y11.1070
G01 X-34.0154 Y11.1656
G01 X-33.9855 Y11.2122
G01 X-33.9576 Y11.2516
G01 X-33.9218 Y11.2971
G01 X-33.8949 Y11.3282
G01 X-33.8475 Y11.3780
G01 X-33.8191 Y11.4050
G01 X-33.7785 Y11.4406
G01 X-33.7316 Y11.4776
G01 X-33.6922 Y11.5055
G01 X-33.6468 Y11.5346
G01 X-33.6000 Y11.5616
G01 X-33.5386 Y11.5925
G01 X-33.4926 Y11.6126
G01 X-33.4525 Y11.6281
G01 X-33.4013 Y11.6454
G01 X-33.3494 Y11.6602
G01 X-33.2899 Y11.6738
G01 X-33.2291 Y11.6841
G01 X-33.1901 Y11.6889
G01 X-33.1363 Y11.6932
G01 X-33.0676 Y11.6949
G01 X-33.0284 Y11.6939
G01 X-32.9745 Y11.6903
G01 X-32.9063 Y11.6819
G01 X-32.8601 Y11.6738
G01 X-32.8149 Y11.6637
G01 X-32.7628 Y11.6497
G01 X-32.6975 Y11.6281
G01 X-32.6473 Y11.6084
G01 X-32.5988 Y11.5865
G01 X-32.5500 Y11.5616
G01 X-32.5044 Y11.5354
G01 X-32.4578 Y11.5055
G01 X-32.4184 Y11.4776
G01 X-32.3729 Y11.4418
G01 X-32.3418 Y11.4149
G01 X-32.2972 Y11.3728
G01 X-32.2650 Y11.3391
G01 X-32.2294 Y11.2985
G01 X-32.1959 Y11.2561
G01 X-32.1645 Y11.2122
G01 X-32.1533 Y11.1952
G01 X-31.7852 Y11.1952
G01 X-31.7852 Y13.1200
G01 X-31.7840 Y13.1568
G01 X-31.7817 Y13.1844
G01 X-31.7775 Y13.2153
G01 X-31.7721 Y13.2443
G01 X-31.7614 Y13.2871
G01 X-31.7525 Y13.3152
G01 X-31.7408 Y13.3463
G01 X-31.7247 Y13.3825
G01 X-31.7107 Y13.4094
G01 X-31.6967 Y13.4336
G01 X-31.6798 Y13.4595
G01 X-31.6661 Y13.4788
G01 X-31.6346 Y13.5175
G01 X-31.6094 Y13.5444
G01 X-31.4952 Y13.6586
G01 X-31.4952 Y21.4331
G01 X-31.4940 Y21.4699
G01 X-31.4917 Y21.4975
G01 X-31.4875 Y21.5284
G01 X-31.4836 Y21.5504
G01 X-31.4753 Y21.5860
G01 X-31.4625 Y21.6283
G01 X-31.4466 Y21.6695
G01 X-31.4277 Y21.7094
G01 X-31.4067 Y21.7467
G01 X-31.3899 Y21.7726
G01 X-31.3635 Y21.8080
G01 X-31.3347 Y21.8415
G01 X-29.1602 Y24.0167
G01 X-29.1602 Y27.4214
G01 X-32.1595 Y30.4208
G01 X-32.2127 Y30.4088
G01 X-32.2620 Y30.4002
G01 X-32.3186 Y30.3928
G01 X-32.3756 Y30.3883
G01 X-32.4400 Y30.3864
G01 X-32.4897 Y30.3875
G01 X-32.5614 Y30.3928
G01 X-32.6180 Y30.4002
G01 X-32.6673 Y30.4088
G01 X-32.7156 Y30.4196
G01 X-32.7707 Y30.4345
G01 X-32.8250 Y30.4520
G01 X-32.8819 Y30.4736
G01 X-32.9308 Y30.4951
G01 X-32.9820 Y30.5204
G01 X-33.0318 Y30.5482
G01 X-33.0803 Y30.5785
G01 X-33.1390 Y30.6198
G01 X-33.1824 Y30.6541
G01 X-33.2268 Y30.6928
G01 X-33.2628 Y30.7272
G01 X-33.3070 Y30.7741
G01 X-33.3441 Y30.8176
G01 X-33.3737 Y30.8556
G01 X-33.4115 Y30.9097
G01 X-33.4418 Y30.9582
G01 X-33.4696 Y31.0080
G01 X-33.4890 Y31.0466
G01 X-33.5164 Y31.1081
G01 X-33.5330 Y31.1511
G01 X-33.5555 Y31.2193
G01 X-33.5669 Y31.2601
G01 X-33.5797 Y31.3158
G01 X-33.5898 Y31.3720
G01 X-33.5986 Y31.4433
G01 X-33.6017 Y31.4856
G01 X-33.6035 Y31.5426
G01 X-33.6025 Y31.5997
G01 X-33.5974 Y31.6696
G01 X-33.5898 Y31.7280
G01 X-33.5812 Y31.7773
G01 X-33.5704 Y31.8256
G01 X-33.5555 Y31.8807
G01 X-33.5330 Y31.9489
G01 X-33.5121 Y32.0021
G01 X-33.4890 Y32.0534
G01 X-33.4696 Y32.0920
G01 X-33.4418 Y32.1418
G01 X-33.4033 Y32.2025
G01 X-33.3702 Y32.2490
G01 X-33.3359 Y32.2924
G01 X-33.3070 Y32.3259
G01 X-33.2628 Y32.3728
G01 X-33.2159 Y32.4170
G01 X-33.1838 Y32.4447
G01 X-33.1390 Y32.4802
G01 X-33.0925 Y32.5133
G01 X-33.0318 Y32.5518
G01 X-32.9820 Y32.5796
G01 X-32.9434 Y32.5990
G01 X-32.8921 Y32.6221
G01 X-32.8389 Y32.6430
G01 X-32.7707 Y32.6655
G01 X-32.7156 Y32.6804
G01 X-32.6673 Y32.6912
G01 X-32.6180 Y32.6998
G01 X-32.5467 Y32.7086
G01 X-32.4897 Y32.7125
G01 X-32.4400 Y32.7136
G01 X-32.3903 Y32.7125
G01 X-32.3333 Y32.7086
G01 X-32.2766 Y32.7020
G01 X-32.2127 Y32.6912
G01 X-32.1644 Y32.6804
G01 X-32.1093 Y32.6655
G01 X-32.0550 Y32.6480
G01 X-31.9981 Y32.6264
G01 X-31.9492 Y32.6049
G01 X-31.8980 Y32.5796
G01 X-31.8482 Y32.5518
G01 X-31.7997 Y32.5215
G01 X-31.7410 Y32.4802
G01 X-31.6976 Y32.4459
G01 X-31.6532 Y32.4072
G01 X-31.6172 Y32.3728
G01 X-31.5730 Y32.3259
G01 X-31.5453 Y32.2938
G01 X-31.5098 Y32.2490
G01 X-31.4767 Y32.2025
G01 X-31.4382 Y32.1418
G01 X-31.4104 Y32.0920
G01 X-31.3910 Y32.0534
G01 X-31.3679 Y32.0021
G01 X-31.3470 Y31.9489
G01 X-31.3287 Y31.8948
G01 X-31.3096 Y31.8256
G01 X-31.2974 Y31.7698
G01 X-31.2902 Y31.7280
G01 X-31.2828 Y31.6714
G01 X-31.2783 Y31.6144
G01 X-31.2764 Y31.5500
G01 X-31.2783 Y31.4856
G01 X-31.2828 Y31.4286
G01 X-31.2880 Y31.3866
G01 X-31.2974 Y31.3302
G01 X-31.3108 Y31.2695
G01 X-28.1203 Y28.0784
G01 X-28.0915 Y28.0450
G01 X-28.0737 Y28.0216
G01 X-28.0570 Y27.9973
G01 X-28.0343 Y27.9594
G01 X-28.0204 Y27.9325
G01 X-28.0084 Y27.9064
G01 X-27.9975 Y27.8791
G01 X-27.9879 Y27.8512
G01 X-27.9761 Y27.8087
G01 X-27.9675 Y27.7653
G01 X-27.9636 Y27.7362
G01 X-27.9610 Y27.7068
G01 X-27.9599 Y27.6700
G01 X-27.9599 Y23.7681
G01 X-27.9603 Y23.7460
G01 X-27.9621 Y23.7166
G01 X-27.9654 Y23.6873
G01 X-27.9700 Y23.6582
G01 X-27.9761 Y23.6294
G01 X-27.9837 Y23.6009
G01 X-27.9975 Y23.5590
G01 X-28.0084 Y23.5316
G01 X-28.0207 Y23.5048
G01 X-28.0415 Y23.4659
G01 X-28.0570 Y23.4408
G01 X-28.0737 Y23.4165
G01 X-28.0915 Y23.3931
G01 X-28.1105 Y23.3705
G01 X-28.1305 Y23.3490
G01 X-30.2949 Y21.1845
G01 X-30.2950 Y13.4026
G01 X-30.2971 Y13.3585
G01 X-30.3004 Y13.3292
G01 X-30.3065 Y13.2926
G01 X-30.3147 Y13.2570
G01 X-30.3275 Y13.2148
G01 X-30.3392 Y13.1837
G01 X-30.3554 Y13.1475
G01 X-30.3693 Y13.1206
G01 X-30.3833 Y13.0964
G01 X-30.4002 Y13.0705
G01 X-30.4265 Y13.0350
G01 X-30.4455 Y13.0125
G01 X-30.4706 Y12.9856
G01 X-30.5848 Y12.8714
G01 X-30.5848 Y7.4697
G01 X-30.5591 Y7.4579
G01 X-30.5080 Y7.4322
G01 X-30.4345 Y7.3906
G01 X-30.3856 Y7.3596
G01 X-30.3272 Y7.3190
G01 X-30.2609 Y7.2673
G01 X-30.2168 Y7.2293
G01 X-30.1650 Y7.1804
G01 X-30.1057 Y7.1182
G01 X-30.0689 Y7.0755
G01 X-30.0248 Y7.0196
G01 X-29.9754 Y6.9494
G01 X-29.9452 Y6.9017
G01 X-29.9098 Y6.8400
G01 X-29.8711 Y6.7633
G01 X-29.8440 Y6.7015
G01 X-29.8223 Y6.6454
G01 X-29.7954 Y6.5638
G01 X-29.7803 Y6.5094
G01 X-29.7644 Y6.4401
G01 X-29.7497 Y6.3555
G01 X-29.7428 Y6.2994
G01 X-29.7372 Y6.2285
G01 X-29.7350 Y6.1500
G01 X-29.7372 Y6.0715
G01 X-29.7428 Y6.0006
G01 X-29.7519 Y5.9300
G01 X-29.7629 Y5.8668
G01 X-29.7768 Y5.8048
G01 X-29.7997 Y5.7221
G01 X-29.8223 Y5.6546
G01 X-29.8440 Y5.5985
G01 X-29.8711 Y5.5367
G01 X-29.9028 Y5.4730
G01 X-29.9444 Y5.3995
G01 X-29.9835 Y5.3384
G01 X-30.0213 Y5.2849
G01 X-30.0595 Y5.2359
G01 X-30.1057 Y5.1818
G01 X-30.1597 Y5.1247
G01 X-30.2168 Y5.0707
G01 X-30.2709 Y5.0245
G01 X-30.3199 Y4.9863
G01 X-30.3734 Y4.9485
G01 X-30.4459 Y4.9026
G01 X-30.5080 Y4.8678
G01 X-30.5717 Y4.8361
G01 X-30.6335 Y4.8090
G01 X-30.6896 Y4.7873
G01 X-30.7571 Y4.7647
G01 X-30.8398 Y4.7418
G01 X-30.9018 Y4.7279
G01 X-30.9795 Y4.7147
G01 X-31.0502 Y4.7064
G01 X-31.1065 Y4.7022
G01 X-31.1776 Y4.7001
G01 X-31.2488 Y4.7015
G01 X-31.3327 Y4.7076
G01 X-31.4050 Y4.7169
G01 X-31.4751 Y4.7294
G01 X-31.5444 Y4.7453
G01 X-31.5988 Y4.7604
G01 X-31.6665 Y4.7824
G01 X-31.7365 Y4.8090
G01 X-31.8109 Y4.8421
G01 X-31.8750 Y4.8748
G01 X-31.9355 Y4.9094
G01 X-31.9844 Y4.9404
G01 X-32.0501 Y4.9863
G01 X-32.1091 Y5.0327
G01 X-32.1642 Y5.0806
G01 X-32.2154 Y5.1300
G01 X-32.2643 Y5.1818
G01 X-32.3011 Y5.2245
G01 X-32.3452 Y5.2804
G01 X-32.3865 Y5.3384
G01 X-32.4324 Y5.4109
G01 X-32.4602 Y5.4600
G01 X-32.4926 Y5.5234
G01 X-32.5217 Y5.5883
G01 X-32.5477 Y5.6546
G01 X-32.5746 Y5.7362
G01 X-32.5932 Y5.8048
G01 X-32.6071 Y5.8668
G01 X-32.6181 Y5.9300
G01 X-32.6272 Y6.0006
G01 X-32.6328 Y6.0715
G01 X-32.6350 Y6.1500
G01 X-32.6335 Y6.2138
G01 X-32.6286 Y6.2848
G01 X-32.6181 Y6.3700
G01 X-32.6071 Y6.4332
G01 X-32.5897 Y6.5094
G01 X-32.5746 Y6.5638
G01 X-32.5526 Y6.6315
G01 X-32.5260 Y6.7015
G01 X-32.4989 Y6.7633
G01 X-32.4672 Y6.8270
G01 X-32.4324 Y6.8891
G01 X-32.3865 Y6.9616
G01 X-32.3487 Y7.0151
G01 X-32.3023 Y7.0741
G01 X-32.2544 Y7.1292
G01 X-32.2103 Y7.1753
G01 X-32.1642 Y7.2194
G01 X-32.1105 Y7.2661
G01 X-32.0501 Y7.3137
G01 X-31.9966 Y7.3515
G01 X-31.9367 Y7.3898
G01 X-31.8750 Y7.4252
G01 X-31.8109 Y7.4579
G01 X-31.7852 Y7.4697
G01 X-31.7852 Y9.9948
G01 X-32.1533 Y9.9948
G01 X-32.1645 Y9.9778
G01 X-32.1959 Y9.9339
G01 X-32.2282 Y9.8929
G01 X-32.2650 Y9.8509
G01 X-32.2972 Y9.8172
G01 X-32.3418 Y9.7751
G01 X-32.3829 Y9.7401
G01 X-32.4184 Y9.7124
G01 X-32.4578 Y9.6845
G01 X-32.5032 Y9.6554
G01 X-32.5500 Y9.6284
G01 X-32.5988 Y9.6035
G01 X-32.6473 Y9.5816
G01 X-32.6975 Y9.5619
G01 X-32.7628 Y9.5403
G01 X-32.8149 Y9.5263
G01 X-32.8601 Y9.5162
G01 X-32.9063 Y9.5081
G01 X-32.9745 Y9.4997
G01 X-33.0284 Y9.4961
G01 X-33.0750 Y9.4950
G01 X-33.1216 Y9.4961
G01 X-33.1884 Y9.5009
G01 X-33.2437 Y9.5081
G01 X-33.2899 Y9.5162
G01 X-33.3351 Y9.5263
G01 X-33.4013 Y9.5446
G01 X-33.4525 Y9.5619
G01 X-33.4926 Y9.5774
G01 X-33.5386 Y9.5975
G01 X-33.5870 Y9.6215
G01 X-33.6468 Y9.6554
G01 X-33.6922 Y9.6845
G01 X-33.7316 Y9.7124
G01 X-33.7771 Y9.7482
G01 X-33.8082 Y9.7751
G01 X-33.8528 Y9.8172
G01 X-33.8850 Y9.8509
G01 X-33.9299 Y9.9029
G01 X-33.9576 Y9.9384
G01 X-33.9855 Y9.9778
G01 X-34.0146 Y10.0232
G01 X-34.0416 Y10.0700
G01 X-34.0725 Y10.1314
G01 X-34.0926 Y10.1774
G01 X-34.1081 Y10.2175
G01 X-34.1297 Y10.2828
G01 X-34.1437 Y10.3349
G01 X-34.1538 Y10.3801
G01 X-34.1619 Y10.4263
G01 X-34.1689 Y10.4799
G01 X-34.1738 Y10.5484
G00 Z1.0000
G00 X-39.2629 Y4.8234
G01 F76.20
G01 Z-0.2000
G01 F120.00
G01 X-39.2630 Y4.8506
G01 X-39.2618 Y4.8715
G01 X-39.2596 Y4.8924
G01 X-39.2550 Y4.9203
G01 X-39.2308 Y5.0421
G01 X-39.2308 Y6.3060
G01 X-39.2299 Y6.3343
G01 X-39.2272 Y6.3614
G01 X-39.2226 Y6.3896
G01 X-39.2161 Y6.4169
G01 X-39.2102 Y6.4370
G01 X-39.2033 Y6.4568
G01 X-39.1929 Y6.4819
G01 X-39.1838 Y6.5008
G01 X-39.1670 Y6.5306
G01 X-39.1547 Y6.5493
G01 X-39.1385 Y6.5712
G01 X-39.1251 Y6.5873
G01 X-39.1057 Y6.6080
G01 X-36.4048 Y9.3089
G01 X-36.3841 Y9.3282
G01 X-36.3631 Y9.3455
G01 X-36.3462 Y9.3579
G01 X-36.3083 Y9.3833
G01 X-36.1315 Y9.6479
G01 X-36.0694 Y9.9600
G01 X-36.0782 Y10.0048
G01 X-36.0814 Y10.0255
G01 X-36.0841 Y10.0525
G01 X-36.0851 Y10.0808
G01 X-36.0851 Y10.9325
G01 X-36.0841 Y10.9608
G01 X-36.0824 Y10.9799
G01 X-36.0768 Y11.0161
G01 X-36.0687 Y11.0494
G01 X-36.0575 Y11.0833
G01 X-36.0471 Y11.1084
G01 X-36.0311 Y11.1403
G01 X-36.0171 Y11.1636
G01 X-35.9966 Y11.1928
G01 X-35.9793 Y11.2138
G01 X-35.9525 Y11.2419
G01 X-35.7851 Y11.6462
G01 X-35.7841 Y11.6851
G01 X-35.7824 Y11.7042
G01 X-35.7793 Y11.7267
G01 X-35.7753 Y11.7473
G01 X-35.7704 Y11.7676
G01 X-35.7645 Y11.7877
G01 X-35.7575 Y11.8075
G01 X-35.7471 Y11.8327
G01 X-35.7311 Y11.8645
G01 X-35.7171 Y11.8879
G01 X-35.6966 Y11.9170
G01 X-35.6793 Y11.9380
G01 X-35.6600 Y11.9587
G01 X-35.0737 Y12.5450
G01 X-35.0530 Y12.5643
G01 X-35.0275 Y12.5851
G01 X-35.0029 Y12.6021
G01 X-34.9795 Y12.6161
G01 X-34.9477 Y12.6321
G01 X-34.9225 Y12.6425
G01 X-34.9028 Y12.6495
G01 X-34.8826 Y12.6554
G01 X-34.8623 Y12.6603
G01 X-34.8417 Y12.6643
G01 X-34.8209 Y12.6672
G01 X-34.8001 Y12.6691
G01 X-34.7612 Y12.6701
G01 X-34.3569 Y12.8375
G01 X-34.0475 Y13.1469
G01 X-33.8801 Y13.5512
G01 X-33.8801 Y13.9888
G01 X-34.0475 Y14.3931
G01 X-34.3569 Y14.7025
G01 X-34.4610 Y14.7456
G01 X-34.4861 Y14.7569
G01 X-34.5222 Y14.7769
G01 X-34.5460 Y14.7928
G01 X-34.5727 Y14.8136
G01 X-34.5898 Y14.8287
G01 X-34.6047 Y14.8434
G01 X-34.6189 Y14.8589
G01 X-34.6323 Y14.8750
G01 X-34.6449 Y14.8917
G01 X-34.6567 Y14.9090
G01 X-34.6676 Y14.9269
G01 X-34.6808 Y14.9516
G01 X-34.6935 Y14.9801
G01 X-34.7021 Y15.0032
G01 X-34.7099 Y15.0292
G01 X-34.7164 Y15.0565
G01 X-34.7210 Y15.0848
G01 X-34.7237 Y15.1118
G01 X-34.7246 Y15.1401
G01 X-34.7237 Y15.1684
G01 X-34.7210 Y15.1955
G01 X-34.7164 Y15.2238
G01 X-34.7099 Y15.2510
G01 X-34.7021 Y15.2770
G01 X-34.6935 Y15.3002
G01 X-34.6808 Y15.3286
G01 X-34.6676 Y15.3533
G01 X-34.6567 Y15.3712
G01 X-34.6396 Y15.3958
G01 X-34.6241 Y15.4153
G01 X-34.6047 Y15.4368
G01 X-34.5898 Y15.4516
G01 X-34.5627 Y15.4749
G01 X-34.5460 Y15.4875
G01 X-34.5234 Y15.5026
G01 X-34.5053 Y15.5132
G01 X-34.4735 Y15.5293
G01 X-34.4542 Y15.5374
G01 X-34.4286 Y15.5466
G01 X-34.4085 Y15.5525
G01 X-34.3881 Y15.5575
G01 X-34.2759 Y15.5799
G01 X-34.0524 Y15.7298
G01 X-34.0258 Y15.7527
G01 X-34.0039 Y15.7689
G01 X-33.9864 Y15.7804
G01 X-33.9684 Y15.7911
G01 X-33.9365 Y15.8071
G01 X-33.9114 Y15.8175
G01 X-33.8775 Y15.8287
G01 X-33.8511 Y15.8353
G01 X-33.8305 Y15.8393
G01 X-33.7951 Y15.8436
G01 X-33.7742 Y15.8448
G01 X-33.6017 Y15.8451
G01 X-33.2808 Y15.9089
G01 X-32.9170 Y16.1520
G01 X-32.6739 Y16.5158
G01 X-32.5885 Y16.9450
G01 X-32.5929 Y16.9695
G01 X-32.5954 Y16.9903
G01 X-32.5970 Y17.0112
G01 X-32.5975 Y17.0322
G01 X-32.5970 Y17.0531
G01 X-32.5954 Y17.0740
G01 X-32.5929 Y17.0949
G01 X-32.5878 Y17.1227
G01 X-32.5828 Y17.1431
G01 X-32.5749 Y17.1691
G01 X-32.5664 Y17.1922
G01 X-32.5565 Y17.2147
G01 X-32.5471 Y17.2335
G01 X-32.5329 Y17.2580
G01 X-32.5178 Y17.2806
G01 X-32.5005 Y17.3031
G01 X-32.4869 Y17.3190
G01 X-32.4725 Y17.3341
G01 X-32.2240 Y17.5826
G01 X-32.2033 Y17.6019
G01 X-32.1777 Y17.6227
G01 X-32.1478 Y17.6430
G01 X-32.1168 Y17.6606
G01 X-32.0922 Y17.6722
G01 X-32.0728 Y17.6801
G01 X-32.0389 Y17.6913
G01 X-32.0186 Y17.6966
G01 X-31.9919 Y17.7019
G01 X-31.9712 Y17.7048
G01 X-31.9356 Y17.7074
G01 X-31.9146 Y17.7076
G01 X-31.8937 Y17.7067
G01 X-31.8666 Y17.7040
G01 X-31.8459 Y17.7008
G01 X-31.8254 Y17.6966
G01 X-31.8051 Y17.6913
G01 X-31.7712 Y17.6801
G01 X-31.7518 Y17.6722
G01 X-31.7328 Y17.6634
G01 X-31.7088 Y17.6506
G01 X-31.6909 Y17.6397
G01 X-31.6663 Y17.6227
G01 X-31.6468 Y17.6072
G01 X-31.6253 Y17.5877
G01 X-31.6106 Y17.5728
G01 X-31.5873 Y17.5458
G01 X-31.5711 Y17.5239
G01 X-31.5596 Y17.5064
G01 X-31.5420 Y17.4754
G01 X-31.5329 Y17.4565
G01 X-31.5225 Y17.4314
G01 X-31.5156 Y17.4116
G01 X-31.5096 Y17.3915
G01 X-31.5032 Y17.3642
G01 X-31.4986 Y17.3360
G01 X-31.4959 Y17.3089
G01 X-31.4949 Y17.2806
G01 X-31.4950 Y13.8553
G01 X-31.4964 Y13.8282
G01 X-31.4986 Y13.8073
G01 X-31.5018 Y13.7866
G01 X-31.5060 Y13.7661
G01 X-31.5156 Y13.7317
G01 X-31.5225 Y13.7119
G01 X-31.5329 Y13.6868
G01 X-31.5420 Y13.6679
G01 X-31.5520 Y13.6495
G01 X-31.5629 Y13.6316
G01 X-31.5747 Y13.6143
G01 X-31.5883 Y13.5963
G01 X-31.7501 Y13.3541
G01 X-31.7967 Y13.1200
G01 X-31.7907 Y13.0888
G01 X-31.7878 Y13.0680
G01 X-31.7859 Y13.0472
G01 X-31.7849 Y13.0189
G01 X-31.7849 Y11.8549
G01 X-31.7864 Y11.8203
G01 X-31.7907 Y11.7849
G01 X-31.7960 Y11.7583
G01 X-31.8013 Y11.7380
G01 X-31.8075 Y11.7180
G01 X-31.8203 Y11.6847
G01 X-31.8320 Y11.6601
G01 X-31.8488 Y11.6303
G01 X-31.8647 Y11.6064
G01 X-31.8854 Y11.5797
G01 X-31.9049 Y11.5582
G01 X-31.9307 Y11.5336
G01 X-31.9517 Y11.5163
G01 X-31.9809 Y11.4958
G01 X-32.0042 Y11.4818
G01 X-32.0361 Y11.4657
G01 X-32.0612 Y11.4553
G01 X-32.0951 Y11.4441
G01 X-32.1215 Y11.4375
G01 X-32.1566 Y11.4314
G01 X-32.1837 Y11.4288
G01 X-32.2046 Y11.4279
G01 X-32.2256 Y11.4280
G01 X-32.2594 Y11.4305
G01 X-32.2819 Y11.4336
G01 X-32.3086 Y11.4389
G01 X-32.3289 Y11.4441
G01 X-32.3628 Y11.4553
G01 X-32.3822 Y11.4632
G01 X-32.4005 Y11.4717
G01 X-32.4198 Y11.4818
G01 X-32.4431 Y11.4958
G01 X-32.6458 Y11.6311
G01 X-32.9667 Y11.6949
G01 X-33.1833 Y11.6949
G01 X-33.5042 Y11.6311
G01 X-33.8680 Y11.3880
G01 X-34.1111 Y11.0242
G01 X-34.1965 Y10.5950
G01 X-34.1111 Y10.1658
G01 X-33.8680 Y9.8020
G01 X-33.5042 Y9.5589
G01 X-33.1833 Y9.4951
G01 X-32.9667 Y9.4951
G01 X-32.6458 Y9.5589
G01 X-32.4431 Y9.6942
G01 X-32.4198 Y9.7082
G01 X-32.4005 Y9.7183
G01 X-32.3822 Y9.7268
G01 X-32.3628 Y9.7347
G01 X-32.3289 Y9.7459
G01 X-32.3086 Y9.7511
G01 X-32.2819 Y9.7564
G01 X-32.2465 Y9.7608
G01 X-32.2256 Y9.7620
G01 X-32.2046 Y9.7621
G01 X-32.1837 Y9.7612
G01 X-32.1566 Y9.7586
G01 X-32.1215 Y9.7525
G01 X-32.0951 Y9.7459
G01 X-32.0612 Y9.7347
G01 X-32.0361 Y9.7243
G01 X-32.0042 Y9.7082
G01 X-31.9809 Y9.6942
G01 X-31.9517 Y9.6737
G01 X-31.9307 Y9.6564
G01 X-31.9049 Y9.6318
G01 X-31.8866 Y9.6117
G01 X-31.8647 Y9.5836
G01 X-31.8496 Y9.5610
G01 X-31.8320 Y9.5299
G01 X-31.8203 Y9.5053
G01 X-31.8075 Y9.4720
G01 X-31.7996 Y9.4460
G01 X-31.7918 Y9.4112
G01 X-31.7878 Y9.3843
G01 X-31.7859 Y9.3634
G01 X-31.7850 Y9.3425
G01 X-31.7849 Y7.7563
G01 X-31.7859 Y7.7279
G01 X-31.7876 Y7.7088
G01 X-31.7907 Y7.6863
G01 X-31.7947 Y7.6657
G01 X-31.8013 Y7.6394
G01 X-31.8075 Y7.6193
G01 X-31.8161 Y7.5962
G01 X-31.8229 Y7.5804
G01 X-31.8389 Y7.5485
G01 X-31.8488 Y7.5316
G01 X-31.8611 Y7.5129
G01 X-31.8854 Y7.4811
G01 X-31.9049 Y7.4595
G01 X-31.9307 Y7.4349
G01 X-31.9517 Y7.4177
G01 X-31.9809 Y7.3971
G01 X-31.9999 Y7.3856
G01 X-32.4142 Y6.9713
G01 X-32.5920 Y6.5420
G01 X-32.6034 Y6.5169
G01 X-32.6133 Y6.4979
G01 X-32.6239 Y6.4800
G01 X-32.6353 Y6.4626
G01 X-32.6475 Y6.4458
G01 X-32.6646 Y6.4249
G01 X-32.6786 Y6.4096
G01 X-32.6934 Y6.3949
G01 X-32.7089 Y6.3810
G01 X-32.7367 Y6.3591
G01 X-32.7538 Y6.3474
G01 X-32.7715 Y6.3365
G01 X-32.7975 Y6.3225
G01 X-32.8333 Y6.3068
G01 X-32.8656 Y6.2958
G01 X-32.9020 Y6.2868
G01 X-32.9340 Y6.2816
G01 X-32.9547 Y6.2795
G01 X-32.9754 Y6.2785
G01 X-32.9962 Y6.2785
G01 X-33.0170 Y6.2794
G01 X-33.0522 Y6.2834
G01 X-33.0689 Y6.2863
G01 X-33.0929 Y6.2918
G01 X-33.1188 Y6.2993
G01 X-33.1520 Y6.3117
G01 X-33.1710 Y6.3202
G01 X-33.1895 Y6.3296
G01 X-33.2072 Y6.3398
G01 X-33.2251 Y6.3511
G01 X-33.2520 Y6.3709
G01 X-33.2414 Y6.2848
G01 X-33.2365 Y6.2138
G01 X-33.2350 Y6.1500
G01 X-33.2365 Y6.0862
G01 X-33.2414 Y6.0152
G01 X-33.2497 Y5.9445
G01 X-33.2567 Y5.9018
G01 X-33.2396 Y5.9157
G01 X-33.2227 Y5.9281
G01 X-33.2052 Y5.9396
G01 X-33.1871 Y5.9502
G01 X-33.1679 Y5.9603
G01 X-33.1496 Y5.9688
G01 X-33.1301 Y5.9767
G01 X-33.1104 Y5.9836
G01 X-33.0903 Y5.9895
G01 X-33.0699 Y5.9945
G01 X-33.0493 Y5.9984
G01 X-33.0285 Y6.0013
G01 X-33.0077 Y6.0032
G01 X-32.9867 Y6.0041
G01 X-32.9658 Y6.0040
G01 X-32.9448 Y6.0028
G01 X-32.9240 Y6.0006
G01 X-32.9033 Y5.9974
G01 X-32.8828 Y5.9931
G01 X-32.8625 Y5.9879
G01 X-32.8425 Y5.9816
G01 X-32.8193 Y5.9731
G01 X-32.7846 Y5.9572
G01 X-32.7662 Y5.9472
G01 X-32.7483 Y5.9363
G01 X-32.7309 Y5.9245
G01 X-32.7142 Y5.9119
G01 X-32.6981 Y5.8985
G01 X-32.6827 Y5.8843
G01 X-32.6679 Y5.8693
G01 X-32.6540 Y5.8537
G01 X-32.6373 Y5.8328
G01 X-32.6203 Y5.8082
G01 X-32.6063 Y5.7849
G01 X-32.5902 Y5.7531
G01 X-32.4142 Y5.3287
G01 X-32.2245 Y5.1390
G01 X-32.2011 Y5.1136
G01 X-32.1844 Y5.0927
G01 X-32.1640 Y5.0628
G01 X-32.1465 Y5.0318
G01 X-32.1305 Y4.9970
G01 X-32.1220 Y4.9739
G01 X-32.1158 Y4.9539
G01 X-32.1105 Y4.9336
G01 X-32.1052 Y4.9069
G01 X-32.1023 Y4.8862
G01 X-32.0997 Y4.8506
G01 X-32.0995 Y4.8296
G01 X-32.1004 Y4.8087
G01 X-32.1030 Y4.7816
G01 X-32.1063 Y4.7609
G01 X-32.1105 Y4.7404
G01 X-32.1158 Y4.7201
G01 X-32.1269 Y4.6862
G01 X-32.1348 Y4.6668
G01 X-32.1436 Y4.6478
G01 X-32.1565 Y4.6238
G01 X-32.1674 Y4.6059
G01 X-32.1844 Y4.5813
G01 X-32.1999 Y4.5618
G01 X-32.2151 Y4.5448
G01 X-32.2298 Y4.5299
G01 X-32.2452 Y4.5157
G01 X-32.2662 Y4.4984
G01 X-32.2831 Y4.4861
G01 X-32.3007 Y4.4746
G01 X-32.3187 Y4.4639
G01 X-32.3380 Y4.4538
G01 X-32.3699 Y4.4397
G01 X-32.3896 Y4.4325
G01 X-32.4156 Y4.4246
G01 X-32.4429 Y4.4182
G01 X-32.4711 Y4.4136
G01 X-32.4982 Y4.4109
G01 X-32.5265 Y4.4099
G01 X-33.6251 Y4.4099
G01 X-33.6534 Y4.4109
G01 X-33.6805 Y4.4136
G01 X-33.7012 Y4.4168
G01 X-33.7217 Y4.4210
G01 X-33.7561 Y4.4306
G01 X-33.7852 Y4.4411
G01 X-33.8136 Y4.4538
G01 X-33.8448 Y4.4708
G01 X-33.8736 Y4.4897
G01 X-33.9003 Y4.5104
G01 X-33.9271 Y4.5350
G01 X-33.9464 Y4.5557
G01 X-33.9672 Y4.5813
G01 X-33.9842 Y4.6059
G01 X-33.9982 Y4.6293
G01 X-34.0143 Y4.6611
G01 X-34.0247 Y4.6863
G01 X-34.0345 Y4.7159
G01 X-34.1293 Y4.8108
G01 X-34.1896 Y4.7873
G01 X-34.2571 Y4.7647
G01 X-34.3256 Y4.7453
G01 X-34.4018 Y4.7279
G01 X-34.4650 Y4.7169
G01 X-34.5356 Y4.7078
G01 X-34.6065 Y4.7022
G01 X-34.6850 Y4.7000
G01 X-34.7635 Y4.7022
G01 X-34.8327 Y4.7076
G01 X-34.9050 Y4.7169
G01 X-34.9682 Y4.7279
G01 X-35.0444 Y4.7453
G01 X-35.1129 Y4.7647
G01 X-35.1804 Y4.7873
G01 X-35.2404 Y4.8106
G01 X-35.3357 Y4.7151
G01 X-35.3453 Y4.6863
G01 X-35.3557 Y4.6611
G01 X-35.3718 Y4.6293
G01 X-35.3858 Y4.6059
G01 X-35.4028 Y4.5813
G01 X-35.4195 Y4.5605
G01 X-35.4429 Y4.5350
G01 X-35.4636 Y4.5157
G01 X-35.4892 Y4.4949
G01 X-35.5190 Y4.4746
G01 X-35.5501 Y4.4570
G01 X-35.5747 Y4.4453
G01 X-35.6080 Y4.4325
G01 X-35.6340 Y4.4246
G01 X-35.6613 Y4.4182
G01 X-35.6957 Y4.4128
G01 X-35.7166 Y4.4109
G01 X-35.7449 Y4.4099
G01 X-38.8498 Y4.4102
G01 X-38.8707 Y4.4114
G01 X-38.8915 Y4.4136
G01 X-38.9123 Y4.4168
G01 X-38.9328 Y4.4210
G01 X-38.9531 Y4.4263
G01 X-38.9731 Y4.4325
G01 X-39.0064 Y4.4453
G01 X-39.0247 Y4.4538
G01 X-39.0439 Y4.4639
G01 X-39.0608 Y4.4738
G01 X-39.0795 Y4.4861
G01 X-39.1113 Y4.5104
G01 X-39.1382 Y4.5350
G01 X-39.1616 Y4.5604
G01 X-39.1747 Y4.5767
G01 X-39.1871 Y4.5937
G01 X-39.1986 Y4.6112
G01 X-39.2093 Y4.6292
G01 X-39.2194 Y4.6485
G01 X-39.2278 Y4.6668
G01 X-39.2357 Y4.6862
G01 X-39.2426 Y4.7060
G01 X-39.2486 Y4.7261
G01 X-39.2535 Y4.7465
G01 X-39.2575 Y4.7671
G01 X-39.2604 Y4.7878
G01 X-39.2629 Y4.8234
G00 Z1.0000
G00 X-45.6434 Y6.0862
G01 F76.20
G01 Z-0.2000
G01 F120.00
G01 X-45.6450 Y6.1500
G01 X-45.6435 Y6.2138
G01 X-45.6374 Y6.2977
G01 X-45.6281 Y6.3700
G01 X-45.6171 Y6.4332
G01 X-45.6032 Y6.4952
G01 X-45.5803 Y6.5779
G01 X-45.5577 Y6.6454
G01 X-45.5360 Y6.7015
G01 X-45.5029 Y6.7759
G01 X-45.4772 Y6.8270
G01 X-45.4424 Y6.8891
G01 X-45.3965 Y6.9616
G01 X-45.3587 Y7.0151
G01 X-45.3123 Y7.0741
G01 X-45.2743 Y7.1182
G01 X-45.2254 Y7.1700
G01 X-45.1632 Y7.2293
G01 X-45.1205 Y7.2661
G01 X-45.0646 Y7.3102
G01 X-44.9944 Y7.3596
G01 X-44.9467 Y7.3898
G01 X-44.8850 Y7.4252
G01 X-44.8209 Y7.4579
G01 X-44.7952 Y7.4697
G01 X-44.7952 Y7.7763
G01 X-44.7940 Y7.8131
G01 X-44.7917 Y7.8407
G01 X-44.7875 Y7.8717
G01 X-44.7836 Y7.8937
G01 X-44.7789 Y7.9150
G01 X-44.7714 Y7.9435
G01 X-44.7625 Y7.9716
G01 X-44.7508 Y8.0026
G01 X-44.7406 Y8.0262
G01 X-44.7277 Y8.0527
G01 X-44.7067 Y8.0899
G01 X-44.6898 Y8.1158
G01 X-44.6635 Y8.1513
G01 X-44.6347 Y8.1848
G01 X-44.1957 Y8.6244
G01 X-44.1798 Y8.6397
G01 X-44.1577 Y8.6592
G01 X-44.1301 Y8.6811
G01 X-44.1108 Y8.6948
G01 X-44.0735 Y8.7185
G01 X-44.0477 Y8.7327
G01 X-44.0212 Y8.7456
G01 X-43.9976 Y8.7558
G01 X-43.9666 Y8.7675
G01 X-43.9243 Y8.7803
G01 X-43.8887 Y8.7886
G01 X-43.8667 Y8.7925
G01 X-43.8228 Y8.7979
G01 X-43.7934 Y8.7997
G01 X-43.7713 Y8.8002
G01 X-42.3936 Y8.8002
G01 X-39.3902 Y11.8036
G01 X-39.3902 Y12.5000
G01 X-39.3897 Y12.5221
G01 X-39.3879 Y12.5515
G01 X-39.3825 Y12.5953
G01 X-39.3739 Y12.6387
G01 X-39.3621 Y12.6812
G01 X-39.3458 Y12.7263
G01 X-39.3356 Y12.7499
G01 X-39.3227 Y12.7764
G01 X-39.3017 Y12.8136
G01 X-39.2764 Y12.8515
G01 X-39.2504 Y12.8850
G01 X-39.2195 Y12.9191
G01 X-35.5694 Y16.5694
G01 X-35.5425 Y16.5946
G01 X-35.5038 Y16.6261
G01 X-35.4723 Y16.6480
G01 X-35.4344 Y16.6707
G01 X-35.4075 Y16.6847
G01 X-35.3713 Y16.7008
G01 X-35.3402 Y16.7125
G01 X-35.2979 Y16.7253
G01 X-35.2624 Y16.7336
G01 X-35.2403 Y16.7375
G01 X-35.2111 Y16.7414
G01 X-35.1671 Y16.7447
G01 X-34.7915 Y16.7452
G01 X-34.7991 Y16.7909
G01 X-34.8039 Y16.8299
G01 X-34.8089 Y16.8984
G01 X-34.8100 Y16.9450
G01 X-34.8089 Y16.9916
G01 X-34.8053 Y17.0455
G01 X-34.7969 Y17.1137
G01 X-34.7873 Y17.1668
G01 X-34.7752 Y17.2194
G01 X-34.7647 Y17.2572
G01 X-34.7481 Y17.3086
G01 X-34.7234 Y17.3727
G01 X-34.7015 Y17.4212
G01 X-34.6835 Y17.4570
G01 X-34.6504 Y17.5156
G01 X-34.6205 Y17.5622
G01 X-34.5891 Y17.6061
G01 X-34.5568 Y17.6471
G01 X-34.5299 Y17.6782
G01 X-34.4878 Y17.7228
G01 X-34.4432 Y17.7649
G01 X-34.4021 Y17.7999
G01 X-34.3593 Y17.8328
G01 X-34.3272 Y17.8555
G01 X-34.2818 Y17.8846
G01 X-34.2350 Y17.9116
G01 X-34.1862 Y17.9365
G01 X-34.1276 Y17.9626
G01 X-34.0736 Y17.9831
G01 X-34.0363 Y17.9954
G01 X-33.9844 Y18.0102
G01 X-33.9249 Y18.0238
G01 X-33.8641 Y18.0341
G01 X-33.8251 Y18.0389
G01 X-33.7713 Y18.0432
G01 X-33.7174 Y18.0449
G01 X-33.6634 Y18.0439
G01 X-33.5966 Y18.0391
G01 X-33.5413 Y18.0319
G01 X-33.4826 Y18.0211
G01 X-32.6952 Y18.8086
G01 X-32.6951 Y21.9375
G01 X-32.6940 Y21.9669
G01 X-32.6917 Y21.9945
G01 X-32.6875 Y22.0255
G01 X-32.6836 Y22.0475
G01 X-32.6789 Y22.0688
G01 X-32.6714 Y22.0973
G01 X-32.6625 Y22.1253
G01 X-32.6509 Y22.1564
G01 X-32.6406 Y22.1800
G01 X-32.6277 Y22.2065
G01 X-32.6135 Y22.2323
G01 X-32.5980 Y22.2574
G01 X-32.5814 Y22.2817
G01 X-32.5635 Y22.3051
G01 X-32.5446 Y22.3276
G01 X-32.5245 Y22.3492
G01 X-30.5002 Y24.3737
G01 X-30.5002 Y26.2915
G01 X-31.8421 Y27.6335
G01 X-32.2986 Y27.6335
G01 X-32.3354 Y27.6346
G01 X-32.3794 Y27.6390
G01 X-32.4160 Y27.6450
G01 X-32.4515 Y27.6533
G01 X-32.4938 Y27.6661
G01 X-32.5350 Y27.6820
G01 X-32.5750 Y27.7009
G01 X-32.6122 Y27.7219
G01 X-32.6381 Y27.7388
G01 X-32.6574 Y27.7525
G01 X-32.6836 Y27.7732
G01 X-32.7070 Y27.7939
G01 X-32.8262 Y27.9124
G01 X-32.8819 Y27.9336
G01 X-32.9308 Y27.9551
G01 X-32.9950 Y27.9873
G01 X-33.0433 Y28.0150
G01 X-33.0925 Y28.0467
G01 X-33.1344 Y28.0763
G01 X-33.1724 Y28.1059
G01 X-33.2268 Y28.1528
G01 X-33.2628 Y28.1872
G01 X-33.3070 Y28.2341
G01 X-33.3441 Y28.2776
G01 X-33.3737 Y28.3156
G01 X-33.4033 Y28.3575
G01 X-33.4342 Y28.4055
G01 X-33.4696 Y28.4680
G01 X-33.4949 Y28.5192
G01 X-33.5164 Y28.5681
G01 X-33.5330 Y28.6111
G01 X-33.5513 Y28.6652
G01 X-33.5704 Y28.7344
G01 X-33.5812 Y28.7827
G01 X-33.5898 Y28.8320
G01 X-33.5986 Y28.9033
G01 X-33.6017 Y28.9456
G01 X-33.6035 Y29.0026
G01 X-33.6017 Y29.0744
G01 X-33.5974 Y29.1296
G01 X-33.5920 Y29.1734
G01 X-33.5812 Y29.2373
G01 X-33.5704 Y29.2856
G01 X-33.5555 Y29.3407
G01 X-33.5330 Y29.4089
G01 X-33.5164 Y29.4519
G01 X-33.4949 Y29.5008
G01 X-33.4627 Y29.5650
G01 X-33.4350 Y29.6133
G01 X-33.4115 Y29.6503
G01 X-33.3737 Y29.7044
G01 X-33.3359 Y29.7524
G01 X-33.3070 Y29.7859
G01 X-33.2628 Y29.8328
G01 X-33.2159 Y29.8770
G01 X-33.1724 Y29.9141
G01 X-33.1344 Y29.9437
G01 X-33.0803 Y29.9815
G01 X-33.0445 Y30.0042
G01 X-32.9950 Y30.0327
G01 X-32.9308 Y30.0649
G01 X-32.8819 Y30.0864
G01 X-32.8389 Y30.1030
G01 X-32.7707 Y30.1255
G01 X-32.7156 Y30.1404
G01 X-32.6673 Y30.1512
G01 X-32.6034 Y30.1620
G01 X-32.5614 Y30.1672
G01 X-32.5044 Y30.1717
G01 X-32.4326 Y30.1735
G01 X-32.3903 Y30.1725
G01 X-32.3333 Y30.1686
G01 X-32.2620 Y30.1598
G01 X-32.2127 Y30.1512
G01 X-32.1644 Y30.1404
G01 X-32.0952 Y30.1213
G01 X-32.0411 Y30.1030
G01 X-31.9981 Y30.0864
G01 X-31.9366 Y30.0590
G01 X-31.8980 Y30.0396
G01 X-31.8482 Y30.0118
G01 X-31.7875 Y29.9733
G01 X-31.7456 Y29.9437
G01 X-31.6976 Y29.9059
G01 X-31.6641 Y29.8770
G01 X-31.6225 Y29.8379
G01 X-31.5730 Y29.7859
G01 X-31.5359 Y29.7424
G01 X-31.5063 Y29.7044
G01 X-31.4767 Y29.6625
G01 X-31.4458 Y29.6145
G01 X-31.4104 Y29.5520
G01 X-31.3910 Y29.5134
G01 X-31.3679 Y29.4621
G01 X-31.3420 Y29.3950
G01 X-31.3245 Y29.3407
G01 X-31.3096 Y29.2856
G01 X-31.2988 Y29.2373
G01 X-31.2902 Y29.1880
G01 X-31.2814 Y29.1167
G01 X-31.2783 Y29.0744
G01 X-31.2765 Y29.0174
G01 X-31.2783 Y28.9456
G01 X-31.2826 Y28.8904
G01 X-31.2880 Y28.8466
G01 X-31.2974 Y28.7902
G01 X-31.3040 Y28.7593
G01 X-31.2662 Y28.7366
G01 X-31.2347 Y28.7147
G01 X-31.1960 Y28.6832
G01 X-31.1691 Y28.6580
G01 X-29.4756 Y26.9645
G01 X-29.4504 Y26.9377
G01 X-29.4315 Y26.9151
G01 X-29.4136 Y26.8917
G01 X-29.3970 Y26.8674
G01 X-29.3815 Y26.8423
G01 X-29.3603 Y26.8026
G01 X-29.3484 Y26.7766
G01 X-29.3375 Y26.7492
G01 X-29.3236 Y26.7073
G01 X-29.3161 Y26.6788
G01 X-29.3100 Y26.6500
G01 X-29.3054 Y26.6209
G01 X-29.3021 Y26.5916
G01 X-29.2999 Y26.5475
G01 X-29.2999 Y24.1178
G01 X-29.3010 Y24.0883
G01 X-29.3033 Y24.0607
G01 X-29.3075 Y24.0298
G01 X-29.3129 Y24.0009
G01 X-29.3197 Y23.9722
G01 X-29.3279 Y23.9439
G01 X-29.3375 Y23.9161
G01 X-29.3544 Y23.8752
G01 X-29.3673 Y23.8488
G01 X-29.3815 Y23.8230
G01 X-29.4052 Y23.7856
G01 X-29.4189 Y23.7663
G01 X-29.4396 Y23.7402
G01 X-29.4705 Y23.7060
G01 X-31.4949 Y21.6815
G01 X-31.4950 Y18.5526
G01 X-31.4971 Y18.5085
G01 X-31.5004 Y18.4792
G01 X-31.5065 Y18.4426
G01 X-31.5112 Y18.4213
G01 X-31.5187 Y18.3928
G01 X-31.5276 Y18.3648
G01 X-31.5435 Y18.3235
G01 X-31.5557 Y18.2968
G01 X-31.5765 Y18.2578
G01 X-31.5920 Y18.2327
G01 X-31.6139 Y18.2012
G01 X-31.6346 Y18.1750
G01 X-31.6655 Y18.1409
G01 X-32.6339 Y17.1724
G01 X-32.6231 Y17.1137
G01 X-32.6147 Y17.0455
G01 X-32.6111 Y16.9916
G01 X-32.6100 Y16.9450
G01 X-32.6111 Y16.8984
G01 X-32.6159 Y16.8316
G01 X-32.6231 Y16.7763
G01 X-32.6312 Y16.7301
G01 X-32.6413 Y16.6849
G01 X-32.6596 Y16.6187
G01 X-32.6769 Y16.5675
G01 X-32.6924 Y16.5274
G01 X-32.7185 Y16.4688
G01 X-32.7434 Y16.4200
G01 X-32.7696 Y16.3744
G01 X-32.7914 Y16.3400
G01 X-32.8309 Y16.2839
G01 X-32.8632 Y16.2429
G01 X-32.8901 Y16.2118
G01 X-32.9322 Y16.1672
G01 X-32.9768 Y16.1251
G01 X-33.0179 Y16.0901
G01 X-33.0607 Y16.0572
G01 X-33.0928 Y16.0345
G01 X-33.1382 Y16.0054
G01 X-33.1850 Y15.9784
G01 X-33.2338 Y15.9535
G01 X-33.2924 Y15.9274
G01 X-33.3464 Y15.9069
G01 X-33.3837 Y15.8946
G01 X-33.4356 Y15.8798
G01 X-33.4951 Y15.8662
G01 X-33.5559 Y15.8559
G01 X-33.5949 Y15.8511
G01 X-33.6487 Y15.8468
G01 X-33.7026 Y15.8451
G01 X-33.7566 Y15.8461
G01 X-33.8234 Y15.8509
G01 X-33.8787 Y15.8581
G01 X-33.9374 Y15.8689
G01 X-34.0909 Y15.7155
G01 X-34.1236 Y15.6858
G01 X-34.1512 Y15.6639
G01 X-34.1705 Y15.6502
G01 X-34.1952 Y15.6341
G01 X-34.2206 Y15.6193
G01 X-34.2475 Y15.6053
G01 X-34.2736 Y15.5934
G01 X-34.3009 Y15.5825
G01 X-34.3429 Y15.5686
G01 X-34.3857 Y15.5579
G01 X-34.4147 Y15.5525
G01 X-34.4439 Y15.5486
G01 X-34.4879 Y15.5453
G01 X-34.8964 Y15.5449
G01 X-37.9849 Y12.4564
G01 X-37.9849 Y11.7600
G01 X-37.9860 Y11.7232
G01 X-37.9886 Y11.6939
G01 X-37.9950 Y11.6502
G01 X-38.0047 Y11.6071
G01 X-38.0175 Y11.5648
G01 X-38.0292 Y11.5337
G01 X-38.0453 Y11.4975
G01 X-38.0665 Y11.4578
G01 X-38.0902 Y11.4205
G01 X-38.1165 Y11.3850
G01 X-38.1354 Y11.3625
G01 X-38.1606 Y11.3356
G01 X-41.7206 Y7.7756
G01 X-41.7475 Y7.7504
G01 X-41.7862 Y7.7189
G01 X-41.8177 Y7.6970
G01 X-41.8556 Y7.6743
G01 X-41.8951 Y7.6544
G01 X-41.9359 Y7.6375
G01 X-41.9779 Y7.6236
G01 X-42.0063 Y7.6161
G01 X-42.0276 Y7.6114
G01 X-42.0497 Y7.6075
G01 X-42.0789 Y7.6036
G01 X-42.1082 Y7.6010
G01 X-42.1450 Y7.5999
G01 X-43.5228 Y7.5999
G01 X-43.5948 Y7.5278
G01 X-43.5948 Y7.4697
G01 X-43.5691 Y7.4579
G01 X-43.5180 Y7.4322
G01 X-43.4445 Y7.3906
G01 X-43.3834 Y7.3515
G01 X-43.3299 Y7.3137
G01 X-43.2809 Y7.2755
G01 X-43.2158 Y7.2194
G01 X-43.1697 Y7.1753
G01 X-43.1256 Y7.1292
G01 X-43.0695 Y7.0641
G01 X-43.0260 Y7.0078
G01 X-42.9935 Y6.9616
G01 X-42.9552 Y6.9017
G01 X-42.9198 Y6.8400
G01 X-42.8871 Y6.7759
G01 X-42.8540 Y6.7015
G01 X-42.8274 Y6.6315
G01 X-42.8054 Y6.5638
G01 X-42.7868 Y6.4952
G01 X-42.7729 Y6.4332
G01 X-42.7619 Y6.3700
G01 X-42.7528 Y6.2994
G01 X-42.7465 Y6.2138
G01 X-42.7451 Y6.1426
G01 X-42.7465 Y6.0862
G01 X-42.7514 Y6.0152
G01 X-42.7597 Y5.9445
G01 X-42.7744 Y5.8599
G01 X-42.7903 Y5.7906
G01 X-42.8054 Y5.7362
G01 X-42.8274 Y5.6685
G01 X-42.8540 Y5.5985
G01 X-42.8874 Y5.5234
G01 X-42.9128 Y5.4730
G01 X-42.9476 Y5.4109
G01 X-42.9935 Y5.3384
G01 X-43.0313 Y5.2849
G01 X-43.0695 Y5.2359
G01 X-43.1157 Y5.1818
G01 X-43.1697 Y5.1247
G01 X-43.2268 Y5.0707
G01 X-43.2695 Y5.0339
G01 X-43.3254 Y4.9898
G01 X-43.3956 Y4.9404
G01 X-43.4433 Y4.9102
G01 X-43.5050 Y4.8748
G01 X-43.5691 Y4.8421
G01 X-43.6469 Y4.8076
G01 X-43.6996 Y4.7873
G01 X-43.7671 Y4.7647
G01 X-43.8498 Y4.7418
G01 X-43.9118 Y4.7279
G01 X-43.9750 Y4.7169
G01 X-44.0456 Y4.7078
G01 X-44.1312 Y4.7015
G01 X-44.1950 Y4.7000
G01 X-44.2588 Y4.7015
G01 X-44.3427 Y4.7076
G01 X-44.4005 Y4.7147
G01 X-44.4706 Y4.7265
G01 X-44.5544 Y4.7453
G01 X-44.6088 Y4.7604
G01 X-44.6765 Y4.7824
G01 X-44.7465 Y4.8090
G01 X-44.8209 Y4.8421
G01 X-44.8720 Y4.8678
G01 X-44.9341 Y4.9026
G01 X-45.0066 Y4.9485
G01 X-45.0601 Y4.9863
G01 X-45.1091 Y5.0245
G01 X-45.1742 Y5.0806
G01 X-45.2203 Y5.1247
G01 X-45.2644 Y5.1708
G01 X-45.3205 Y5.2359
G01 X-45.3587 Y5.2849
G01 X-45.3965 Y5.3384
G01 X-45.4424 Y5.4109
G01 X-45.4772 Y5.4730
G01 X-45.5029 Y5.5241
G01 X-45.5374 Y5.6019
G01 X-45.5577 Y5.6546
G01 X-45.5803 Y5.7221
G01 X-45.6032 Y5.8048
G01 X-45.6171 Y5.8668
G01 X-45.6281 Y5.9300
G01 X-45.6386 Y6.0152
G01 X-45.6434 Y6.0862
G00 Z1.0000
G00 X-49.1434 Y6.0862
G01 F76.20
G01 Z-0.2000
G01 F120.00
G01 X-49.1450 Y6.1500
G01 X-49.1428 Y6.2285
G01 X-49.1374 Y6.2977
G01 X-49.1303 Y6.3555
G01 X-49.1185 Y6.4256
G01 X-49.1032 Y6.4952
G01 X-49.0846 Y6.5638
G01 X-49.0626 Y6.6315
G01 X-49.0360 Y6.7015
G01 X-49.0029 Y6.7759
G01 X-48.9702 Y6.8400
G01 X-48.9356 Y6.9005
G01 X-48.9046 Y6.9494
G01 X-48.8640 Y7.0078
G01 X-48.8205 Y7.0641
G01 X-48.7743 Y7.1182
G01 X-48.7203 Y7.1753
G01 X-48.6632 Y7.2293
G01 X-48.6205 Y7.2661
G01 X-48.5646 Y7.3102
G01 X-48.4944 Y7.3596
G01 X-48.4467 Y7.3898
G01 X-48.3850 Y7.4252
G01 X-48.3209 Y7.4579
G01 X-48.2465 Y7.4910
G01 X-48.1765 Y7.5176
G01 X-48.1229 Y7.5353
G01 X-48.0544 Y7.5547
G01 X-47.9782 Y7.5721
G01 X-47.9005 Y7.5853
G01 X-47.8444 Y7.5922
G01 X-47.7735 Y7.5978
G01 X-47.6876 Y7.5999
G01 X-47.6312 Y7.5985
G01 X-47.5602 Y7.5936
G01 X-47.4750 Y7.5831
G01 X-47.4118 Y7.5721
G01 X-47.3498 Y7.5582
G01 X-47.2671 Y7.5353
G01 X-47.2135 Y7.5176
G01 X-47.1862 Y7.5075
G01 X-45.1052 Y9.5886
G01 X-45.1052 Y10.9433
G01 X-45.1616 Y10.9824
G01 X-45.2071 Y11.0182
G01 X-45.2491 Y11.0550
G01 X-45.2880 Y11.0925
G01 X-45.3249 Y11.1318
G01 X-45.3506 Y11.1615
G01 X-45.3841 Y11.2039
G01 X-45.4155 Y11.2478
G01 X-45.4522 Y11.3058
G01 X-45.4785 Y11.3530
G01 X-45.4965 Y11.3888
G01 X-45.5184 Y11.4373
G01 X-45.5381 Y11.4875
G01 X-45.5597 Y11.5528
G01 X-45.5737 Y11.6049
G01 X-45.5838 Y11.6501
G01 X-45.5919 Y11.6963
G01 X-45.6003 Y11.7645
G01 X-45.6039 Y11.8184
G01 X-45.6050 Y11.8650
G01 X-45.6032 Y11.9263
G01 X-45.5991 Y11.9784
G01 X-45.5941 Y12.0191
G01 X-45.5852 Y12.0724
G01 X-45.5737 Y12.1251
G01 X-45.5597 Y12.1772
G01 X-45.5431 Y12.2286
G01 X-45.5226 Y12.2826
G01 X-45.4965 Y12.3412
G01 X-45.4716 Y12.3900
G01 X-45.4454 Y12.4356
G01 X-45.4155 Y12.4822
G01 X-45.3841 Y12.5261
G01 X-45.3518 Y12.5671
G01 X-45.3249 Y12.5982
G01 X-45.2828 Y12.6428
G01 X-45.2491 Y12.6750
G01 X-45.2085 Y12.7106
G01 X-45.1543 Y12.7528
G01 X-45.1222 Y12.7755
G01 X-45.0768 Y12.8046
G01 X-45.0300 Y12.8316
G01 X-44.9812 Y12.8565
G01 X-44.9226 Y12.8826
G01 X-44.8686 Y12.9031
G01 X-44.8313 Y12.9154
G01 X-44.7794 Y12.9302
G01 X-44.7199 Y12.9438
G01 X-44.6591 Y12.9541
G01 X-44.6201 Y12.9589
G01 X-44.5663 Y12.9632
G01 X-44.5124 Y12.9649
G01 X-44.4584 Y12.9639
G01 X-44.3916 Y12.9591
G01 X-44.3363 Y12.9519
G01 X-44.2776 Y12.9411
G01 X-44.1134 Y13.1047
G01 X-44.0800 Y13.1335
G01 X-44.0565 Y13.1514
G01 X-44.0323 Y13.1680
G01 X-44.0072 Y13.1835
G01 X-43.9682 Y13.2043
G01 X-43.9414 Y13.2166
G01 X-43.9141 Y13.2275
G01 X-43.8862 Y13.2371
G01 X-43.8579 Y13.2453
G01 X-43.8224 Y13.2536
G01 X-43.7858 Y13.2596
G01 X-43.7418 Y13.2640
G01 X-43.7050 Y13.2651
G01 X-40.7546 Y13.2651
G01 X-33.8952 Y20.1246
G01 X-33.8951 Y22.9424
G01 X-33.8940 Y22.9718
G01 X-33.8917 Y22.9994
G01 X-33.8875 Y23.0303
G01 X-33.8836 Y23.0524
G01 X-33.8789 Y23.0736
G01 X-33.8714 Y23.1021
G01 X-33.8625 Y23.1302
G01 X-33.8522 Y23.1578
G01 X-33.8406 Y23.1849
G01 X-33.8277 Y23.2114
G01 X-33.8135 Y23.2372
G01 X-33.7981 Y23.2622
G01 X-33.7814 Y23.2865
G01 X-33.7636 Y23.3100
G01 X-33.7446 Y23.3325
G01 X-33.7245 Y23.3541
G01 X-31.9488 Y25.1300
G01 X-32.1595 Y25.3408
G01 X-32.2202 Y25.3274
G01 X-32.2620 Y25.3202
G01 X-32.3186 Y25.3128
G01 X-32.3756 Y25.3083
G01 X-32.4474 Y25.3065
G01 X-32.4897 Y25.3075
G01 X-32.5467 Y25.3114
G01 X-32.6180 Y25.3202
G01 X-32.6673 Y25.3288
G01 X-32.7156 Y25.3396
G01 X-32.7707 Y25.3545
G01 X-32.8389 Y25.3770
G01 X-32.8921 Y25.3979
G01 X-32.9434 Y25.4210
G01 X-32.9820 Y25.4404
G01 X-33.0433 Y25.4750
G01 X-33.0803 Y25.4985
G01 X-33.1272 Y25.5311
G01 X-33.1824 Y25.5741
G01 X-33.2268 Y25.6128
G01 X-33.2628 Y25.6472
G01 X-33.2972 Y25.6832
G01 X-33.3347 Y25.7262
G01 X-33.3789 Y25.7828
G01 X-33.4033 Y25.8175
G01 X-33.4342 Y25.8655
G01 X-33.4627 Y25.9150
G01 X-33.4890 Y25.9666
G01 X-33.5178 Y26.0315
G01 X-33.5330 Y26.0711
G01 X-33.5513 Y26.1252
G01 X-33.5704 Y26.1944
G01 X-33.5812 Y26.2427
G01 X-33.5898 Y26.2920
G01 X-33.5986 Y26.3633
G01 X-33.6017 Y26.4056
G01 X-33.6035 Y26.4626
G01 X-33.6025 Y26.5197
G01 X-33.5974 Y26.5896
G01 X-33.5920 Y26.6334
G01 X-33.5826 Y26.6898
G01 X-33.5704 Y26.7456
G01 X-33.5513 Y26.8148
G01 X-33.5380 Y26.8550
G01 X-33.5178 Y26.9085
G01 X-33.4949 Y26.9608
G01 X-33.4696 Y27.0120
G01 X-33.4350 Y27.0733
G01 X-33.4033 Y27.1225
G01 X-33.3737 Y27.1644
G01 X-33.3441 Y27.2024
G01 X-33.3070 Y27.2459
G01 X-33.2628 Y27.2928
G01 X-33.2159 Y27.3370
G01 X-33.1838 Y27.3647
G01 X-33.1390 Y27.4002
G01 X-33.0925 Y27.4333
G01 X-33.0318 Y27.4718
G01 X-32.9820 Y27.4996
G01 X-32.9434 Y27.5190
G01 X-32.8921 Y27.5421
G01 X-32.8389 Y27.5630
G01 X-32.7707 Y27.5855
G01 X-32.7156 Y27.6004
G01 X-32.6673 Y27.6112
G01 X-32.6180 Y27.6198
G01 X-32.5467 Y27.6286
G01 X-32.4897 Y27.6325
G01 X-32.4400 Y27.6336
G01 X-32.3903 Y27.6325
G01 X-32.3333 Y27.6286
G01 X-32.2766 Y27.6220
G01 X-32.2127 Y27.6112
G01 X-32.1501 Y27.5969
G01 X-32.1093 Y27.5855
G01 X-32.0550 Y27.5680
G01 X-31.9981 Y27.5464
G01 X-31.9366 Y27.5190
G01 X-31.8850 Y27.4927
G01 X-31.8367 Y27.4650
G01 X-31.7997 Y27.4415
G01 X-31.7456 Y27.4037
G01 X-31.6976 Y27.3659
G01 X-31.6532 Y27.3272
G01 X-31.6172 Y27.2928
G01 X-31.5828 Y27.2568
G01 X-31.5359 Y27.2024
G01 X-31.5063 Y27.1644
G01 X-31.4767 Y27.1225
G01 X-31.4382 Y27.0618
G01 X-31.4104 Y27.0120
G01 X-31.3910 Y26.9734
G01 X-31.3622 Y26.9085
G01 X-31.3470 Y26.8689
G01 X-31.3287 Y26.8148
G01 X-31.3096 Y26.7456
G01 X-31.2974 Y26.6898
G01 X-31.2902 Y26.6480
G01 X-31.2828 Y26.5914
G01 X-31.2775 Y26.5197
G01 X-31.2764 Y26.4700
G01 X-31.2775 Y26.4203
G01 X-31.2826 Y26.3504
G01 X-31.2880 Y26.3066
G01 X-31.2974 Y26.2502
G01 X-31.3108 Y26.1895
G01 X-30.6756 Y25.5544
G01 X-30.6603 Y25.5384
G01 X-30.6408 Y25.5164
G01 X-30.6137 Y25.4816
G01 X-30.5970 Y25.4573
G01 X-30.5815 Y25.4322
G01 X-30.5604 Y25.3925
G01 X-30.5484 Y25.3664
G01 X-30.5375 Y25.3391
G01 X-30.5279 Y25.3112
G01 X-30.5197 Y25.2830
G01 X-30.5115 Y25.2474
G01 X-30.5075 Y25.2253
G01 X-30.5036 Y25.1962
G01 X-30.5010 Y25.1668
G01 X-30.4999 Y25.1300
G01 X-30.5003 Y25.1079
G01 X-30.5021 Y25.0785
G01 X-30.5054 Y25.0492
G01 X-30.5115 Y25.0126
G01 X-30.5161 Y24.9913
G01 X-30.5237 Y24.9629
G01 X-30.5375 Y24.9209
G01 X-30.5484 Y24.8936
G01 X-30.5604 Y24.8675
G01 X-30.5815 Y24.8278
G01 X-30.6052 Y24.7905
G01 X-30.6315 Y24.7550
G01 X-30.6603 Y24.7216
G01 X-32.6949 Y22.6864
G01 X-32.6953 Y19.8539
G01 X-32.6984 Y19.8116
G01 X-32.7025 Y19.7806
G01 X-32.7065 Y19.7586
G01 X-32.7112 Y19.7373
G01 X-32.7187 Y19.7088
G01 X-32.7325 Y19.6669
G01 X-32.7435 Y19.6395
G01 X-32.7554 Y19.6135
G01 X-32.7766 Y19.5738
G01 X-32.8002 Y19.5365
G01 X-32.8139 Y19.5172
G01 X-32.8347 Y19.4910
G01 X-32.8554 Y19.4675
G01 X-32.8707 Y19.4516
G01 X-40.0816 Y12.2406
G01 X-40.0976 Y12.2253
G01 X-40.1196 Y12.2058
G01 X-40.1472 Y12.1839
G01 X-40.1665 Y12.1702
G01 X-40.2038 Y12.1465
G01 X-40.2435 Y12.1253
G01 X-40.2797 Y12.1092
G01 X-40.3248 Y12.0929
G01 X-40.3673 Y12.0811
G01 X-40.4107 Y12.0725
G01 X-40.4399 Y12.0686
G01 X-40.4839 Y12.0653
G01 X-43.4235 Y12.0648
G01 X-43.4159 Y12.0191
G01 X-43.4111 Y11.9801
G01 X-43.4061 Y11.9116
G01 X-43.4050 Y11.8650
G01 X-43.4061 Y11.8184
G01 X-43.4109 Y11.7516
G01 X-43.4159 Y11.7109
G01 X-43.4248 Y11.6576
G01 X-43.4398 Y11.5906
G01 X-43.4503 Y11.5528
G01 X-43.4669 Y11.5014
G01 X-43.4916 Y11.4373
G01 X-43.5135 Y11.3888
G01 X-43.5315 Y11.3530
G01 X-43.5646 Y11.2944
G01 X-43.5864 Y11.2600
G01 X-43.6172 Y11.2157
G01 X-43.6582 Y11.1629
G01 X-43.6851 Y11.1318
G01 X-43.7220 Y11.0925
G01 X-43.7718 Y11.0451
G01 X-43.8129 Y11.0101
G01 X-43.8484 Y10.9824
G01 X-43.9048 Y10.9433
G01 X-43.9053 Y9.3179
G01 X-43.9071 Y9.2885
G01 X-43.9104 Y9.2592
G01 X-43.9150 Y9.2302
G01 X-43.9211 Y9.2013
G01 X-43.9286 Y9.1729
G01 X-43.9375 Y9.1448
G01 X-43.9492 Y9.1137
G01 X-43.9653 Y9.0775
G01 X-43.9793 Y9.0506
G01 X-43.9933 Y9.0264
G01 X-44.0186 Y8.9885
G01 X-44.0446 Y8.9550
G01 X-44.0653 Y8.9316
G01 X-44.0806 Y8.9156
G01 X-46.3375 Y6.6588
G01 X-46.3274 Y6.6315
G01 X-46.3054 Y6.5638
G01 X-46.2868 Y6.4952
G01 X-46.2729 Y6.4332
G01 X-46.2597 Y6.3555
G01 X-46.2528 Y6.2994
G01 X-46.2472 Y6.2285
G01 X-46.2451 Y6.1426
G01 X-46.2472 Y6.0715
G01 X-46.2526 Y6.0023
G01 X-46.2597 Y5.9445
G01 X-46.2715 Y5.8744
G01 X-46.2903 Y5.7906
G01 X-46.3054 Y5.7362
G01 X-46.3274 Y5.6685
G01 X-46.3540 Y5.5985
G01 X-46.3811 Y5.5367
G01 X-46.4198 Y5.4600
G01 X-46.4544 Y5.3995
G01 X-46.4854 Y5.3506
G01 X-46.5348 Y5.2804
G01 X-46.5777 Y5.2259
G01 X-46.6157 Y5.1818
G01 X-46.6750 Y5.1196
G01 X-46.7158 Y5.0806
G01 X-46.7695 Y5.0339
G01 X-46.8372 Y4.9810
G01 X-46.8834 Y4.9485
G01 X-46.9433 Y4.9102
G01 X-47.0180 Y4.8678
G01 X-47.0691 Y4.8421
G01 X-47.1333 Y4.8133
G01 X-47.2135 Y4.7824
G01 X-47.2671 Y4.7647
G01 X-47.3356 Y4.7453
G01 X-47.4118 Y4.7279
G01 X-47.4895 Y4.7147
G01 X-47.5456 Y4.7078
G01 X-47.6165 Y4.7022
G01 X-47.6950 Y4.7000
G01 X-47.7588 Y4.7015
G01 X-47.8298 Y4.7064
G01 X-47.9150 Y4.7169
G01 X-47.9782 Y4.7279
G01 X-48.0402 Y4.7418
G01 X-48.1229 Y4.7647
G01 X-48.1904 Y4.7873
G01 X-48.2465 Y4.8090
G01 X-48.3083 Y4.8361
G01 X-48.3850 Y4.8748
G01 X-48.4455 Y4.9094
G01 X-48.4944 Y4.9404
G01 X-48.5646 Y4.9898
G01 X-48.6191 Y5.0327
G01 X-48.6632 Y5.0707
G01 X-48.7254 Y5.1300
G01 X-48.7644 Y5.1708
G01 X-48.8111 Y5.2245
G01 X-48.8587 Y5.2849
G01 X-48.9046 Y5.3506
G01 X-48.9348 Y5.3983
G01 X-48.9702 Y5.4600
G01 X-49.0029 Y5.5241
G01 X-49.0374 Y5.6019
G01 X-49.0577 Y5.6546
G01 X-49.0803 Y5.7221
G01 X-49.1032 Y5.8048
G01 X-49.1171 Y5.8668
G01 X-49.1281 Y5.9300
G01 X-49.1386 Y6.0152
G01 X-49.1434 Y6.0862
G00 Z1.0000
G00 X-43.6988 Y16.2634
G01 F76.20
G01 Z-0.2000
G01 F120.00
G01 X-43.7000 Y16.3100
G01 X-43.6989 Y16.3566
G01 X-43.6953 Y16.4105
G01 X-43.6891 Y16.4641
G01 X-43.6788 Y16.5249
G01 X-43.6687 Y16.5701
G01 X-43.6504 Y16.6363
G01 X-43.6331 Y16.6875
G01 X-43.6176 Y16.7276
G01 X-43.5975 Y16.7736
G01 X-43.5735 Y16.8220
G01 X-43.5396 Y16.8818
G01 X-43.5105 Y16.9272
