(G-CODE GENERATED BY FLATCAM v8.93 - www.flatcam.org - Version Date: 2019/08/10)

(Name: cuivre_lombricomposter)
(Type: G-code from Geometry)
(Units: MM)

(Created on Sunday, 03 November 2019 at 18:20)

(TOOL DIAMETER: 0.6 mm)
(Feedrate: 170.0 mm/min)
(Feedrate_Z: 76.2 mm/min)
(Feedrate rapids 76.2 mm/min)

(Z_Cut: -0.2 mm)
(Z_Move: 1.0 mm)
(Z Toolchange: 12.7 mm)
(X,Y Toolchange: 0.0000, 0.0000 mm)
(Z Start: None mm)
(Z End: 12.7 mm)
(Steps per circle: 128)
(Postprocessor Geometry: default)

(X range:    2.0050 ...   70.8408  mm)
(Y range:    0.2100 ...   96.7171  mm)

(Spindle Speed: 12000 RPM)

G21
G90
G94

G01 F170.00
G00 Z1.0000

M03 S12000
G00 X4.1056 Y9.2931
G01 F76.20
G01 Z-0.2000
G01 F170.00
G01 X4.1047 Y9.3250
G01 X4.1054 Y9.3569
G01 X4.1092 Y9.4090
G01 X4.1146 Y9.4497
G01 X4.1202 Y9.4814
G01 X4.1270 Y9.5123
G01 X4.1414 Y9.5643
G01 X4.1541 Y9.6015
G01 X4.1643 Y9.6278
G01 X4.1845 Y9.6730
G01 X4.1959 Y9.6957
G01 X4.2149 Y9.7300
G01 X4.2356 Y9.7634
G01 X4.2632 Y9.8030
G01 X4.2899 Y9.8369
G01 X4.3171 Y9.8678
G01 X4.3391 Y9.8909
G01 X4.6047 Y10.1565
G01 X4.6047 Y11.9065
G01 X4.3391 Y12.1721
G01 X4.3171 Y12.1952
G01 X4.2911 Y12.2247
G01 X4.2632 Y12.2600
G01 X4.2438 Y12.2873
G01 X4.2225 Y12.3203
G01 X4.1959 Y12.3673
G01 X4.1845 Y12.3899
G01 X4.1686 Y12.4250
G01 X4.1541 Y12.4615
G01 X4.1372 Y12.5128
G01 X4.1306 Y12.5364
G01 X4.1217 Y12.5747
G01 X4.1124 Y12.6279
G01 X4.1094 Y12.6522
G01 X4.1062 Y12.6914
G01 X4.1047 Y12.7380
G01 X4.1047 Y77.9050
G01 X4.1054 Y77.9369
G01 X4.1080 Y77.9761
G01 X4.1124 Y78.0151
G01 X4.1217 Y78.0683
G01 X4.1306 Y78.1066
G01 X4.1414 Y78.1443
G01 X4.1541 Y78.1815
G01 X4.1643 Y78.2079
G01 X4.1785 Y78.2405
G01 X4.1959 Y78.2757
G01 X4.2217 Y78.3215
G01 X4.2438 Y78.3557
G01 X4.2632 Y78.3830
G01 X4.2899 Y78.4169
G01 X4.3072 Y78.4369
G01 X4.3391 Y78.4709
G01 X6.3457 Y80.4774
G01 X6.3468 Y80.5063
G01 X6.3509 Y80.5584
G01 X6.3581 Y80.6137
G01 X6.3662 Y80.6599
G01 X6.3763 Y80.7051
G01 X6.3903 Y80.7572
G01 X6.4069 Y80.8086
G01 X6.4274 Y80.8626
G01 X6.4475 Y80.9086
G01 X6.4715 Y80.9570
G01 X6.4978 Y81.0042
G01 X6.5264 Y81.0500
G01 X6.5624 Y81.1015
G01 X6.5901 Y81.1371
G01 X6.6350 Y81.1891
G01 X6.6672 Y81.2228
G01 X6.7118 Y81.2649
G01 X6.7415 Y81.2906
G01 X6.7839 Y81.3241
G01 X6.8278 Y81.3555
G01 X6.8732 Y81.3846
G01 X6.9200 Y81.4116
G01 X6.9688 Y81.4365
G01 X7.0274 Y81.4626
G01 X7.0814 Y81.4831
G01 X7.1328 Y81.4997
G01 X7.1849 Y81.5137
G01 X7.2376 Y81.5252
G01 X7.2909 Y81.5341
G01 X7.3299 Y81.5389
G01 X7.3837 Y81.5432
G01 X7.4450 Y81.5450
G01 X7.4916 Y81.5439
G01 X7.5584 Y81.5391
G01 X7.6137 Y81.5319
G01 X7.6599 Y81.5238
G01 X7.7051 Y81.5137
G01 X7.7572 Y81.4997
G01 X7.8086 Y81.4831
G01 X7.8727 Y81.4584
G01 X7.9212 Y81.4365
G01 X7.9570 Y81.4185
G01 X8.0042 Y81.3922
G01 X8.0622 Y81.3555
G01 X8.1061 Y81.3241
G01 X8.1471 Y81.2918
G01 X8.1782 Y81.2649
G01 X8.2228 Y81.2228
G01 X8.2649 Y81.1782
G01 X8.2999 Y81.1371
G01 X8.3328 Y81.0943
G01 X8.3555 Y81.0622
G01 X8.3846 Y81.0168
G01 X8.4116 Y80.9700
G01 X8.4425 Y80.9086
G01 X8.4640 Y80.8591
G01 X8.4781 Y80.8225
G01 X8.4954 Y80.7713
G01 X8.5102 Y80.7194
G01 X8.5252 Y80.6524
G01 X8.5341 Y80.5991
G01 X8.5389 Y80.5601
G01 X8.5432 Y80.5063
G01 X8.5450 Y80.4450
G01 X8.5432 Y80.3837
G01 X8.5391 Y80.3316
G01 X8.5341 Y80.2909
G01 X8.5238 Y80.2301
G01 X8.5102 Y80.1706
G01 X8.4954 Y80.1187
G01 X8.4831 Y80.0814
G01 X8.4640 Y80.0309
G01 X8.4425 Y79.9814
G01 X8.4116 Y79.9200
G01 X8.3854 Y79.8744
G01 X8.3636 Y79.8400
G01 X8.3241 Y79.7839
G01 X8.2918 Y79.7429
G01 X8.2649 Y79.7118
G01 X8.2228 Y79.6672
G01 X8.1782 Y79.6251
G01 X8.1485 Y79.5994
G01 X8.1061 Y79.5659
G01 X8.0500 Y79.5264
G01 X8.0168 Y79.5054
G01 X7.9700 Y79.4784
G01 X7.9212 Y79.4535
G01 X7.8626 Y79.4274
G01 X7.8225 Y79.4119
G01 X7.7713 Y79.3946
G01 X7.7051 Y79.3763
G01 X7.6599 Y79.3662
G01 X7.6137 Y79.3581
G01 X7.5455 Y79.3497
G01 X7.5063 Y79.3468
G01 X7.4774 Y79.3457
G01 X5.7053 Y77.5735
G01 X5.7053 Y59.0203
G01 X6.6300 Y59.0203
G01 X6.6300 Y59.3700
G01 X6.6313 Y59.3978
G01 X6.6352 Y59.4254
G01 X6.6416 Y59.4526
G01 X6.6505 Y59.4790
G01 X6.6621 Y59.5051
G01 X6.6691 Y59.5181
G01 X6.6848 Y59.5429
G01 X6.6936 Y59.5546
G01 X6.7127 Y59.5769
G01 X6.7231 Y59.5873
G01 X6.7340 Y59.5971
G01 X6.7571 Y59.6152
G01 X6.7693 Y59.6234
G01 X6.7949 Y59.6379
G01 X6.8082 Y59.6441
G01 X6.8341 Y59.6543
G01 X6.8609 Y59.6619
G01 X6.8883 Y59.6671
G01 X6.9022 Y59.6687
G01 X6.9300 Y59.6700
G01 X7.2797 Y59.6700
G01 X7.2797 Y60.5109
G01 X7.2104 Y60.5598
G01 X7.1559 Y60.6027
G01 X7.1118 Y60.6407
G01 X7.0496 Y60.7000
G01 X7.0106 Y60.7408
G01 X6.9639 Y60.7945
G01 X6.9110 Y60.8622
G01 X6.8785 Y60.9084
G01 X6.8402 Y60.9683
G01 X6.7978 Y61.0430
G01 X6.7661 Y61.1067
G01 X6.7390 Y61.1685
G01 X6.7173 Y61.2246
G01 X6.6947 Y61.2921
G01 X6.6718 Y61.3748
G01 X6.6579 Y61.4368
G01 X6.6469 Y61.5000
G01 X6.6364 Y61.5852
G01 X6.6322 Y61.6415
G01 X6.6301 Y61.7126
G01 X6.6322 Y61.7985
G01 X6.6376 Y61.8677
G01 X6.6447 Y61.9255
G01 X6.6579 Y62.0032
G01 X6.6718 Y62.0652
G01 X6.6904 Y62.1338
G01 X6.7173 Y62.2154
G01 X6.7390 Y62.2715
G01 X6.7721 Y62.3458
G01 X6.7978 Y62.3970
G01 X6.8326 Y62.4591
G01 X6.8785 Y62.5316
G01 X6.9163 Y62.5851
G01 X6.9627 Y62.6441
G01 X7.0007 Y62.6882
G01 X7.0496 Y62.7400
G01 X7.1118 Y62.7993
G01 X7.1659 Y62.8455
G01 X7.2149 Y62.8837
G01 X7.2684 Y62.9215
G01 X7.3283 Y62.9598
G01 X7.4030 Y63.0022
G01 X7.4667 Y63.0339
G01 X7.5285 Y63.0610
G01 X7.5846 Y63.0827
G01 X7.6521 Y63.1053
G01 X7.7348 Y63.1282
G01 X7.7968 Y63.1421
G01 X7.8600 Y63.1531
G01 X7.9306 Y63.1622
G01 X8.0015 Y63.1678
G01 X8.0874 Y63.1699
G01 X8.1585 Y63.1678
G01 X8.2277 Y63.1624
G01 X8.2855 Y63.1553
G01 X8.3556 Y63.1435
G01 X8.4394 Y63.1247
G01 X8.4938 Y63.1096
G01 X8.5615 Y63.0876
G01 X8.6315 Y63.0610
G01 X8.6933 Y63.0339
G01 X8.7700 Y62.9952
G01 X8.8305 Y62.9606
G01 X8.8794 Y62.9296
G01 X8.9496 Y62.8802
G01 X9.0041 Y62.8373
G01 X9.0482 Y62.7993
G01 X9.1053 Y62.7453
G01 X9.1494 Y62.6992
G01 X9.2055 Y62.6341
G01 X9.2437 Y62.5851
G01 X9.2815 Y62.5316
G01 X9.3198 Y62.4717
G01 X9.3552 Y62.4100
G01 X9.3939 Y62.3333
G01 X9.4210 Y62.2715
G01 X9.4427 Y62.2154
G01 X9.4696 Y62.1338
G01 X9.4847 Y62.0794
G01 X9.5006 Y62.0101
G01 X9.5131 Y61.9400
G01 X9.5236 Y61.8548
G01 X9.5278 Y61.7985
G01 X9.5299 Y61.7274
G01 X9.5278 Y61.6415
G01 X9.5224 Y61.5723
G01 X9.5153 Y61.5145
G01 X9.5006 Y61.4299
G01 X9.4847 Y61.3606
G01 X9.4653 Y61.2921
G01 X9.4427 Y61.2246
G01 X9.4210 Y61.1685
G01 X9.3879 Y61.0941
G01 X9.3552 Y61.0300
G01 X9.3206 Y60.9695
G01 X9.2815 Y60.9084
G01 X9.2437 Y60.8549
G01 X9.1973 Y60.7959
G01 X9.1494 Y60.7408
G01 X9.1053 Y60.6947
G01 X9.0482 Y60.6407
G01 X8.9941 Y60.5945
G01 X8.9451 Y60.5563
G01 X8.8803 Y60.5110
G01 X8.8803 Y59.6700
G01 X9.2300 Y59.6700
G01 X9.2578 Y59.6687
G01 X9.2854 Y59.6648
G01 X9.3126 Y59.6584
G01 X9.3390 Y59.6495
G01 X9.3651 Y59.6379
G01 X9.3781 Y59.6309
G01 X9.3906 Y59.6234
G01 X9.4146 Y59.6064
G01 X9.4369 Y59.5873
G01 X9.4473 Y59.5769
G01 X9.4571 Y59.5660
G01 X9.4752 Y59.5429
G01 X9.4909 Y59.5181
G01 X9.4979 Y59.5051
G01 X9.5041 Y59.4918
G01 X9.5143 Y59.4659
G01 X9.5219 Y59.4391
G01 X9.5271 Y59.4117
G01 X9.5297 Y59.3839
G01 X9.5300 Y59.3700
G01 X9.5300 Y59.0203
G01 X12.1935 Y59.0203
G01 X12.5050 Y59.3317
G01 X12.5006 Y59.3699
G01 X12.4970 Y59.4189
G01 X12.4951 Y59.4826
G01 X12.4963 Y59.5464
G01 X12.5006 Y59.6101
G01 X12.5081 Y59.6735
G01 X12.5200 Y59.7439
G01 X12.5323 Y59.7987
G01 X12.5489 Y59.8603
G01 X12.5686 Y59.9210
G01 X12.5926 Y59.9841
G01 X12.6167 Y60.0391
G01 X12.6451 Y60.0963
G01 X12.6762 Y60.1520
G01 X12.7101 Y60.2061
G01 X12.7518 Y60.2657
G01 X12.7936 Y60.3189
G01 X12.8368 Y60.3684
G01 X12.8758 Y60.4092
G01 X12.9275 Y60.4581
G01 X12.9760 Y60.4995
G01 X13.0193 Y60.5332
G01 X13.0789 Y60.5749
G01 X13.1330 Y60.6088
G01 X13.1887 Y60.6399
G01 X13.2459 Y60.6683
G01 X13.3009 Y60.6924
G01 X13.3640 Y60.7164
G01 X13.4247 Y60.7361
G01 X13.4863 Y60.7527
G01 X13.5411 Y60.7650
G01 X13.6115 Y60.7769
G01 X13.6749 Y60.7844
G01 X13.7239 Y60.7880
G01 X13.7876 Y60.7899
G01 X13.8514 Y60.7887
G01 X13.9151 Y60.7844
G01 X13.9785 Y60.7769
G01 X14.0489 Y60.7650
G01 X14.1037 Y60.7527
G01 X14.1653 Y60.7361
G01 X14.2260 Y60.7164
G01 X14.2891 Y60.6924
G01 X14.3567 Y60.6623
G01 X14.4143 Y60.6329
G01 X14.4684 Y60.6020
G01 X14.5233 Y60.5667
G01 X14.5707 Y60.5332
G01 X14.6239 Y60.4914
G01 X14.6734 Y60.4482
G01 X14.7142 Y60.4092
G01 X14.7631 Y60.3575
G01 X14.8045 Y60.3090
G01 X14.8435 Y60.2584
G01 X14.8799 Y60.2061
G01 X14.9138 Y60.1520
G01 X14.9379 Y60.1093
G01 X14.9670 Y60.0524
G01 X14.9931 Y59.9943
G01 X15.0164 Y59.9349
G01 X15.0368 Y59.8744
G01 X15.0542 Y59.8130
G01 X15.0700 Y59.7439
G01 X15.0819 Y59.6735
G01 X15.0894 Y59.6101
G01 X15.0937 Y59.5464
G01 X15.0949 Y59.4826
G01 X15.0937 Y59.4336
G01 X15.0894 Y59.3699
G01 X15.0819 Y59.3065
G01 X15.0700 Y59.2361
G01 X15.0577 Y59.1813
G01 X15.0411 Y59.1197
G01 X15.0214 Y59.0590
G01 X14.9974 Y58.9959
G01 X14.9673 Y58.9283
G01 X14.9379 Y58.8707
G01 X14.9070 Y58.8166
G01 X14.8717 Y58.7617
G01 X14.8347 Y58.7097
G01 X14.7952 Y58.6597
G01 X14.7631 Y58.6225
G01 X14.7194 Y58.5760
G01 X14.6734 Y58.5318
G01 X14.6253 Y58.4898
G01 X14.5707 Y58.4468
G01 X14.5233 Y58.4133
G01 X14.4696 Y58.3788
G01 X14.4143 Y58.3471
G01 X14.3567 Y58.3177
G01 X14.2891 Y58.2876
G01 X14.2260 Y58.2636
G01 X14.1653 Y58.2439
G01 X14.1037 Y58.2273
G01 X14.0489 Y58.2150
G01 X13.9785 Y58.2031
G01 X13.9151 Y58.1956
G01 X13.8514 Y58.1913
G01 X13.7876 Y58.1901
G01 X13.7239 Y58.1920
G01 X13.6749 Y58.1956
G01 X13.6367 Y58.2000
G01 X13.0909 Y57.6541
G01 X13.0569 Y57.6222
G01 X13.0269 Y57.5968
G01 X12.9957 Y57.5729
G01 X12.9757 Y57.5588
G01 X12.9427 Y57.5375
G01 X12.9087 Y57.5178
G01 X12.8730 Y57.4995
G01 X12.8279 Y57.4793
G01 X12.7876 Y57.4641
G01 X12.7643 Y57.4564
G01 X12.7266 Y57.4456
G01 X12.6883 Y57.4367
G01 X12.6497 Y57.4296
G01 X12.6108 Y57.4244
G01 X12.5716 Y57.4212
G01 X12.5250 Y57.4197
G01 X9.5300 Y57.4197
G01 X9.5297 Y57.0561
G01 X9.5271 Y57.0283
G01 X9.5219 Y57.0009
G01 X9.5143 Y56.9741
G01 X9.5041 Y56.9482
G01 X9.4909 Y56.9219
G01 X9.4834 Y56.9093
G01 X9.4752 Y56.8971
G01 X9.4571 Y56.8740
G01 X9.4473 Y56.8631
G01 X9.4260 Y56.8429
G01 X9.4146 Y56.8336
G01 X9.3906 Y56.8166
G01 X9.3651 Y56.8021
G01 X9.3518 Y56.7959
G01 X9.3259 Y56.7857
G01 X9.3126 Y56.7816
G01 X9.2991 Y56.7781
G01 X9.2717 Y56.7729
G01 X9.2578 Y56.7713
G01 X9.2300 Y56.7700
G01 X6.9300 Y56.7700
G01 X6.9022 Y56.7713
G01 X6.8745 Y56.7752
G01 X6.8474 Y56.7816
G01 X6.8341 Y56.7857
G01 X6.8081 Y56.7959
G01 X6.7949 Y56.8022
G01 X6.7819 Y56.8091
G01 X6.7571 Y56.8248
G01 X6.7340 Y56.8429
G01 X6.7127 Y56.8631
G01 X6.7029 Y56.8740
G01 X6.6848 Y56.8971
G01 X6.6691 Y56.9219
G01 X6.6622 Y56.9349
G01 X6.6505 Y56.9610
G01 X6.6416 Y56.9874
G01 X6.6352 Y57.0145
G01 X6.6329 Y57.0283
G01 X6.6303 Y57.0561
G01 X6.6300 Y57.4197
G01 X5.7053 Y57.4197
G01 X5.7053 Y37.7103
G01 X6.6300 Y37.7103
G01 X6.6303 Y38.0739
G01 X6.6329 Y38.1017
G01 X6.6381 Y38.1291
G01 X6.6457 Y38.1559
G01 X6.6559 Y38.1819
G01 X6.6691 Y38.2081
G01 X6.6766 Y38.2207
G01 X6.6848 Y38.2329
G01 X6.7029 Y38.2560
G01 X6.7127 Y38.2669
G01 X6.7340 Y38.2871
G01 X6.7571 Y38.3052
G01 X6.7819 Y38.3209
G01 X6.7949 Y38.3278
G01 X6.8210 Y38.3395
G01 X6.8474 Y38.3484
G01 X6.8609 Y38.3519
G01 X6.8883 Y38.3571
G01 X6.9022 Y38.3587
G01 X6.9300 Y38.3600
G01 X9.2300 Y38.3600
G01 X9.2578 Y38.3587
G01 X9.2854 Y38.3548
G01 X9.3126 Y38.3484
G01 X9.3390 Y38.3395
G01 X9.3651 Y38.3279
G01 X9.3906 Y38.3134
G01 X9.4146 Y38.2964
G01 X9.4260 Y38.2871
G01 X9.4473 Y38.2669
G01 X9.4664 Y38.2446
G01 X9.4834 Y38.2207
G01 X9.4979 Y38.1951
G01 X9.5095 Y38.1690
G01 X9.5184 Y38.1426
G01 X9.5248 Y38.1154
G01 X9.5287 Y38.0878
G01 X9.5300 Y38.0600
G01 X9.5297 Y35.7461
G01 X9.5287 Y35.7322
G01 X9.5248 Y35.7046
G01 X9.5184 Y35.6774
G01 X9.5143 Y35.6641
G01 X9.5041 Y35.6382
G01 X9.4979 Y35.6249
G01 X9.4834 Y35.5993
G01 X9.4752 Y35.5871
G01 X9.4571 Y35.5640
G01 X9.4473 Y35.5531
G01 X9.4260 Y35.5329
G01 X9.4029 Y35.5148
G01 X9.3781 Y35.4991
G01 X9.3651 Y35.4921
G01 X9.3390 Y35.4805
G01 X9.3126 Y35.4716
G01 X9.2991 Y35.4681
G01 X9.2717 Y35.4629
G01 X9.2578 Y35.4613
G01 X9.2300 Y35.4600
G01 X6.9300 Y35.4600
G01 X6.9022 Y35.4613
G01 X6.8746 Y35.4652
G01 X6.8609 Y35.4681
G01 X6.8341 Y35.4757
G01 X6.8082 Y35.4859
G01 X6.7949 Y35.4921
G01 X6.7694 Y35.5066
G01 X6.7571 Y35.5148
G01 X6.7340 Y35.5329
G01 X6.7231 Y35.5427
G01 X6.7029 Y35.5640
G01 X6.6848 Y35.5871
G01 X6.6691 Y35.6119
G01 X6.6622 Y35.6249
G01 X6.6505 Y35.6510
G01 X6.6416 Y35.6774
G01 X6.6352 Y35.7046
G01 X6.6329 Y35.7183
G01 X6.6303 Y35.7461
G01 X6.6300 Y36.1097
G01 X5.7053 Y36.1097
G01 X5.7053 Y16.4753
G01 X6.6300 Y16.4753
G01 X6.6303 Y16.8389
G01 X6.6329 Y16.8667
G01 X6.6381 Y16.8941
G01 X6.6457 Y16.9209
G01 X6.6559 Y16.9468
G01 X6.6691 Y16.9730
G01 X6.6766 Y16.9856
G01 X6.6848 Y16.9978
G01 X6.7029 Y17.0210
G01 X6.7127 Y17.0319
G01 X6.7340 Y17.0521
G01 X6.7571 Y17.0702
G01 X6.7819 Y17.0859
G01 X6.7949 Y17.0929
G01 X6.8210 Y17.1045
G01 X6.8341 Y17.1093
G01 X6.8609 Y17.1169
G01 X6.8746 Y17.1198
G01 X6.9022 Y17.1237
G01 X6.9300 Y17.1250
G01 X9.2300 Y17.1250
G01 X9.2578 Y17.1237
G01 X9.2854 Y17.1198
G01 X9.3126 Y17.1134
G01 X9.3390 Y17.1045
G01 X9.3651 Y17.0929
G01 X9.3907 Y17.0784
G01 X9.4146 Y17.0614
G01 X9.4260 Y17.0521
G01 X9.4473 Y17.0319
G01 X9.4664 Y17.0096
G01 X9.4834 Y16.9856
G01 X9.4979 Y16.9601
G01 X9.5095 Y16.9340
G01 X9.5184 Y16.9076
G01 X9.5248 Y16.8804
G01 X9.5287 Y16.8528
G01 X9.5300 Y16.8250
G01 X9.5297 Y14.5111
G01 X9.5287 Y14.4972
G01 X9.5248 Y14.4696
G01 X9.5219 Y14.4559
G01 X9.5143 Y14.4291
G01 X9.5041 Y14.4032
G01 X9.4979 Y14.3899
G01 X9.4834 Y14.3644
G01 X9.4664 Y14.3404
G01 X9.4571 Y14.3290
G01 X9.4369 Y14.3077
G01 X9.4146 Y14.2886
G01 X9.4029 Y14.2798
G01 X9.3781 Y14.2641
G01 X9.3651 Y14.2571
G01 X9.3390 Y14.2455
G01 X9.3126 Y14.2366
G01 X9.2991 Y14.2331
G01 X9.2854 Y14.2302
G01 X9.2578 Y14.2263
G01 X9.2300 Y14.2250
G01 X6.9300 Y14.2250
G01 X6.9022 Y14.2263
G01 X6.8746 Y14.2302
G01 X6.8474 Y14.2366
G01 X6.8341 Y14.2407
G01 X6.8082 Y14.2509
G01 X6.7949 Y14.2571
G01 X6.7819 Y14.2641
G01 X6.7571 Y14.2798
G01 X6.7340 Y14.2979
G01 X6.7127 Y14.3181
G01 X6.7029 Y14.3290
G01 X6.6848 Y14.3521
G01 X6.6691 Y14.3769
G01 X6.6622 Y14.3899
G01 X6.6505 Y14.4160
G01 X6.6416 Y14.4424
G01 X6.6352 Y14.4696
G01 X6.6313 Y14.4972
G01 X6.6303 Y14.5111
G01 X6.6300 Y14.8747
G01 X5.7053 Y14.8747
G01 X5.7053 Y13.0695
G01 X5.9709 Y12.8039
G01 X5.9929 Y12.7808
G01 X6.0189 Y12.7513
G01 X6.0433 Y12.7206
G01 X6.0744 Y12.6764
G01 X6.0875 Y12.6557
G01 X6.1072 Y12.6217
G01 X6.1255 Y12.5861
G01 X6.1457 Y12.5409
G01 X6.1609 Y12.5006
G01 X6.1686 Y12.4773
G01 X6.1794 Y12.4396
G01 X6.1898 Y12.3944
G01 X6.1976 Y12.3481
G01 X6.2006 Y12.3238
G01 X6.2038 Y12.2846
G01 X6.2052 Y12.2380
G01 X6.2052 Y9.8250
G01 X6.2038 Y9.7784
G01 X6.2008 Y9.7410
G01 X6.1976 Y9.7149
G01 X6.1898 Y9.6686
G01 X6.1830 Y9.6377
G01 X6.1728 Y9.5998
G01 X6.1559 Y9.5485
G01 X6.1457 Y9.5221
G01 X6.1315 Y9.4895
G01 X6.1072 Y9.4413
G01 X6.0883 Y9.4085
G01 X6.0744 Y9.3866
G01 X6.0521 Y9.3542
G01 X6.0328 Y9.3289
G01 X8.7150 Y6.6467
G01 X15.1341 Y13.0659
G01 X15.1681 Y13.0978
G01 X15.1981 Y13.1232
G01 X15.2293 Y13.1471
G01 X15.2493 Y13.1612
G01 X15.2823 Y13.1825
G01 X15.3163 Y13.2022
G01 X15.3645 Y13.2265
G01 X15.3971 Y13.2407
G01 X15.4235 Y13.2509
G01 X15.4607 Y13.2636
G01 X15.5127 Y13.2780
G01 X15.5511 Y13.2862
G01 X15.5753 Y13.2904
G01 X15.6142 Y13.2956
G01 X15.6681 Y13.2996
G01 X15.7000 Y13.3003
G01 X19.7626 Y13.3003
G01 X25.6898 Y19.2274
G01 X25.6898 Y20.7500
G01 X25.6912 Y20.7966
G01 X25.6942 Y20.8340
G01 X25.6996 Y20.8747
G01 X25.7052 Y20.9064
G01 X25.7120 Y20.9373
G01 X25.7222 Y20.9752
G01 X25.7391 Y21.0265
G01 X25.7536 Y21.0630
G01 X25.7694 Y21.0980
G01 X25.7809 Y21.1207
G01 X25.7999 Y21.1551
G01 X25.8288 Y21.2007
G01 X25.8482 Y21.2280
G01 X25.8749 Y21.2619
G01 X25.8922 Y21.2819
G01 X25.9190 Y21.3106
G01 X31.5955 Y26.9872
G01 X31.6294 Y27.0191
G01 X31.6594 Y27.0445
G01 X31.6833 Y27.0631
G01 X31.7229 Y27.0907
G01 X31.7563 Y27.1114
G01 X31.7837 Y27.1268
G01 X34.2328 Y29.5759
G01 X34.2668 Y29.6078
G01 X34.2854 Y29.6239
G01 X34.3161 Y29.6483
G01 X34.3480 Y29.6712
G01 X34.3936 Y29.7001
G01 X34.4280 Y29.7191
G01 X34.4506 Y29.7305
G01 X34.4857 Y29.7464
G01 X34.5222 Y29.7609
G01 X34.5735 Y29.7778
G01 X34.5971 Y29.7844
G01 X34.6354 Y29.7933
G01 X34.6740 Y29.8004
G01 X34.7129 Y29.8056
G01 X34.7668 Y29.8096
G01 X34.7987 Y29.8103
G01 X35.1756 Y29.8103
G01 X35.1972 Y29.8328
G01 X35.2332 Y29.8672
G01 X35.2876 Y29.9141
G01 X35.3328 Y29.9489
G01 X35.3675 Y29.9733
G01 X35.4155 Y30.0042
G01 X35.4780 Y30.0396
G01 X35.5166 Y30.0590
G01 X35.5679 Y30.0821
G01 X35.6211 Y30.1030
G01 X35.6893 Y30.1255
G01 X35.7444 Y30.1404
G01 X35.7927 Y30.1512
G01 X35.8566 Y30.1620
G01 X35.9133 Y30.1686
G01 X35.9703 Y30.1725
G01 X36.0200 Y30.1736
G01 X36.0844 Y30.1717
G01 X36.1396 Y30.1674
G01 X36.1980 Y30.1598
G01 X36.2473 Y30.1512
G01 X36.2956 Y30.1404
G01 X36.3648 Y30.1213
G01 X36.4050 Y30.1080
G01 X36.4585 Y30.0878
G01 X36.5234 Y30.0590
G01 X36.5750 Y30.0327
G01 X36.6233 Y30.0050
G01 X36.6603 Y29.9815
G01 X36.7144 Y29.9437
G01 X36.7624 Y29.9059
G01 X36.7959 Y29.8770
G01 X36.8428 Y29.8328
G01 X36.8870 Y29.7859
G01 X36.9147 Y29.7538
G01 X36.9502 Y29.7090
G01 X36.9833 Y29.6625
G01 X37.0218 Y29.6018
G01 X37.0496 Y29.5520
G01 X37.0690 Y29.5134
G01 X37.0964 Y29.4519
G01 X37.1180 Y29.3950
G01 X37.1313 Y29.3548
G01 X37.1469 Y29.2999
G01 X37.1626 Y29.2298
G01 X37.1698 Y29.1880
G01 X37.1772 Y29.1314
G01 X37.1825 Y29.0597
G01 X37.1836 Y29.0100
G01 X37.1825 Y28.9603
G01 X37.1774 Y28.8904
G01 X37.1698 Y28.8320
G01 X37.1612 Y28.7827
G01 X37.1504 Y28.7344
G01 X37.1313 Y28.6652
G01 X37.1180 Y28.6250
G01 X37.0978 Y28.5715
G01 X37.0749 Y28.5192
G01 X37.0427 Y28.4550
G01 X37.0142 Y28.4055
G01 X36.9915 Y28.3697
G01 X36.9589 Y28.3228
G01 X36.9159 Y28.2676
G01 X36.8772 Y28.2232
G01 X36.8428 Y28.1872
G01 X36.7959 Y28.1430
G01 X36.7524 Y28.1059
G01 X36.7072 Y28.0711
G01 X36.6725 Y28.0467
G01 X36.6245 Y28.0158
G01 X36.5750 Y27.9873
G01 X36.5234 Y27.9610
G01 X36.4619 Y27.9336
G01 X36.4050 Y27.9120
G01 X36.3507 Y27.8945
G01 X36.2956 Y27.8796
G01 X36.2473 Y27.8688
G01 X36.1834 Y27.8580
G01 X36.1267 Y27.8514
G01 X36.0697 Y27.8475
G01 X36.0200 Y27.8464
G01 X35.9556 Y27.8483
G01 X35.9004 Y27.8526
G01 X35.8420 Y27.8602
G01 X35.7927 Y27.8688
G01 X35.7301 Y27.8831
G01 X35.6752 Y27.8987
G01 X35.6211 Y27.9170
G01 X35.5679 Y27.9379
G01 X35.5166 Y27.9610
G01 X35.4780 Y27.9804
G01 X35.4282 Y28.0082
G01 X35.3797 Y28.0385
G01 X35.3256 Y28.0763
G01 X35.2776 Y28.1141
G01 X35.2332 Y28.1528
G01 X35.1972 Y28.1872
G01 X35.1756 Y28.2097
G01 X35.1302 Y28.2097
G01 X32.7759 Y25.8555
G01 X32.7419 Y25.8235
G01 X32.7119 Y25.7981
G01 X32.6880 Y25.7795
G01 X32.6484 Y25.7519
G01 X32.6150 Y25.7312
G01 X32.5876 Y25.7159
G01 X27.2903 Y20.4185
G01 X27.2903 Y18.8959
G01 X27.2896 Y18.8640
G01 X27.2870 Y18.8248
G01 X27.2804 Y18.7712
G01 X27.2748 Y18.7395
G01 X27.2680 Y18.7086
G01 X27.2536 Y18.6566
G01 X27.2409 Y18.6194
G01 X27.2307 Y18.5931
G01 X27.2105 Y18.5479
G01 X27.1991 Y18.5252
G01 X27.1801 Y18.4909
G01 X27.1512 Y18.4452
G01 X27.1318 Y18.4179
G01 X27.1132 Y18.3940
G01 X27.0878 Y18.3640
G01 X27.0559 Y18.3301
G01 X20.6599 Y11.9341
G01 X20.6369 Y11.9121
G01 X20.6074 Y11.8861
G01 X20.5767 Y11.8617
G01 X20.5325 Y11.8306
G01 X20.4991 Y11.8099
G01 X20.4648 Y11.7909
G01 X20.4295 Y11.7735
G01 X20.3969 Y11.7593
G01 X20.3706 Y11.7491
G01 X20.3334 Y11.7364
G01 X20.2957 Y11.7256
G01 X20.2574 Y11.7167
G01 X20.2188 Y11.7096
G01 X20.1798 Y11.7044
G01 X20.1260 Y11.7004
G01 X20.0941 Y11.6997
G01 X16.0315 Y11.6997
G01 X9.8467 Y5.5150
G01 X10.6343 Y4.7274
G01 X10.6763 Y4.7522
G01 X10.7245 Y4.7765
G01 X10.7571 Y4.7907
G01 X10.7835 Y4.8009
G01 X10.8348 Y4.8178
G01 X10.8584 Y4.8244
G01 X10.8967 Y4.8333
G01 X10.9353 Y4.8404
G01 X10.9889 Y4.8470
G01 X11.0134 Y4.8488
G01 X11.0526 Y4.8502
G01 X15.7877 Y4.8502
G01 X15.8343 Y4.8488
G01 X15.8734 Y4.8456
G01 X15.8978 Y4.8426
G01 X15.9365 Y4.8362
G01 X15.9749 Y4.8280
G01 X16.0270 Y4.8136
G01 X16.0642 Y4.8009
G01 X16.0905 Y4.7907
G01 X16.1231 Y4.7765
G01 X16.1584 Y4.7591
G01 X16.2041 Y4.7333
G01 X16.2383 Y4.7112
G01 X16.2657 Y4.6918
G01 X16.2996 Y4.6651
G01 X16.3305 Y4.6379
G01 X16.3535 Y4.6159
G01 X16.5591 Y4.4103
G01 X29.5047 Y4.4103
G01 X29.5047 Y4.7000
G01 X29.1411 Y4.7003
G01 X29.1133 Y4.7029
G01 X29.0859 Y4.7081
G01 X29.0591 Y4.7157
G01 X29.0460 Y4.7205
G01 X29.0199 Y4.7321
G01 X29.0069 Y4.7391
G01 X28.9821 Y4.7548
G01 X28.9590 Y4.7729
G01 X28.9377 Y4.7931
G01 X28.9279 Y4.8040
G01 X28.9098 Y4.8271
G01 X28.9016 Y4.8393
G01 X28.8872 Y4.8649
G01 X28.8809 Y4.8782
G01 X28.8707 Y4.9041
G01 X28.8666 Y4.9174
G01 X28.8602 Y4.9446
G01 X28.8563 Y4.9722
G01 X28.8550 Y5.0000
G01 X28.8550 Y7.3000
G01 X28.8563 Y7.3278
G01 X28.8579 Y7.3417
G01 X28.8602 Y7.3554
G01 X28.8666 Y7.3826
G01 X28.8755 Y7.4090
G01 X28.8809 Y7.4218
G01 X28.8871 Y7.4351
G01 X28.9016 Y7.4606
G01 X28.9186 Y7.4846
G01 X28.9279 Y7.4960
G01 X28.9481 Y7.5173
G01 X28.9704 Y7.5364
G01 X28.9944 Y7.5534
G01 X29.0199 Y7.5679
G01 X29.0332 Y7.5741
G01 X29.0591 Y7.5843
G01 X29.0859 Y7.5919
G01 X29.1133 Y7.5971
G01 X29.1272 Y7.5987
G01 X29.1550 Y7.6000
G01 X30.6233 Y7.6000
G01 X33.3147 Y10.2915
G01 X33.3147 Y11.1106
G01 X33.2951 Y11.1318
G01 X33.2601 Y11.1729
G01 X33.2324 Y11.2084
G01 X33.1964 Y11.2600
G01 X33.1754 Y11.2932
G01 X33.1484 Y11.3400
G01 X33.1235 Y11.3888
G01 X33.1016 Y11.4373
G01 X33.0819 Y11.4875
G01 X33.0646 Y11.5387
G01 X33.0463 Y11.6049
G01 X33.0362 Y11.6501
G01 X33.0281 Y11.6963
G01 X33.0211 Y11.7499
G01 X33.0168 Y11.8037
G01 X33.0151 Y11.8724
G01 X33.0161 Y11.9116
G01 X33.0197 Y11.9655
G01 X33.0281 Y12.0337
G01 X33.0362 Y12.0799
G01 X33.0463 Y12.1251
G01 X33.0646 Y12.1913
G01 X33.0819 Y12.2425
G01 X33.0974 Y12.2826
G01 X33.1175 Y12.3286
G01 X33.1415 Y12.3770
G01 X33.1746 Y12.4356
G01 X33.2045 Y12.4822
G01 X33.2324 Y12.5216
G01 X33.2601 Y12.5571
G01 X33.2951 Y12.5982
G01 X33.3372 Y12.6428
G01 X33.3818 Y12.6849
G01 X33.4115 Y12.7106
G01 X33.4539 Y12.7441
G01 X33.4978 Y12.7755
G01 X33.5558 Y12.8122
G01 X33.6030 Y12.8385
G01 X33.6388 Y12.8565
G01 X33.6873 Y12.8784
G01 X33.7375 Y12.8981
G01 X33.8028 Y12.9197
G01 X33.8549 Y12.9337
G01 X33.9001 Y12.9438
G01 X33.9463 Y12.9519
G01 X34.0145 Y12.9603
G01 X34.0537 Y12.9632
G01 X34.0826 Y12.9643
G01 X34.9207 Y13.8024
G01 X34.9218 Y13.8313
G01 X34.9247 Y13.8705
G01 X34.9309 Y13.9241
G01 X34.9412 Y13.9849
G01 X34.9513 Y14.0301
G01 X34.9653 Y14.0822
G01 X34.9819 Y14.1336
G01 X35.0024 Y14.1876
G01 X35.0285 Y14.2462
G01 X35.0534 Y14.2950
G01 X35.0796 Y14.3406
G01 X35.1095 Y14.3872
G01 X35.1409 Y14.4311
G01 X35.1732 Y14.4721
G01 X35.2100 Y14.5141
G01 X35.2422 Y14.5478
G01 X35.2759 Y14.5800
G01 X35.3165 Y14.6156
G01 X35.3634 Y14.6526
G01 X35.4028 Y14.6805
G01 X35.4482 Y14.7096
G01 X35.4950 Y14.7366
G01 X35.5438 Y14.7615
G01 X35.5923 Y14.7834
G01 X35.6564 Y14.8081
G01 X35.6937 Y14.8204
G01 X35.7456 Y14.8352
G01 X35.8051 Y14.8488
G01 X35.8513 Y14.8569
G01 X35.9049 Y14.8639
G01 X35.9587 Y14.8682
G01 X36.0200 Y14.8700
G01 X36.0666 Y14.8689
G01 X36.1334 Y14.8641
G01 X36.1887 Y14.8569
G01 X36.2349 Y14.8488
G01 X36.2801 Y14.8387
G01 X36.3322 Y14.8247
G01 X36.3836 Y14.8081
G01 X36.4477 Y14.7834
G01 X36.4962 Y14.7615
G01 X36.5320 Y14.7435
G01 X36.5792 Y14.7172
G01 X36.6372 Y14.6805
G01 X36.6811 Y14.6491
G01 X36.7221 Y14.6168
G01 X36.7532 Y14.5899
G01 X36.7978 Y14.5478
G01 X36.8399 Y14.5032
G01 X36.8749 Y14.4621
G01 X36.9078 Y14.4193
G01 X36.9305 Y14.3872
G01 X36.9596 Y14.3418
G01 X36.9866 Y14.2950
G01 X37.0175 Y14.2336
G01 X37.0390 Y14.1841
G01 X37.0531 Y14.1475
G01 X37.0704 Y14.0963
G01 X37.0852 Y14.0444
G01 X37.1002 Y13.9774
G01 X37.1091 Y13.9241
G01 X37.1139 Y13.8851
G01 X37.1182 Y13.8313
G01 X37.1200 Y13.7700
G01 X37.1182 Y13.7087
G01 X37.1141 Y13.6566
G01 X37.1091 Y13.6159
G01 X37.0988 Y13.5551
G01 X37.0852 Y13.4956
G01 X37.0747 Y13.4578
G01 X37.0581 Y13.4064
G01 X37.0376 Y13.3524
G01 X37.0115 Y13.2938
G01 X36.9866 Y13.2450
G01 X36.9604 Y13.1994
G01 X36.9386 Y13.1650
G01 X36.8991 Y13.1089
G01 X36.8668 Y13.0679
G01 X36.8399 Y13.0368
G01 X36.7978 Y12.9922
G01 X36.7532 Y12.9501
G01 X36.7235 Y12.9244
G01 X36.6811 Y12.8909
G01 X36.6250 Y12.8514
G01 X36.5918 Y12.8304
G01 X36.5450 Y12.8034
G01 X36.4962 Y12.7785
G01 X36.4376 Y12.7524
G01 X36.3975 Y12.7369
G01 X36.3463 Y12.7196
G01 X36.2801 Y12.7013
G01 X36.2349 Y12.6912
G01 X36.1887 Y12.6831
G01 X36.1205 Y12.6747
G01 X36.0813 Y12.6718
G01 X36.0524 Y12.6707
G01 X35.2143 Y11.8326
G01 X35.2132 Y11.8037
G01 X35.2091 Y11.7516
G01 X35.2019 Y11.6963
G01 X35.1938 Y11.6501
G01 X35.1837 Y11.6049
G01 X35.1697 Y11.5528
G01 X35.1531 Y11.5014
G01 X35.1326 Y11.4474
G01 X35.1125 Y11.4014
G01 X35.0885 Y11.3530
G01 X35.0622 Y11.3058
G01 X35.0336 Y11.2600
G01 X34.9976 Y11.2084
G01 X34.9699 Y11.1729
G01 X34.9349 Y11.1318
G01 X34.9153 Y11.1106
G01 X34.9153 Y9.9600
G01 X34.9138 Y9.9134
G01 X34.9106 Y9.8742
G01 X34.9076 Y9.8499
G01 X34.9012 Y9.8111
G01 X34.8930 Y9.7727
G01 X34.8828 Y9.7348
G01 X34.8709 Y9.6974
G01 X34.8557 Y9.6571
G01 X34.8356 Y9.6120
G01 X34.8172 Y9.5763
G01 X34.7983 Y9.5435
G01 X34.7844 Y9.5216
G01 X34.7568 Y9.4820
G01 X34.7301 Y9.4481
G01 X34.7128 Y9.4281
G01 X34.6809 Y9.3941
G01 X31.7550 Y6.4683
G01 X31.7550 Y5.0000
G01 X31.7537 Y4.9722
G01 X31.7498 Y4.9446
G01 X31.7434 Y4.9174
G01 X31.7393 Y4.9041
G01 X31.7291 Y4.8782
G01 X31.7228 Y4.8649
G01 X31.7084 Y4.8393
G01 X31.6914 Y4.8153
G01 X31.6723 Y4.7931
G01 X31.6510 Y4.7729
G01 X31.6396 Y4.7636
G01 X31.6156 Y4.7466
G01 X31.5901 Y4.7321
G01 X31.5768 Y4.7259
G01 X31.5509 Y4.7157
G01 X31.5376 Y4.7116
G01 X31.5104 Y4.7052
G01 X31.4967 Y4.7029
G01 X31.4689 Y4.7003
G01 X31.1053 Y4.7000
G01 X31.1053 Y4.4103
G01 X46.0147 Y4.4103
G01 X46.0147 Y4.7000
G01 X45.6511 Y4.7003
G01 X45.6372 Y4.7013
G01 X45.6096 Y4.7052
G01 X45.5824 Y4.7116
G01 X45.5691 Y4.7157
G01 X45.5432 Y4.7259
G01 X45.5299 Y4.7321
G01 X45.5044 Y4.7466
G01 X45.4804 Y4.7636
G01 X45.4581 Y4.7827
G01 X45.4477 Y4.7931
G01 X45.4286 Y4.8154
G01 X45.4198 Y4.8271
G01 X45.4041 Y4.8519
G01 X45.3971 Y4.8649
G01 X45.3855 Y4.8910
G01 X45.3807 Y4.9041
G01 X45.3731 Y4.9309
G01 X45.3702 Y4.9446
G01 X45.3663 Y4.9722
G01 X45.3650 Y5.0000
G01 X45.3650 Y7.3000
G01 X45.3663 Y7.3278
G01 X45.3679 Y7.3417
G01 X45.3702 Y7.3554
G01 X45.3766 Y7.3826
G01 X45.3855 Y7.4090
G01 X45.3909 Y7.4218
G01 X45.4041 Y7.4481
G01 X45.4116 Y7.4606
G01 X45.4198 Y7.4729
G01 X45.4379 Y7.4960
G01 X45.4581 Y7.5173
G01 X45.4690 Y7.5271
G01 X45.4804 Y7.5364
G01 X45.5044 Y7.5534
G01 X45.5299 Y7.5679
G01 X45.5432 Y7.5741
G01 X45.5691 Y7.5843
G01 X45.5959 Y7.5919
G01 X45.6233 Y7.5971
G01 X45.6511 Y7.5997
G01 X46.0147 Y7.6000
G01 X46.0147 Y7.9685
G01 X44.9740 Y9.0094
G01 X44.9571 Y9.0272
G01 X44.9311 Y9.0567
G01 X44.9067 Y9.0874
G01 X44.8838 Y9.1193
G01 X44.8625 Y9.1523
G01 X44.8428 Y9.1863
G01 X44.8245 Y9.2220
G01 X44.8086 Y9.2570
G01 X44.7941 Y9.2935
G01 X44.7814 Y9.3307
G01 X44.7706 Y9.3684
G01 X44.7602 Y9.4136
G01 X44.7546 Y9.4453
G01 X44.7480 Y9.4989
G01 X44.7454 Y9.5381
G01 X44.7447 Y9.5700
G01 X44.7447 Y9.8406
G01 X44.7251 Y9.8618
G01 X44.6901 Y9.9029
G01 X44.6624 Y9.9384
G01 X44.6345 Y9.9778
G01 X44.6054 Y10.0232
G01 X44.5784 Y10.0700
G01 X44.5475 Y10.1314
G01 X44.5274 Y10.1774
G01 X44.5119 Y10.2175
G01 X44.4946 Y10.2687
G01 X44.4798 Y10.3206
G01 X44.4662 Y10.3801
G01 X44.4581 Y10.4263
G01 X44.4497 Y10.4945
G01 X44.4461 Y10.5484
G01 X44.4450 Y10.5950
G01 X44.4461 Y10.6416
G01 X44.4509 Y10.7084
G01 X44.4581 Y10.7637
G01 X44.4662 Y10.8099
G01 X44.4763 Y10.8551
G01 X44.4903 Y10.9072
G01 X44.5069 Y10.9586
G01 X44.5260 Y11.0091
G01 X44.5475 Y11.0586
G01 X44.5715 Y11.1070
G01 X44.5978 Y11.1542
G01 X44.6264 Y11.2000
G01 X44.6624 Y11.2516
G01 X44.6901 Y11.2871
G01 X44.7251 Y11.3282
G01 X44.7556 Y11.3608
G01 X44.7602 Y11.3864
G01 X44.7670 Y11.4173
G01 X44.7814 Y11.4693
G01 X44.7941 Y11.5065
G01 X44.8043 Y11.5329
G01 X44.8245 Y11.5780
G01 X44.8428 Y11.6137
G01 X44.8617 Y11.6465
G01 X44.8756 Y11.6684
G01 X44.9032 Y11.7080
G01 X44.9218 Y11.7319
G01 X44.9448 Y11.7592
G01 X44.9448 Y15.8458
G01 X44.9100 Y15.8450
G01 X44.8487 Y15.8468
G01 X44.7966 Y15.8509
G01 X44.7413 Y15.8581
G01 X44.6951 Y15.8662
G01 X44.6356 Y15.8798
G01 X44.5837 Y15.8946
G01 X44.5325 Y15.9119
G01 X44.4823 Y15.9316
G01 X44.4338 Y15.9535
G01 X44.3850 Y15.9784
G01 X44.3394 Y16.0046
G01 X44.2928 Y16.0345
G01 X44.2534 Y16.0624
G01 X44.2079 Y16.0982
G01 X44.1768 Y16.1251
G01 X44.1322 Y16.1672
G01 X44.1000 Y16.2009
G01 X44.0644 Y16.2415
G01 X44.0309 Y16.2839
G01 X43.9995 Y16.3278
G01 X43.9704 Y16.3732
G01 X43.9365 Y16.4330
G01 X43.9125 Y16.4814
G01 X43.8924 Y16.5274
G01 X43.8719 Y16.5814
G01 X43.8553 Y16.6328
G01 X43.8413 Y16.6849
G01 X43.8312 Y16.7301
G01 X43.8209 Y16.7909
G01 X43.8147 Y16.8445
G01 X43.8111 Y16.8984
G01 X43.8100 Y16.9450
G01 X43.8111 Y16.9916
G01 X43.8147 Y17.0455
G01 X43.8209 Y17.0991
G01 X43.8312 Y17.1599
G01 X43.8413 Y17.2051
G01 X43.8553 Y17.2572
G01 X43.8719 Y17.3086
G01 X43.8924 Y17.3626
G01 X43.9185 Y17.4212
G01 X43.9434 Y17.4700
G01 X43.9696 Y17.5156
G01 X43.9995 Y17.5622
G01 X44.0274 Y17.6016
G01 X44.0632 Y17.6471
G01 X44.1000 Y17.6891
G01 X44.1322 Y17.7228
G01 X44.1768 Y17.7649
G01 X44.2179 Y17.7999
G01 X44.2607 Y17.8328
G01 X44.2928 Y17.8555
G01 X44.3382 Y17.8846
G01 X44.3850 Y17.9116
G01 X44.4338 Y17.9365
G01 X44.4823 Y17.9584
G01 X44.5325 Y17.9781
G01 X44.5837 Y17.9954
G01 X44.6356 Y18.0102
G01 X44.6951 Y18.0238
G01 X44.7559 Y18.0341
G01 X44.8095 Y18.0403
G01 X44.8634 Y18.0439
G01 X44.9174 Y18.0449
G01 X44.9566 Y18.0439
G01 X45.0105 Y18.0403
G01 X45.0787 Y18.0319
G01 X45.1249 Y18.0238
G01 X45.1701 Y18.0137
G01 X45.2222 Y17.9997
G01 X45.2736 Y17.9831
G01 X45.3377 Y17.9584
G01 X45.3862 Y17.9365
G01 X45.4350 Y17.9116
G01 X45.4806 Y17.8854
G01 X45.5150 Y17.8636
G01 X45.5711 Y17.8241
G01 X45.6121 Y17.7918
G01 X45.6432 Y17.7649
G01 X45.6878 Y17.7228
G01 X45.7200 Y17.6891
G01 X45.7649 Y17.6371
G01 X45.7926 Y17.6016
G01 X45.8205 Y17.5622
G01 X45.8496 Y17.5168
G01 X45.8766 Y17.4700
G01 X45.9075 Y17.4086
G01 X45.9276 Y17.3626
G01 X45.9431 Y17.3225
G01 X45.9604 Y17.2713
G01 X45.9752 Y17.2194
G01 X45.9888 Y17.1599
G01 X45.9991 Y17.0991
G01 X46.0039 Y17.0601
G01 X46.0082 Y17.0063
G01 X46.0099 Y16.9524
G01 X46.0089 Y16.8984
G01 X46.0041 Y16.8316
G01 X45.9969 Y16.7763
G01 X45.9860 Y16.7170
G01 X46.0042 Y16.6964
G01 X46.0226 Y16.6734
G01 X46.0480 Y16.6373
G01 X46.0635 Y16.6122
G01 X46.0777 Y16.5864
G01 X46.0906 Y16.5599
G01 X46.1008 Y16.5363
G01 X46.1171 Y16.4912
G01 X46.1253 Y16.4629
G01 X46.1321 Y16.4343
G01 X46.1375 Y16.4053
G01 X46.1414 Y16.3761
G01 X46.1447 Y16.3321
G01 X46.1452 Y11.7592
G01 X46.1682 Y11.7319
G01 X46.1868 Y11.7080
G01 X46.2144 Y11.6684
G01 X46.2275 Y11.6477
G01 X46.2472 Y11.6137
G01 X46.2655 Y11.5780
G01 X46.2857 Y11.5329
G01 X46.2959 Y11.5065
G01 X46.3086 Y11.4693
G01 X46.3230 Y11.4173
G01 X46.3298 Y11.3864
G01 X46.3344 Y11.3608
G01 X46.3649 Y11.3282
G01 X46.3999 Y11.2871
G01 X46.4276 Y11.2516
G01 X46.4555 Y11.2122
G01 X46.4846 Y11.1668
G01 X46.5116 Y11.1200
G01 X46.5425 Y11.0586
G01 X46.5626 Y11.0126
G01 X46.5781 Y10.9725
G01 X46.5954 Y10.9213
G01 X46.6102 Y10.8694
G01 X46.6238 Y10.8099
G01 X46.6319 Y10.7637
G01 X46.6389 Y10.7101
G01 X46.6432 Y10.6563
G01 X46.6450 Y10.5950
G01 X46.6439 Y10.5484
G01 X46.6403 Y10.4945
G01 X46.6341 Y10.4409
G01 X46.6238 Y10.3801
G01 X46.6137 Y10.3349
G01 X46.5997 Y10.2828
G01 X46.5831 Y10.2314
G01 X46.5626 Y10.1774
G01 X46.5425 Y10.1314
G01 X46.5185 Y10.0830
G01 X46.4922 Y10.0358
G01 X46.4636 Y9.9900
G01 X46.4328 Y9.9457
G01 X46.3999 Y9.9029
G01 X46.3742 Y9.8725
G01 X47.3860 Y8.8606
G01 X47.4029 Y8.8428
G01 X47.4289 Y8.8133
G01 X47.4568 Y8.7780
G01 X47.4844 Y8.7384
G01 X47.4975 Y8.7177
G01 X47.5172 Y8.6837
G01 X47.5355 Y8.6480
G01 X47.5514 Y8.6130
G01 X47.5659 Y8.5765
G01 X47.5786 Y8.5393
G01 X47.5894 Y8.5016
G01 X47.5998 Y8.4564
G01 X47.6076 Y8.4101
G01 X47.6120 Y8.3711
G01 X47.6146 Y8.3319
G01 X47.6153 Y8.3000
G01 X47.6153 Y7.6000
G01 X47.9789 Y7.5997
G01 X48.0067 Y7.5971
G01 X48.0204 Y7.5948
G01 X48.0476 Y7.5884
G01 X48.0740 Y7.5795
G01 X48.0868 Y7.5741
G01 X48.1131 Y7.5609
G01 X48.1379 Y7.5452
G01 X48.1496 Y7.5364
G01 X48.1719 Y7.5173
G01 X48.1921 Y7.4960
G01 X48.2102 Y7.4729
G01 X48.2259 Y7.4481
G01 X48.2328 Y7.4351
G01 X48.2445 Y7.4090
G01 X48.2534 Y7.3826
G01 X48.2598 Y7.3554
G01 X48.2637 Y7.3278
G01 X48.2650 Y7.3000
G01 X48.2650 Y5.0000
G01 X48.2637 Y4.9722
G01 X48.2621 Y4.9583
G01 X48.2569 Y4.9309
G01 X48.2493 Y4.9041
G01 X48.2445 Y4.8910
G01 X48.2328 Y4.8649
G01 X48.2259 Y4.8519
G01 X48.2102 Y4.8271
G01 X48.1921 Y4.8040
G01 X48.1823 Y4.7931
G01 X48.1610 Y4.7729
G01 X48.1496 Y4.7636
G01 X48.1256 Y4.7466
G01 X48.1131 Y4.7391
G01 X48.0868 Y4.7259
G01 X48.0609 Y4.7157
G01 X48.0341 Y4.7081
G01 X48.0067 Y4.7029
G01 X47.9789 Y4.7003
G01 X47.6153 Y4.7000
G01 X47.6153 Y4.0000
G01 X47.6138 Y3.9534
G01 X47.6108 Y3.9160
G01 X47.6054 Y3.8753
G01 X47.5983 Y3.8367
G01 X47.5894 Y3.7984
G01 X47.5828 Y3.7748
G01 X47.5709 Y3.7374
G01 X47.5557 Y3.6971
G01 X47.5356 Y3.6520
G01 X47.5172 Y3.6163
G01 X47.4983 Y3.5835
G01 X47.4762 Y3.5493
G01 X47.4533 Y3.5174
G01 X47.4289 Y3.4867
G01 X47.4128 Y3.4681
G01 X47.3860 Y3.4394
G01 X46.9856 Y3.0390
G01 X46.9678 Y3.0221
G01 X46.9383 Y2.9961
G01 X46.9030 Y2.9682
G01 X46.8634 Y2.9406
G01 X46.8427 Y2.9275
G01 X46.8087 Y2.9078
G01 X46.7605 Y2.8835
G01 X46.7279 Y2.8693
G01 X46.7015 Y2.8591
G01 X46.6502 Y2.8422
G01 X46.6123 Y2.8320
G01 X46.5814 Y2.8252
G01 X46.5351 Y2.8174
G01 X46.5108 Y2.8144
G01 X46.4716 Y2.8112
G01 X46.4250 Y2.8097
G01 X16.2203 Y2.8098
G01 X16.1958 Y2.8104
G01 X16.1566 Y2.8130
G01 X16.1030 Y2.8196
G01 X16.0643 Y2.8267
G01 X16.0404 Y2.8320
G01 X16.0024 Y2.8422
G01 X15.9512 Y2.8591
G01 X15.9147 Y2.8736
G01 X15.8796 Y2.8895
G01 X15.8570 Y2.9009
G01 X15.8226 Y2.9199
G01 X15.7892 Y2.9406
G01 X15.7497 Y2.9682
G01 X15.7158 Y2.9949
G01 X15.6958 Y3.0122
G01 X15.6618 Y3.0441
G01 X15.4562 Y3.2497
G01 X11.3915 Y3.2497
G01 X11.1859 Y3.0441
G01 X11.1519 Y3.0122
G01 X11.1333 Y2.9961
G01 X11.1026 Y2.9717
G01 X11.0707 Y2.9488
G01 X11.0250 Y2.9199
G01 X10.9907 Y2.9009
G01 X10.9681 Y2.8895
G01 X10.9330 Y2.8736
G01 X10.8826 Y2.8541
G01 X10.8593 Y2.8464
G01 X10.8216 Y2.8356
G01 X10.7764 Y2.8252
G01 X10.7447 Y2.8196
G01 X10.7058 Y2.8144
G01 X10.6519 Y2.8104
G01 X10.6200 Y2.8097
G01 X10.5881 Y2.8104
G01 X10.5360 Y2.8142
G01 X10.4953 Y2.8196
G01 X10.4636 Y2.8252
G01 X10.4327 Y2.8320
G01 X10.3948 Y2.8422
G01 X10.3435 Y2.8591
G01 X10.3070 Y2.8736
G01 X10.2719 Y2.8895
G01 X10.2493 Y2.9009
G01 X10.2150 Y2.9199
G01 X10.1693 Y2.9488
G01 X10.1420 Y2.9682
G01 X10.1081 Y2.9949
G01 X10.0881 Y3.0122
G01 X10.0594 Y3.0390
G01 X4.3391 Y8.7591
G01 X4.3171 Y8.7822
G01 X4.2911 Y8.8117
G01 X4.2632 Y8.8470
G01 X4.2438 Y8.8743
G01 X4.2225 Y8.9073
G01 X4.2028 Y8.9413
G01 X4.1845 Y8.9770
G01 X4.1686 Y9.0120
G01 X4.1541 Y9.0485
G01 X4.1414 Y9.0857
G01 X4.1306 Y9.1234
G01 X4.1217 Y9.1617
G01 X4.1146 Y9.2003
G01 X4.1094 Y9.2392
G01 X4.1056 Y9.2931
G00 Z1.0000
G00 X2.0064 Y11.1736
G01 F76.20
G01 Z-0.2000
G01 F170.00
G01 X2.0050 Y11.2300
G01 X2.0063 Y11.2864
G01 X2.0106 Y11.3501
G01 X2.0181 Y11.4135
G01 X2.0300 Y11.4839
G01 X2.0422 Y11.5387
G01 X2.0632 Y11.6144
G01 X2.0835 Y11.6749
G01 X2.1026 Y11.7241
G01 X2.1267 Y11.7791
G01 X2.1551 Y11.8363
G01 X2.1862 Y11.8920
G01 X2.2201 Y11.9461
G01 X2.2565 Y11.9984
G01 X2.2829 Y12.0329
G01 X2.2829 Y96.2900
G01 X2.2844 Y96.3245
G01 X2.2887 Y96.3599
G01 X2.2940 Y96.3866
G01 X2.2993 Y96.4069
G01 X2.3055 Y96.4269
G01 X2.3141 Y96.4500
G01 X2.3209 Y96.4659
G01 X2.3369 Y96.4978
G01 X2.3468 Y96.5146
G01 X2.3591 Y96.5333
G01 X2.3753 Y96.5552
G01 X2.3887 Y96.5713
G01 X2.4080 Y96.5920
G01 X2.4287 Y96.6113
G01 X2.4448 Y96.6247
G01 X2.4667 Y96.6409
G01 X2.4842 Y96.6524
G01 X2.5022 Y96.6631
G01 X2.5215 Y96.6732
G01 X2.5500 Y96.6859
G01 X2.5731 Y96.6945
G01 X2.5931 Y96.7007
G01 X2.6134 Y96.7060
G01 X2.6339 Y96.7102
G01 X2.6608 Y96.7142
G01 X2.6817 Y96.7161
G01 X2.7100 Y96.7171
G01 X12.4758 Y96.7170
G01 X12.4968 Y96.7161
G01 X12.5239 Y96.7134
G01 X12.5446 Y96.7102
G01 X12.5651 Y96.7060
G01 X12.5854 Y96.7007
G01 X12.6054 Y96.6945
G01 X12.6285 Y96.6859
G01 X12.6444 Y96.6791
G01 X12.6633 Y96.6700
G01 X12.6817 Y96.6600
G01 X12.6996 Y96.6491
G01 X12.7242 Y96.6321
G01 X12.7436 Y96.6166
G01 X12.7607 Y96.6014
G01 X12.7756 Y96.5867
G01 X12.7898 Y96.5713
G01 X12.8105 Y96.5457
G01 X12.8276 Y96.5211
G01 X12.8385 Y96.5032
G01 X12.8485 Y96.4848
G01 X12.8601 Y96.4602
G01 X12.8680 Y96.4408
G01 X12.8749 Y96.4210
G01 X12.8845 Y96.3866
G01 X12.8898 Y96.3599
G01 X12.8941 Y96.3245
G01 X12.8956 Y96.2900
G01 X12.8941 Y96.2555
G01 X12.8898 Y96.2201
G01 X12.8845 Y96.1934
G01 X12.8792 Y96.1731
G01 X12.8730 Y96.1531
G01 X12.8601 Y96.1198
G01 X12.8485 Y96.0952
G01 X12.8385 Y96.0768
G01 X12.8276 Y96.0589
G01 X12.8105 Y96.0343
G01 X12.7951 Y96.0148
G01 X12.7756 Y95.9933
G01 X12.7537 Y95.9723
G01 X12.6625 Y95.8362
G01 X12.6418 Y95.8095
G01 X12.6172 Y95.7827
G01 X12.0326 Y95.1984
G01 X12.0169 Y95.1844
G01 X11.9888 Y95.1625
G01 X11.8623 Y95.0777
G01 X11.4645 Y94.4823
G01 X11.3248 Y93.7800
G01 X11.3543 Y93.6306
G01 X11.3586 Y93.5952
G01 X11.3601 Y93.5607
G01 X11.3600 Y91.4520
G01 X11.3586 Y91.4248
G01 X11.3543 Y91.3894
G01 X11.3248 Y91.2400
G01 X11.4645 Y90.5377
G01 X11.8623 Y89.9423
G01 X12.4577 Y89.5445
G01 X13.1600 Y89.4048
G01 X13.8623 Y89.5445
G01 X14.4963 Y89.9682
G01 X14.5204 Y89.9831
G01 X14.5444 Y89.9959
G01 X14.5634 Y90.0047
G01 X14.5967 Y90.0176
G01 X14.6167 Y90.0238
G01 X14.6370 Y90.0290
G01 X14.6637 Y90.0343
G01 X14.6991 Y90.0387
G01 X14.7200 Y90.0399
G01 X14.7410 Y90.0400
G01 X14.7619 Y90.0392
G01 X14.7810 Y90.0375
G01 X14.8035 Y90.0343
G01 X14.8241 Y90.0304
G01 X14.8445 Y90.0255
G01 X14.8646 Y90.0195
G01 X14.8844 Y90.0126
G01 X14.9221 Y89.9963
G01 X14.9582 Y89.9763
G01 X14.9769 Y89.9640
G01 X14.9939 Y89.9516
G01 X15.0088 Y89.9396
G01 X15.0258 Y89.9245
G01 X15.0407 Y89.9098
G01 X15.0549 Y89.8943
G01 X15.0683 Y89.8782
G01 X15.0809 Y89.8615
G01 X15.0927 Y89.8442
G01 X15.1036 Y89.8263
G01 X15.1136 Y89.8078
G01 X15.1227 Y89.7890
G01 X15.1309 Y89.7697
G01 X15.1401 Y89.7441
G01 X15.1460 Y89.7240
G01 X15.1509 Y89.7036
G01 X15.1549 Y89.6830
G01 X15.1578 Y89.6622
G01 X15.1597 Y89.6414
G01 X15.1606 Y89.6204
G01 X15.1604 Y89.5995
G01 X15.1592 Y89.5785
G01 X15.1570 Y89.5577
G01 X15.1538 Y89.5370
G01 X15.1460 Y89.5022
G01 X15.1401 Y89.4821
G01 X15.1331 Y89.4623
G01 X15.1168 Y89.4246
G01 X15.0968 Y89.3885
G01 X15.0757 Y89.3574
G01 X15.0549 Y89.3318
G01 X15.0356 Y89.3111
G01 X13.8095 Y88.0850
G01 X13.7888 Y88.0657
G01 X13.7632 Y88.0449
G01 X13.7386 Y88.0279
G01 X13.7153 Y88.0139
G01 X13.6960 Y88.0038
G01 X13.6676 Y87.9911
G01 X13.6445 Y87.9825
G01 X13.6184 Y87.9746
G01 X13.5912 Y87.9682
G01 X13.5629 Y87.9636
G01 X13.5359 Y87.9609
G01 X13.5075 Y87.9599
G01 X12.9927 Y87.9599
G01 X12.4677 Y87.8555
G01 X11.8723 Y87.4577
G01 X11.4745 Y86.8623
G01 X11.3348 Y86.1600
G01 X11.4745 Y85.4577
G01 X11.8723 Y84.8623
G01 X12.4677 Y84.4645
G01 X12.9927 Y84.3601
G01 X14.2180 Y84.3600
G01 X14.2452 Y84.3586
G01 X14.2806 Y84.3543
G01 X14.4300 Y84.3248
G01 X15.1323 Y84.4645
G01 X15.7277 Y84.8623
G01 X15.8125 Y84.9888
G01 X15.8332 Y85.0155
G01 X15.8578 Y85.0423
G01 X18.5962 Y87.7807
G01 X18.6216 Y87.8041
G01 X18.6379 Y87.8173
G01 X18.6548 Y87.8296
G01 X18.6850 Y87.8487
G01 X18.7089 Y87.8615
G01 X18.7381 Y87.8746
G01 X18.7612 Y87.8832
G01 X18.7873 Y87.8911
G01 X18.8145 Y87.8975
G01 X18.8428 Y87.9021
G01 X18.8698 Y87.9048
G01 X18.8982 Y87.9058
G01 X19.9480 Y87.9058
G01 X20.1071 Y87.9374
G01 X20.2063 Y88.0037
G01 X20.2726 Y88.1029
G01 X20.3042 Y88.2620
G01 X20.3042 Y91.6780
G01 X20.2726 Y91.8371
G01 X20.2063 Y91.9363
G01 X20.1071 Y92.0026
G01 X20.0238 Y92.0192
G01 X19.9903 Y92.0273
G01 X19.9702 Y92.0335
G01 X19.9471 Y92.0421
G01 X19.9124 Y92.0580
G01 X19.8940 Y92.0680
G01 X19.8761 Y92.0789
G01 X19.8587 Y92.0907
G01 X19.8420 Y92.1033
G01 X19.8259 Y92.1167
G01 X19.8105 Y92.1309
G01 X19.7957 Y92.1458
G01 X19.7818 Y92.1614
G01 X19.7686 Y92.1777
G01 X19.7562 Y92.1947
G01 X19.7371 Y92.2248
G01 X19.7240 Y92.2495
G01 X19.7076 Y92.2872
G01 X19.6964 Y92.3211
G01 X19.6884 Y92.3544
G01 X19.6830 Y92.3888
G01 X19.6803 Y92.4244
G01 X19.6802 Y92.4454
G01 X19.6811 Y92.4663
G01 X19.6828 Y92.4854
G01 X19.6859 Y92.5079
G01 X19.6912 Y92.5346
G01 X19.6964 Y92.5549
G01 X19.7027 Y92.5749
G01 X19.7155 Y92.6082
G01 X19.7240 Y92.6265
G01 X19.7341 Y92.6458
G01 X19.7440 Y92.6626
G01 X19.7562 Y92.6813
G01 X19.7806 Y92.7132
G01 X19.8052 Y92.7400
G01 X19.8306 Y92.7634
G01 X19.8587 Y92.7853
G01 X19.8761 Y92.7971
G01 X19.8940 Y92.8080
G01 X19.9124 Y92.8180
G01 X19.9313 Y92.8271
G01 X19.9471 Y92.8339
G01 X19.9703 Y92.8425
G01 X19.9963 Y92.8504
G01 X20.0166 Y92.8553
G01 X20.0372 Y92.8593
G01 X20.0726 Y92.8636
G01 X20.1072 Y92.8651
G01 X38.6427 Y92.8651
G01 X38.6772 Y92.8636
G01 X38.7126 Y92.8593
G01 X38.9635 Y92.8095
G01 X38.9899 Y92.8029
G01 X39.0238 Y92.7917
G01 X39.0489 Y92.7813
G01 X39.0808 Y92.7653
G01 X39.1041 Y92.7513
G01 X39.1333 Y92.7308
G01 X39.1482 Y92.7188
G01 X39.1652 Y92.7036
G01 X39.1844 Y92.6844
G01 X39.2077 Y92.6574
G01 X39.2239 Y92.6355
G01 X39.2430 Y92.6054
G01 X39.2562 Y92.5807
G01 X39.2725 Y92.5430
G01 X39.2837 Y92.5091
G01 X39.2918 Y92.4758
G01 X39.2964 Y92.4476
G01 X39.2991 Y92.4205
G01 X39.3001 Y92.3922
G01 X39.3001 Y89.7927
G01 X39.4045 Y89.2677
G01 X39.7017 Y88.8229
G01 X39.9529 Y88.5717
G01 X40.3977 Y88.2745
G01 X41.1000 Y88.1348
G01 X41.8023 Y88.2745
G01 X42.3977 Y88.6723
G01 X42.7955 Y89.2677
G01 X42.8999 Y89.7927
G01 X42.8999 Y92.3630
G01 X42.9009 Y92.3913
G01 X42.9036 Y92.4184
G01 X42.9082 Y92.4466
G01 X42.9163 Y92.4799
G01 X42.9275 Y92.5138
G01 X42.9438 Y92.5515
G01 X42.9570 Y92.5762
G01 X42.9761 Y92.6063
G01 X43.0004 Y92.6382
G01 X43.0199 Y92.6597
G01 X43.0457 Y92.6843
G01 X43.0713 Y92.7051
G01 X43.1012 Y92.7254
G01 X43.1322 Y92.7430
G01 X43.1568 Y92.7547
G01 X43.1901 Y92.7675
G01 X43.2101 Y92.7737
G01 X43.2304 Y92.7790
G01 X43.2571 Y92.7843
G01 X43.2925 Y92.7886
G01 X43.3270 Y92.7901
G01 X54.1130 Y92.7901
G01 X54.1475 Y92.7886
G01 X54.1829 Y92.7843
G01 X54.2096 Y92.7790
G01 X54.2299 Y92.7737
G01 X54.2499 Y92.7675
G01 X54.2730 Y92.7589
G01 X54.3022 Y92.7458
G01 X54.3262 Y92.7330
G01 X54.3563 Y92.7139
G01 X54.3782 Y92.6977
G01 X54.4052 Y92.6744
G01 X54.4201 Y92.6597
G01 X54.4384 Y92.6396
G01 X54.4551 Y92.6187
G01 X54.4754 Y92.5888
G01 X54.4930 Y92.5578
G01 X54.5021 Y92.5389
G01 X54.5125 Y92.5138
G01 X54.5237 Y92.4799
G01 X54.5318 Y92.4466
G01 X54.5364 Y92.4184
G01 X54.5391 Y92.3913
G01 X54.5401 Y92.3630
G01 X54.5401 Y89.7927
G01 X54.6445 Y89.2677
G01 X54.7079 Y89.1727
G01 X54.7188 Y89.1548
G01 X54.7288 Y89.1364
G01 X54.7379 Y89.1175
G01 X54.7483 Y89.0924
G01 X54.7552 Y89.0726
G01 X54.7647 Y89.0382
G01 X54.7690 Y89.0177
G01 X54.7722 Y88.9970
G01 X54.7744 Y88.9761
G01 X54.7756 Y88.9552
G01 X54.7758 Y88.7621
G01 X54.8075 Y88.6030
G01 X54.8738 Y88.5038
G01 X54.9730 Y88.4375
G01 X55.1321 Y88.4058
G01 X55.3252 Y88.4056
G01 X55.3461 Y88.4044
G01 X55.3670 Y88.4022
G01 X55.4021 Y88.3961
G01 X55.4285 Y88.3895
G01 X55.4624 Y88.3783
G01 X55.4875 Y88.3679
G01 X55.5064 Y88.3588
G01 X55.5248 Y88.3488
G01 X55.5427 Y88.3379
G01 X55.6377 Y88.2745
G01 X56.3400 Y88.1348
G01 X57.0423 Y88.2745
G01 X57.1373 Y88.3379
G01 X57.1552 Y88.3488
G01 X57.1736 Y88.3588
G01 X57.1925 Y88.3679
G01 X57.2176 Y88.3783
G01 X57.2515 Y88.3895
G01 X57.2779 Y88.3961
G01 X57.3130 Y88.4022
G01 X57.3339 Y88.4044
G01 X57.3548 Y88.4056
G01 X57.5479 Y88.4058
G01 X57.7070 Y88.4375
G01 X57.8062 Y88.5038
G01 X57.8725 Y88.6030
G01 X57.9042 Y88.7621
G01 X57.9044 Y88.9552
G01 X57.9056 Y88.9761
G01 X57.9078 Y88.9970
G01 X57.9110 Y89.0177
G01 X57.9153 Y89.0382
G01 X57.9248 Y89.0726
G01 X57.9317 Y89.0924
G01 X57.9421 Y89.1175
G01 X57.9512 Y89.1364
G01 X57.9612 Y89.1548
G01 X57.9721 Y89.1727
G01 X58.0355 Y89.2677
G01 X58.1399 Y89.7927
G01 X58.1399 Y92.3630
G01 X58.1409 Y92.3913
G01 X58.1436 Y92.4184
G01 X58.1482 Y92.4466
G01 X58.1546 Y92.4739
G01 X58.1625 Y92.4999
G01 X58.1711 Y92.5230
G01 X58.1838 Y92.5515
G01 X58.1939 Y92.5708
G01 X58.2079 Y92.5941
G01 X58.2249 Y92.6187
G01 X58.2404 Y92.6382
G01 X58.2599 Y92.6597
G01 X58.2857 Y92.6843
G01 X58.3018 Y92.6977
G01 X58.3237 Y92.7139
G01 X58.3538 Y92.7330
G01 X58.3722 Y92.7430
G01 X58.3968 Y92.7547
G01 X58.4162 Y92.7625
G01 X58.4360 Y92.7695
G01 X58.4561 Y92.7754
G01 X58.4834 Y92.7818
G01 X58.5178 Y92.7872
G01 X58.5387 Y92.7891
G01 X58.5670 Y92.7901
G01 X63.8271 Y92.7901
G01 X63.8552 Y92.7891
G01 X63.8743 Y92.7874
G01 X63.8965 Y92.7844
G01 X63.9229 Y92.7792
G01 X63.9570 Y92.7698
G01 X63.9767 Y92.7630
G01 X63.9960 Y92.7552
G01 X64.0207 Y92.7436
G01 X64.0565 Y92.7232
G01 X64.0822 Y92.7055
G01 X64.1064 Y92.6860
G01 X64.1218 Y92.6720
G01 X64.1365 Y92.6573
G01 X64.1598 Y92.6307
G01 X64.1724 Y92.6142
G01 X64.1843 Y92.5971
G01 X64.1983 Y92.5741
G01 X64.2082 Y92.5558
G01 X64.2171 Y92.5370
G01 X64.2301 Y92.5041
G01 X64.2382 Y92.4784
G01 X64.2474 Y92.4386
G01 X64.3054 Y92.4840
G01 X64.3628 Y92.5246
G01 X64.4269 Y92.5656
G01 X64.4929 Y92.6034
G01 X64.5740 Y92.6442
G01 X64.6402 Y92.6734
G01 X64.7148 Y92.7018
G01 X64.7730 Y92.7210
G01 X64.8463 Y92.7417
G01 X64.9273 Y92.7602
G01 X64.9953 Y92.7721
G01 X65.0708 Y92.7817
G01 X65.1466 Y92.7877
G01 X65.2300 Y92.7900
G01 X65.2987 Y92.7884
G01 X65.3892 Y92.7817
G01 X65.4647 Y92.7721
G01 X65.5327 Y92.7602
G01 X65.5995 Y92.7452
G01 X65.6729 Y92.7253
G01 X65.7591 Y92.6968
G01 X65.8198 Y92.6734
G01 X65.8986 Y92.6383
G01 X65.9541 Y92.6104
G01 X66.0205 Y92.5732
G01 X66.0972 Y92.5246
G01 X66.1546 Y92.4840
G01 X66.2076 Y92.4428
G01 X66.2763 Y92.3835
G01 X66.3260 Y92.3360
G01 X66.3834 Y92.2754
G01 X66.4234 Y92.2289
G01 X66.4705 Y92.1692
G01 X66.5228 Y92.0950
G01 X66.5556 Y92.0431
G01 X66.5934 Y91.9771
G01 X66.6283 Y91.9086
G01 X66.6591 Y91.8399
G01 X66.6868 Y91.7691
G01 X66.7110 Y91.6970
G01 X66.7352 Y91.6095
G01 X66.7502 Y91.5427
G01 X66.7621 Y91.4747
G01 X66.7717 Y91.3992
G01 X66.7777 Y91.3234
G01 X66.7799 Y91.2326
G01 X66.7784 Y91.1713
G01 X66.7732 Y91.0954
G01 X66.7621 Y91.0053
G01 X66.7502 Y90.9373
G01 X66.7317 Y90.8563
G01 X66.7153 Y90.7971
G01 X66.6918 Y90.7248
G01 X66.6634 Y90.6502
G01 X66.6451 Y90.6085
G01 X66.6588 Y90.5947
G01 X66.6872 Y90.6046
G01 X66.7039 Y90.6094
G01 X66.7268 Y90.6148
G01 X66.7555 Y90.6196
G01 X66.7765 Y90.6220
G01 X66.8107 Y90.6235
G01 X66.8338 Y90.6230
G01 X66.8544 Y90.6215
G01 X66.8946 Y90.6157
G01 X66.9176 Y90.6105
G01 X66.9380 Y90.6048
G01 X66.9640 Y90.5959
G01 X66.9837 Y90.5880
G01 X67.0056 Y90.5776
G01 X67.0216 Y90.5691
G01 X67.0399 Y90.5583
G01 X67.0676 Y90.5394
G01 X67.0862 Y90.5247
G01 X67.1022 Y90.5107
G01 X67.1174 Y90.4960
G01 X67.1361 Y90.4757
G01 X67.1496 Y90.4593
G01 X67.1622 Y90.4423
G01 X67.1740 Y90.4247
G01 X67.1848 Y90.4065
G01 X67.1959 Y90.3856
G01 X67.2087 Y90.3571
G01 X67.2170 Y90.3350
G01 X67.2229 Y90.3164
G01 X67.2287 Y90.2942
G01 X67.2330 Y90.2735
G01 X67.2363 Y90.2525
G01 X67.2386 Y90.2314
G01 X67.2401 Y90.1965
G01 X67.2398 Y87.3593
G01 X67.2374 Y87.3255
G01 X67.2332 Y87.2968
G01 X67.2254 Y87.2620
G01 X67.2175 Y87.2360
G01 X67.2047 Y87.2027
G01 X67.1930 Y87.1781
G01 X67.1762 Y87.1483
G01 X67.1551 Y87.1172
G01 X67.1343 Y87.0916
G01 X67.1097 Y87.0658
G01 X67.0896 Y87.0475
G01 X67.0733 Y87.0343
G01 X67.0563 Y87.0220
G01 X67.0262 Y87.0029
G01 X67.0015 Y86.9897
G01 X66.9638 Y86.9734
G01 X66.9299 Y86.9622
G01 X66.8966 Y86.9541
G01 X66.8684 Y86.9495
G01 X66.8475 Y86.9473
G01 X66.8266 Y86.9461
G01 X66.7994 Y86.9461
G01 X66.7656 Y86.9485
G01 X66.7294 Y86.9541
G01 X66.6961 Y86.9622
G01 X66.6622 Y86.9734
G01 X66.6245 Y86.9897
G01 X66.5884 Y87.0097
G01 X66.5573 Y87.0308
G01 X66.5317 Y87.0516
G01 X66.5110 Y87.0709
G01 X66.1080 Y87.4740
G01 X65.5383 Y87.7099
G01 X64.9217 Y87.7099
G01 X64.3520 Y87.4740
G01 X63.9160 Y87.0380
G01 X63.9046 Y87.0111
G01 X63.8886 Y86.9792
G01 X63.8746 Y86.9559
G01 X63.8576 Y86.9313
G01 X63.8368 Y86.9057
G01 X63.8175 Y86.8850
G01 X63.7968 Y86.8657
G01 X63.7712 Y86.8449
G01 X63.7466 Y86.8279
G01 X63.7287 Y86.8170
G01 X63.7103 Y86.8070
G01 X63.6914 Y86.7979
G01 X63.6755 Y86.7911
G01 X63.6524 Y86.7825
G01 X63.6264 Y86.7746
G01 X63.6060 Y86.7697
G01 X63.5709 Y86.7636
G01 X63.5500 Y86.7614
G01 X63.5291 Y86.7602
G01 X63.4031 Y86.7599
G01 X63.2282 Y86.7251
G01 X63.0297 Y86.5925
G01 X62.8971 Y86.3941
G01 X62.8505 Y86.1600
G01 X62.8971 Y85.9259
G01 X63.0297 Y85.7275
G01 X63.2349 Y85.5904
G01 X63.2533 Y85.5774
G01 X63.2789 Y85.5566
G01 X63.2996 Y85.5373
G01 X63.3189 Y85.5166
G01 X63.3397 Y85.4910
G01 X63.3600 Y85.4611
G01 X63.3776 Y85.4301
G01 X63.3935 Y85.3953
G01 X63.4040 Y85.3663
G01 X63.4136 Y85.3319
G01 X63.4178 Y85.3114
G01 X63.4210 Y85.2907
G01 X63.4232 Y85.2698
G01 X63.4244 Y85.2489
G01 X63.4244 Y85.2217
G01 X63.4220 Y85.1879
G01 X63.4178 Y85.1592
G01 X63.3683 Y84.9100
G01 X63.3764 Y84.8642
G01 X63.3786 Y84.8434
G01 X63.3800 Y84.8162
G01 X63.3798 Y84.4148
G01 X63.3774 Y84.3810
G01 X63.3718 Y84.3448
G01 X63.3637 Y84.3115
G01 X63.3575 Y84.2915
G01 X63.3489 Y84.2684
G01 X63.3330 Y84.2336
G01 X63.3230 Y84.2152
G01 X63.3121 Y84.1973
G01 X63.2916 Y84.1681
G01 X63.2796 Y84.1532
G01 X63.2644 Y84.1362
G01 X62.8070 Y83.6784
G01 X62.7863 Y83.6591
G01 X62.7702 Y83.6457
G01 X62.7534 Y83.6331
G01 X62.7361 Y83.6213
G01 X62.7182 Y83.6104
G01 X62.6935 Y83.5972
G01 X62.6558 Y83.5809
G01 X62.6360 Y83.5740
G01 X62.6159 Y83.5680
G01 X62.5811 Y83.5602
G01 X62.5604 Y83.5570
G01 X62.5395 Y83.5548
G01 X62.5050 Y83.5533
G01 X62.4705 Y83.5548
G01 X62.4496 Y83.5570
G01 X62.4289 Y83.5602
G01 X62.4084 Y83.5644
G01 X62.3881 Y83.5697
G01 X62.3542 Y83.5809
G01 X62.3165 Y83.5972
G01 X62.2918 Y83.6104
G01 X62.2617 Y83.6295
G01 X62.2298 Y83.6538
G01 X62.2128 Y83.6690
G01 X62.1979 Y83.6837
G01 X62.1837 Y83.6991
G01 X62.1703 Y83.7152
G01 X62.1541 Y83.7371
G01 X62.1426 Y83.7546
G01 X62.1319 Y83.7726
G01 X62.1218 Y83.7919
G01 X62.1105 Y83.8170
G01 X61.8870 Y84.3564
G01 X61.5214 Y84.7220
G01 X61.0436 Y84.9199
G01 X60.5264 Y84.9199
G01 X60.0486 Y84.7220
G01 X59.6830 Y84.3564
G01 X59.4851 Y83.8786
G01 X59.4848 Y83.3634
G01 X59.4824 Y83.3296
G01 X59.4768 Y83.2934
G01 X59.4687 Y83.2601
G01 X59.4625 Y83.2401
G01 X59.4539 Y83.2169
G01 X59.4412 Y83.1885
G01 X59.4311 Y83.1692
G01 X59.4171 Y83.1459
G01 X59.4001 Y83.1213
G01 X59.3846 Y83.1018
G01 X59.3651 Y83.0803
G01 X59.3502 Y83.0656
G01 X59.3232 Y83.0423
G01 X59.3013 Y83.0261
G01 X59.2838 Y83.0146
G01 X59.2528 Y82.9970
G01 X59.2339 Y82.9879
G01 X59.2088 Y82.9775
G01 X59.1749 Y82.9663
G01 X59.1546 Y82.9610
G01 X59.1279 Y82.9557
G01 X59.0925 Y82.9514
G01 X59.0580 Y82.9499
G01 X48.1861 Y82.9499
G01 X48.1578 Y82.9509
G01 X48.1387 Y82.9526
G01 X48.1162 Y82.9557
G01 X48.0850 Y82.9617
G01 X47.8389 Y82.9127
G01 X47.8164 Y82.9028
G01 X47.7932 Y82.8942
G01 X47.7672 Y82.8863
G01 X47.7399 Y82.8799
G01 X47.7117 Y82.8753
G01 X47.6846 Y82.8726
G01 X47.6563 Y82.8717
G01 X47.6218 Y82.8731
G01 X47.5864 Y82.8775
G01 X47.5597 Y82.8828
G01 X47.5253 Y82.8923
G01 X47.4963 Y82.9028
G01 X47.4615 Y82.9187
G01 X47.4317 Y82.9355
G01 X47.4079 Y82.9514
G01 X47.3812 Y82.9721
G01 X47.3543 Y82.9967
G01 X47.3309 Y83.0222
G01 X47.3090 Y83.0503
G01 X47.2913 Y83.0771
G01 X46.9164 Y83.4520
G01 X46.4386 Y83.6499
G01 X45.9054 Y83.6499
G01 X45.8771 Y83.6509
G01 X45.8500 Y83.6536
G01 X45.8293 Y83.6568
G01 X45.8088 Y83.6610
G01 X45.7885 Y83.6663
G01 X45.7685 Y83.6725
G01 X45.7453 Y83.6811
G01 X45.7169 Y83.6938
G01 X45.6976 Y83.7039
G01 X45.6743 Y83.7179
G01 X45.6497 Y83.7349
G01 X45.6302 Y83.7504
G01 X45.6087 Y83.7699
G01 X45.1124 Y84.2660
G01 X45.0931 Y84.2867
G01 X45.0758 Y84.3077
G01 X45.0635 Y84.3247
G01 X45.0520 Y84.3422
G01 X45.0344 Y84.3732
G01 X45.0253 Y84.3921
G01 X45.0149 Y84.4172
G01 X45.0037 Y84.4511
G01 X44.9984 Y84.4714
G01 X44.9931 Y84.4981
G01 X44.9902 Y84.5188
G01 X44.9883 Y84.5397
G01 X44.9873 Y84.5680
G01 X44.9883 Y84.5963
G01 X44.9900 Y84.6154
G01 X44.9931 Y84.6379
G01 X44.9984 Y84.6646
G01 X45.0037 Y84.6849
G01 X45.0099 Y84.7049
G01 X45.0185 Y84.7280
G01 X45.0312 Y84.7565
G01 X45.0413 Y84.7758
G01 X45.0553 Y84.7991
G01 X45.0724 Y84.8237
G01 X45.0878 Y84.8432
G01 X45.1030 Y84.8602
G01 X45.1222 Y84.8794
G01 X45.1378 Y84.8934
G01 X45.1660 Y84.9153
G01 X45.1886 Y84.9304
G01 X45.2066 Y84.9411
G01 X45.2259 Y84.9512
G01 X45.2544 Y84.9639
G01 X45.2775 Y84.9725
G01 X45.2975 Y84.9787
G01 X45.3308 Y84.9868
G01 X45.3652 Y84.9922
G01 X45.3861 Y84.9941
G01 X45.4144 Y84.9951
G01 X46.7838 Y84.9951
G01 X46.8121 Y84.9941
G01 X46.8313 Y84.9924
G01 X46.8538 Y84.9893
G01 X46.8850 Y84.9833
G01 X47.1191 Y85.0299
G01 X47.3175 Y85.1625
G01 X47.3354 Y85.1887
G01 X47.3480 Y85.2055
G01 X47.3614 Y85.2216
G01 X47.3807 Y85.2423
G01 X50.4719 Y88.3335
G01 X50.4926 Y88.3528
G01 X50.5087 Y88.3662
G01 X50.5254 Y88.3788
G01 X50.5428 Y88.3906
G01 X50.5661 Y88.4046
G01 X50.5854 Y88.4147
G01 X50.6138 Y88.4274
G01 X50.6429 Y88.4379
G01 X50.6773 Y88.4474
G01 X50.7039 Y88.4527
G01 X50.7393 Y88.4571
G01 X50.7603 Y88.4583
G01 X50.7812 Y88.4584
G01 X50.8084 Y88.4571
G01 X50.8292 Y88.4549
G01 X50.8575 Y88.4503
G01 X50.8848 Y88.4439
G01 X50.9049 Y88.4379
G01 X50.9246 Y88.4310
G01 X50.9517 Y88.4201
G01 X51.5683 Y88.4201
G01 X52.1380 Y88.6560
G01 X52.5740 Y89.0920
G01 X52.8099 Y89.6615
G01 X52.8099 Y90.2785
G01 X52.5740 Y90.8480
G01 X52.1380 Y91.2840
G01 X51.5685 Y91.5199
G01 X50.9515 Y91.5199
G01 X50.3820 Y91.2840
G01 X49.9460 Y90.8480
G01 X49.7101 Y90.2783
G01 X49.7101 Y89.6617
G01 X49.7210 Y89.6346
G01 X49.7279 Y89.6149
G01 X49.7339 Y89.5948
G01 X49.7403 Y89.5675
G01 X49.7449 Y89.5392
G01 X49.7471 Y89.5184
G01 X49.7484 Y89.4912
G01 X49.7483 Y89.4703
G01 X49.7459 Y89.4364
G01 X49.7417 Y89.4078
G01 X49.7339 Y89.3730
G01 X49.7260 Y89.3470
G01 X49.7131 Y89.3137
G01 X49.7015 Y89.2891
G01 X49.6847 Y89.2593
G01 X49.6635 Y89.2282
G01 X49.6428 Y89.2026
G01 X49.6235 Y89.1819
G01 X46.7563 Y86.3149
G01 X46.7362 Y86.2966
G01 X46.7080 Y86.2747
G01 X46.6854 Y86.2595
G01 X46.6544 Y86.2420
G01 X46.6298 Y86.2303
G01 X46.5965 Y86.2175
G01 X46.5705 Y86.2096
G01 X46.5432 Y86.2032
G01 X46.5088 Y86.1978
G01 X46.4879 Y86.1959
G01 X46.4596 Y86.1949
G01 X27.1394 Y86.1949
G01 X27.1111 Y86.1959
G01 X27.0840 Y86.1986
G01 X27.0558 Y86.2032
G01 X27.0285 Y86.2096
G01 X27.0025 Y86.2175
G01 X26.9793 Y86.2261
G01 X26.9509 Y86.2388
G01 X26.9262 Y86.2520
G01 X26.9083 Y86.2629
G01 X26.8791 Y86.2834
G01 X26.8581 Y86.3007
G01 X26.8374 Y86.3200
G01 X26.8181 Y86.3407
G01 X26.8008 Y86.3617
G01 X26.7803 Y86.3909
G01 X26.7694 Y86.4088
G01 X26.7562 Y86.4335
G01 X26.7435 Y86.4619
G01 X26.7349 Y86.4851
G01 X26.7270 Y86.5111
G01 X26.7206 Y86.5384
G01 X26.7160 Y86.5666
G01 X26.7133 Y86.5937
G01 X26.7124 Y86.6294
G01 X26.7137 Y86.6565
G01 X26.7181 Y86.6919
G01 X26.7234 Y86.7186
G01 X26.7287 Y86.7389
G01 X26.7399 Y86.7728
G01 X26.7477 Y86.7922
G01 X26.7594 Y86.8168
G01 X26.7762 Y86.8466
G01 X26.7885 Y86.8653
G01 X26.8008 Y86.8823
G01 X26.8181 Y86.9033
G01 X26.8323 Y86.9187
G01 X27.0137 Y87.1001
G01 X27.0338 Y87.1184
G01 X27.0547 Y87.1351
G01 X27.0793 Y87.1521
G01 X27.1026 Y87.1661
G01 X27.1219 Y87.1762
G01 X27.1504 Y87.1889
G01 X27.1735 Y87.1975
G01 X27.1995 Y87.2054
G01 X27.2268 Y87.2118
G01 X27.2612 Y87.2172
G01 X27.2821 Y87.2191
G01 X27.3104 Y87.2201
G01 X33.7689 Y87.2201
G01 X33.7972 Y87.2191
G01 X33.8163 Y87.2174
G01 X33.8388 Y87.2143
G01 X33.8700 Y87.2083
G01 X34.1041 Y87.2549
G01 X34.3025 Y87.3875
G01 X34.3204 Y87.4138
G01 X34.3330 Y87.4305
G01 X34.3464 Y87.4466
G01 X34.3657 Y87.4673
G01 X35.2319 Y88.3335
G01 X35.2573 Y88.3569
G01 X35.2854 Y88.3788
G01 X35.3028 Y88.3906
G01 X35.3207 Y88.4015
G01 X35.3454 Y88.4147
G01 X35.3738 Y88.4274
G01 X35.3970 Y88.4360
G01 X35.4170 Y88.4422
G01 X35.4373 Y88.4474
G01 X35.4639 Y88.4527
G01 X35.4847 Y88.4557
G01 X35.5056 Y88.4576
G01 X35.5339 Y88.4585
G01 X35.5622 Y88.4576
G01 X35.5813 Y88.4559
G01 X35.6038 Y88.4527
G01 X35.6244 Y88.4488
G01 X35.6448 Y88.4439
G01 X35.6649 Y88.4379
G01 X35.6846 Y88.4310
G01 X35.7117 Y88.4201
G01 X36.3283 Y88.4201
G01 X36.8980 Y88.6560
G01 X37.3340 Y89.0920
G01 X37.5699 Y89.6615
G01 X37.5699 Y90.2785
G01 X37.3340 Y90.8480
G01 X36.8980 Y91.2840
G01 X36.3285 Y91.5199
G01 X35.7115 Y91.5199
G01 X35.1420 Y91.2840
G01 X34.7060 Y90.8480
G01 X34.4701 Y90.2783
G01 X34.4701 Y89.6617
G01 X34.4810 Y89.6346
G01 X34.4879 Y89.6149
G01 X34.4939 Y89.5948
G01 X34.4988 Y89.5744
G01 X34.5027 Y89.5538
G01 X34.5057 Y89.5330
G01 X34.5076 Y89.5122
G01 X34.5085 Y89.4839
G01 X34.5076 Y89.4556
G01 X34.5059 Y89.4364
G01 X34.5027 Y89.4139
G01 X34.4988 Y89.3933
G01 X34.4922 Y89.3670
G01 X34.4860 Y89.3470
G01 X34.4774 Y89.3238
G01 X34.4706 Y89.3080
G01 X34.4546 Y89.2761
G01 X34.4447 Y89.2593
G01 X34.4324 Y89.2405
G01 X34.4162 Y89.2187
G01 X34.3929 Y89.1917
G01 X33.7466 Y88.5450
G01 X33.7259 Y88.5257
G01 X33.7098 Y88.5123
G01 X33.6930 Y88.4997
G01 X33.6757 Y88.4879
G01 X33.6578 Y88.4770
G01 X33.6394 Y88.4670
G01 X33.6046 Y88.4511
G01 X33.5815 Y88.4425
G01 X33.5615 Y88.4363
G01 X33.5282 Y88.4282
G01 X33.4938 Y88.4228
G01 X33.4729 Y88.4209
G01 X33.4520 Y88.4200
G01 X32.3429 Y88.4199
G01 X32.3148 Y88.4209
G01 X32.2957 Y88.4226
G01 X32.2595 Y88.4282
G01 X32.2270 Y88.4360
G01 X32.1933 Y88.4470
G01 X32.1684 Y88.4572
G01 X32.1367 Y88.4730
G01 X32.1135 Y88.4868
G01 X32.0878 Y88.5045
G01 X32.0636 Y88.5240
G01 X32.0378 Y88.5482
G01 X32.0195 Y88.5681
G01 X31.9976 Y88.5958
G01 X31.9824 Y88.6181
G01 X31.9647 Y88.6487
G01 X31.9529 Y88.6730
G01 X31.9399 Y88.7059
G01 X31.9318 Y88.7316
G01 X31.9226 Y88.7714
G01 X31.8646 Y88.7260
G01 X31.8072 Y88.6854
G01 X31.7431 Y88.6444
G01 X31.6771 Y88.6066
G01 X31.6086 Y88.5717
G01 X31.5298 Y88.5366
G01 X31.4691 Y88.5132
G01 X31.3970 Y88.4890
G01 X31.3237 Y88.4683
G01 X31.2427 Y88.4498
G01 X31.1747 Y88.4379
G01 X31.0992 Y88.4283
G01 X31.0234 Y88.4223
G01 X30.9400 Y88.4200
G01 X30.8713 Y88.4216
G01 X30.7954 Y88.4268
G01 X30.7053 Y88.4379
G01 X30.6373 Y88.4498
G01 X30.5705 Y88.4648
G01 X30.4830 Y88.4890
G01 X30.4109 Y88.5132
G01 X30.3502 Y88.5366
G01 X30.2840 Y88.5658
G01 X30.2159 Y88.5996
G01 X30.1381 Y88.6436
G01 X30.0850 Y88.6772
G01 X30.0226 Y88.7207
G01 X29.9574 Y88.7714
G01 X29.9482 Y88.7316
G01 X29.9401 Y88.7059
G01 X29.9271 Y88.6730
G01 X29.9182 Y88.6542
G01 X29.9083 Y88.6359
G01 X29.8943 Y88.6129
G01 X29.8824 Y88.5958
G01 X29.8698 Y88.5793
G01 X29.8465 Y88.5527
G01 X29.8273 Y88.5337
G01 X29.8117 Y88.5200
G01 X29.7955 Y88.5070
G01 X29.7665 Y88.4868
G01 X29.7433 Y88.4730
G01 X29.7116 Y88.4572
G01 X29.6924 Y88.4492
G01 X29.6729 Y88.4421
G01 X29.6471 Y88.4344
G01 X29.6205 Y88.4282
G01 X29.5859 Y88.4228
G01 X29.5652 Y88.4209
G01 X29.5371 Y88.4199
G01 X26.9861 Y88.4199
G01 X26.9578 Y88.4209
G01 X26.9387 Y88.4226
G01 X26.9162 Y88.4257
G01 X26.8850 Y88.4317
G01 X26.6509 Y88.3851
G01 X26.4525 Y88.2525
G01 X26.4346 Y88.2262
G01 X26.4220 Y88.2095
G01 X26.4086 Y88.1934
G01 X26.3893 Y88.1727
G01 X23.9016 Y85.6850
G01 X23.8809 Y85.6657
G01 X23.8553 Y85.6449
G01 X23.8254 Y85.6245
G01 X23.7944 Y85.6070
G01 X23.7755 Y85.5979
G01 X23.7504 Y85.5875
G01 X23.7165 Y85.5763
G01 X23.6962 Y85.5710
G01 X23.6695 Y85.5657
G01 X23.6488 Y85.5628
G01 X23.6279 Y85.5609
G01 X23.6070 Y85.5600
G01 X21.4255 Y85.5598
G01 X21.2509 Y85.5251
G01 X21.1029 Y85.4262
G01 X19.0438 Y83.3671
G01 X18.9449 Y83.2191
G01 X18.8983 Y82.9850
G01 X18.9043 Y82.9538
G01 X18.9072 Y82.9330
G01 X18.9091 Y82.9122
G01 X18.9101 Y82.8839
G01 X18.9101 Y78.4312
G01 X18.9091 Y78.4029
G01 X18.9074 Y78.3838
G01 X18.9043 Y78.3612
G01 X18.8983 Y78.3300
G01 X18.9449 Y78.0959
G01 X19.0775 Y77.8975
G01 X19.2759 Y77.7649
G01 X19.4505 Y77.7302
G01 X31.4245 Y77.7302
G01 X31.5991 Y77.7649
G01 X31.7976 Y77.8975
G01 X31.8154 Y77.9238
G01 X31.8280 Y77.9405
G01 X31.8414 Y77.9566
G01 X31.8608 Y77.9773
G01 X31.9277 Y78.0443
G01 X31.9484 Y78.0636
G01 X31.9740 Y78.0843
G01 X32.0075 Y78.1075
G01 X32.1401 Y78.3059
G01 X32.1867 Y78.5400
G01 X32.1786 Y78.5858
G01 X32.1764 Y78.6066
G01 X32.1750 Y78.6338
G01 X32.1752 Y79.1903
G01 X32.1764 Y79.2112
G01 X32.1786 Y79.2320
G01 X32.1818 Y79.2528
G01 X32.1860 Y79.2733
G01 X32.1955 Y79.3077
G01 X32.2025 Y79.3274
G01 X32.2103 Y79.3469
G01 X32.2220 Y79.3715
G01 X32.2320 Y79.3899
G01 X32.2429 Y79.4078
G01 X32.2599 Y79.4324
G01 X32.2807 Y79.4580
G01 X32.3000 Y79.4787
G01 X32.4714 Y79.6500
G01 X32.4921 Y79.6693
G01 X32.5131 Y79.6866
G01 X32.5422 Y79.7071
G01 X32.5656 Y79.7211
G01 X32.5974 Y79.7371
G01 X32.6226 Y79.7475
G01 X32.6564 Y79.7587
G01 X32.6897 Y79.7668
G01 X32.7242 Y79.7722
G01 X32.7597 Y79.7748
G01 X42.0146 Y79.7751
G01 X42.0429 Y79.7741
G01 X42.0620 Y79.7724
G01 X42.0982 Y79.7668
G01 X42.1255 Y79.7604
G01 X42.1515 Y79.7525
G01 X42.1848 Y79.7397
G01 X42.2094 Y79.7280
G01 X42.2392 Y79.7112
G01 X42.2630 Y79.6953
G01 X42.2898 Y79.6746
G01 X42.3166 Y79.6500
G01 X42.9201 Y79.0463
G01 X42.9343 Y79.0309
G01 X42.9477 Y79.0148
G01 X42.9603 Y78.9980
G01 X42.9721 Y78.9807
G01 X42.9830 Y78.9628
G01 X42.9930 Y78.9444
G01 X43.0089 Y78.9097
G01 X43.0175 Y78.8865
G01 X43.0237 Y78.8665
G01 X43.0318 Y78.8332
G01 X43.0372 Y78.7988
G01 X43.0391 Y78.7779
G01 X43.0401 Y78.7496
G01 X43.0401 Y73.2170
G01 X43.0391 Y73.1887
G01 X43.0374 Y73.1696
G01 X43.0343 Y73.1471
G01 X43.0290 Y73.1204
G01 X43.0195 Y73.0860
G01 X43.0125 Y73.0662
G01 X43.0047 Y73.0468
G01 X42.9930 Y73.0222
G01 X42.9830 Y73.0038
G01 X42.9721 Y72.9859
G01 X42.9516 Y72.9567
G01 X42.9396 Y72.9418
G01 X42.9244 Y72.9248
G01 X42.9052 Y72.9056
G01 X42.8896 Y72.8916
G01 X42.8733 Y72.8784
G01 X42.8441 Y72.8579
G01 X42.8208 Y72.8439
G01 X42.7889 Y72.8279
G01 X42.7730 Y72.8211
G01 X42.7499 Y72.8125
G01 X42.7299 Y72.8063
G01 X42.7096 Y72.8010
G01 X42.6829 Y72.7957
G01 X42.6475 Y72.7914
G01 X42.6130 Y72.7899
G01 X40.4218 Y72.7899
G01 X40.3935 Y72.7909
G01 X40.3664 Y72.7936
G01 X40.3382 Y72.7982
G01 X40.3109 Y72.8046
G01 X40.2849 Y72.8125
G01 X40.2617 Y72.8211
G01 X40.2333 Y72.8338
G01 X40.2140 Y72.8439
G01 X40.1960 Y72.8546
G01 X40.1733 Y72.8697
G01 X40.1566 Y72.8823
G01 X40.1405 Y72.8957
G01 X40.1198 Y72.9150
G01 X40.1005 Y72.9357
G01 X40.0871 Y72.9518
G01 X40.0744 Y72.9686
G01 X40.0339 Y73.0289
G01 X39.9089 Y73.1127
G01 X39.8822 Y73.1334
G01 X39.8606 Y73.1529
G01 X39.8459 Y73.1678
G01 X39.8226 Y73.1948
G01 X39.8100 Y73.2116
G01 X39.7949 Y73.2342
G01 X39.7773 Y73.2652
G01 X39.7682 Y73.2841
G01 X39.7578 Y73.3092
G01 X39.7509 Y73.3290
G01 X39.7449 Y73.3491
G01 X39.7385 Y73.3764
G01 X39.7339 Y73.4046
G01 X39.7312 Y73.4317
G01 X39.7303 Y73.4600
G01 X39.7312 Y73.4883
G01 X39.7339 Y73.5154
G01 X39.7385 Y73.5436
G01 X39.7449 Y73.5709
G01 X39.7509 Y73.5910
G01 X39.7578 Y73.6108
G01 X39.7682 Y73.6359
G01 X39.7773 Y73.6548
G01 X39.7873 Y73.6732
G01 X39.7982 Y73.6911
G01 X39.8153 Y73.7157
G01 X39.8307 Y73.7352
G01 X39.8502 Y73.7567
G01 X39.8651 Y73.7714
G01 X39.8921 Y73.7947
G01 X39.9200 Y73.8151
G01 X40.0339 Y73.8911
G01 X40.2910 Y74.2760
G01 X40.3813 Y74.7300
G01 X40.2910 Y75.1840
G01 X40.0339 Y75.5689
G01 X39.8340 Y75.7024
G01 X39.8156 Y75.7154
G01 X39.7961 Y75.7309
G01 X39.7693 Y75.7555
G01 X39.7458 Y75.7811
G01 X39.7238 Y75.8092
G01 X39.7029 Y75.8415
G01 X39.6911 Y75.8630
G01 X39.6820 Y75.8819
G01 X39.6716 Y75.9071
G01 X39.6647 Y75.9269
G01 X39.6588 Y75.9471
G01 X39.6525 Y75.9740
G01 X39.6478 Y76.0027
G01 X39.6456 Y76.0236
G01 X39.6443 Y76.0508
G01 X39.6445 Y76.0718
G01 X39.6457 Y76.0928
G01 X39.6480 Y76.1136
G01 X39.6512 Y76.1344
G01 X39.6555 Y76.1549
G01 X39.6608 Y76.1752
G01 X39.6720 Y76.2089
G01 X39.6369 Y76.1936
G01 X39.5800 Y76.1720
G01 X39.5398 Y76.1587
G01 X39.4849 Y76.1431
G01 X39.4148 Y76.1274
G01 X39.3584 Y76.1180
G01 X39.3017 Y76.1114
G01 X39.2447 Y76.1075
G01 X39.1950 Y76.1064
G01 X39.1453 Y76.1075
G01 X39.0883 Y76.1114
G01 X39.0170 Y76.1202
G01 X38.9677 Y76.1288
G01 X38.9194 Y76.1396
G01 X38.8502 Y76.1587
G01 X38.7961 Y76.1770
G01 X38.7531 Y76.1936
G01 X38.7042 Y76.2151
G01 X38.6530 Y76.2404
G01 X38.5917 Y76.2750
G01 X38.5547 Y76.2985
G01 X38.5078 Y76.3311
G01 X38.4512 Y76.3753
G01 X38.4082 Y76.4128
G01 X38.3722 Y76.4472
G01 X38.3378 Y76.4832
G01 X38.3003 Y76.5262
G01 X38.2561 Y76.5828
G01 X38.2317 Y76.6175
G01 X38.2008 Y76.6655
G01 X38.1654 Y76.7280
G01 X38.1460 Y76.7666
G01 X38.1229 Y76.8179
G01 X38.0970 Y76.8850
G01 X38.0837 Y76.9252
G01 X38.0681 Y76.9801
G01 X38.0538 Y77.0427
G01 X38.0430 Y77.1066
G01 X38.0378 Y77.1486
G01 X38.0333 Y77.2056
G01 X38.0314 Y77.2700
G01 X38.0333 Y77.3344
G01 X38.0376 Y77.3896
G01 X38.0430 Y77.4334
G01 X38.0553 Y77.5042
G01 X38.0646 Y77.5456
G01 X38.0795 Y77.6007
G01 X38.1020 Y77.6689
G01 X38.1248 Y77.7263
G01 X38.1018 Y77.7195
G01 X38.0815 Y77.7146
G01 X38.0609 Y77.7107
G01 X38.0402 Y77.7079
G01 X38.0194 Y77.7060
G01 X37.9985 Y77.7052
G01 X37.9775 Y77.7054
G01 X37.9567 Y77.7066
G01 X37.9359 Y77.7088
G01 X37.9152 Y77.7121
G01 X37.8947 Y77.7163
G01 X37.8745 Y77.7216
G01 X37.8545 Y77.7278
G01 X37.8317 Y77.7363
G01 X37.7968 Y77.7523
G01 X37.7784 Y77.7623
G01 X37.7605 Y77.7732
G01 X37.7432 Y77.7850
G01 X37.7265 Y77.7976
G01 X37.7105 Y77.8110
G01 X37.6951 Y77.8252
G01 X37.6804 Y77.8401
G01 X37.6665 Y77.8557
G01 X37.6498 Y77.8765
G01 X37.6368 Y77.8949
G01 X37.4939 Y78.1089
G01 X37.1090 Y78.3660
G01 X36.7696 Y78.4335
G01 X36.5404 Y78.4335
G01 X36.2010 Y78.3660
G01 X35.8161 Y78.1089
G01 X35.5590 Y77.7240
G01 X35.4687 Y77.2700
G01 X35.5590 Y76.8160
G01 X35.8161 Y76.4311
G01 X35.9360 Y76.3509
G01 X35.9679 Y76.3266
G01 X35.9849 Y76.3114
G01 X36.0041 Y76.2922
G01 X36.0274 Y76.2652
G01 X36.0400 Y76.2484
G01 X36.0518 Y76.2311
G01 X36.0658 Y76.2078
G01 X36.0818 Y76.1759
G01 X36.0922 Y76.1508
G01 X36.0991 Y76.1310
G01 X36.1087 Y76.0966
G01 X36.1140 Y76.0699
G01 X36.1183 Y76.0345
G01 X36.1195 Y76.0136
G01 X36.1197 Y75.9926
G01 X36.1171 Y75.9526
G01 X36.1115 Y75.9164
G01 X36.1034 Y75.8831
G01 X36.0972 Y75.8631
G01 X36.0886 Y75.8400
G01 X36.0727 Y75.8052
G01 X36.0627 Y75.7868
G01 X36.0518 Y75.7689
G01 X36.0400 Y75.7516
G01 X36.0274 Y75.7348
G01 X36.0140 Y75.7187
G01 X35.9998 Y75.7033
G01 X35.9849 Y75.6886
G01 X35.9692 Y75.6746
G01 X35.9529 Y75.6614
G01 X35.9360 Y75.6491
G01 X35.8726 Y75.6069
G01 X35.8415 Y75.5893
G01 X35.8068 Y75.5734
G01 X35.7837 Y75.5648
G01 X35.7637 Y75.5586
G01 X35.7304 Y75.5505
G01 X35.6959 Y75.5451
G01 X35.6751 Y75.5432
G01 X35.6468 Y75.5423
G01 X35.6185 Y75.5432
G01 X35.5993 Y75.5449
G01 X35.5631 Y75.5505
G01 X35.5299 Y75.5586
G01 X35.5099 Y75.5648
G01 X35.4867 Y75.5734
G01 X35.4520 Y75.5893
G01 X35.4336 Y75.5993
G01 X35.4157 Y75.6102
G01 X35.3983 Y75.6220
G01 X35.3816 Y75.6346
G01 X35.3655 Y75.6480
G01 X35.3448 Y75.6673
G01 X34.7294 Y76.2827
G01 X34.7101 Y76.3034
G01 X34.6967 Y76.3195
G01 X34.6841 Y76.3363
G01 X34.6662 Y76.3625
G01 X34.4678 Y76.4951
G01 X34.2337 Y76.5417
G01 X34.2025 Y76.5357
G01 X34.1817 Y76.5328
G01 X34.1608 Y76.5309
G01 X34.1325 Y76.5299
G01 X20.8585 Y76.5299
G01 X20.6839 Y76.4951
G01 X20.4854 Y76.3625
G01 X20.4675 Y76.3362
G01 X20.4549 Y76.3195
G01 X20.4415 Y76.3034
G01 X20.4222 Y76.2827
G01 X19.1623 Y75.0228
G01 X19.1416 Y75.0035
G01 X19.1255 Y74.9901
G01 X19.1088 Y74.9775
G01 X19.0825 Y74.9596
G01 X18.9499 Y74.7612
G01 X18.9033 Y74.5271
G01 X18.9093 Y74.4958
G01 X18.9122 Y74.4751
G01 X18.9141 Y74.4542
G01 X18.9151 Y74.4259
G01 X18.9151 Y72.0141
G01 X18.9141 Y71.9858
G01 X18.9124 Y71.9667
G01 X18.9093 Y71.9442
G01 X18.9033 Y71.9130
G01 X18.9499 Y71.6789
G01 X19.0825 Y71.4805
G01 X19.1088 Y71.4626
G01 X19.1255 Y71.4500
G01 X19.1416 Y71.4366
G01 X19.1623 Y71.4173
G01 X21.9644 Y68.6148
G01 X21.9877 Y68.5878
G01 X22.0039 Y68.5659
G01 X22.0154 Y68.5484
G01 X22.0261 Y68.5304
G01 X22.0421 Y68.4985
G01 X22.0525 Y68.4734
G01 X22.0637 Y68.4395
G01 X22.0718 Y68.4062
G01 X22.0772 Y68.3718
G01 X22.0791 Y68.3509
G01 X22.0801 Y68.3226
G01 X22.0801 Y57.0984
G01 X22.0791 Y57.0701
G01 X22.0774 Y57.0510
G01 X22.0743 Y57.0285
G01 X22.0703 Y57.0079
G01 X22.0654 Y56.9875
G01 X22.0575 Y56.9615
G01 X22.0489 Y56.9384
G01 X22.0421 Y56.9225
G01 X22.0330 Y56.9036
G01 X22.0230 Y56.8852
G01 X22.0039 Y56.8551
G01 X21.9796 Y56.8232
G01 X21.9550 Y56.7964
G01 X21.5636 Y56.4050
G01 X21.5429 Y56.3857
G01 X21.5268 Y56.3723
G01 X21.5049 Y56.3561
G01 X21.4748 Y56.3370
G01 X21.4501 Y56.3238
G01 X21.4216 Y56.3111
G01 X21.3926 Y56.3005
G01 X21.3582 Y56.2910
G01 X21.3315 Y56.2857
G01 X21.2961 Y56.2814
G01 X21.2616 Y56.2799
G01 X19.2670 Y56.2799
G01 X19.2325 Y56.2814
G01 X19.2116 Y56.2836
G01 X19.1834 Y56.2882
G01 X19.1561 Y56.2946
G01 X19.1360 Y56.3005
G01 X19.1162 Y56.3075
G01 X19.0968 Y56.3153
G01 X19.0722 Y56.3270
G01 X19.0538 Y56.3370
G01 X19.0359 Y56.3479
G01 X19.0113 Y56.3649
G01 X18.9918 Y56.3804
G01 X18.9748 Y56.3956
G01 X18.9599 Y56.4103
G01 X18.9416 Y56.4304
G01 X18.9284 Y56.4467
G01 X18.9161 Y56.4637
G01 X18.9046 Y56.4812
G01 X18.8870 Y56.5122
G01 X18.8753 Y56.5368
G01 X18.8625 Y56.5701
G01 X18.8546 Y56.5961
G01 X18.8468 Y56.6309
G01 X18.8428 Y56.6578
G01 X18.8402 Y56.6934
G01 X18.8399 Y59.8159
G01 X18.8409 Y59.8442
G01 X18.8426 Y59.8633
G01 X18.8457 Y59.8859
G01 X18.8517 Y59.9171
G01 X18.8051 Y60.1512
G01 X18.6725 Y60.3496
G01 X18.6462 Y60.3675
G01 X18.6295 Y60.3801
G01 X18.6134 Y60.3935
G01 X18.5927 Y60.4128
G01 X12.6380 Y66.3675
G01 X12.6146 Y66.3929
G01 X12.5927 Y66.4210
G01 X12.5776 Y66.4436
G01 X12.5600 Y66.4747
G01 X12.5483 Y66.4993
G01 X12.5355 Y66.5326
G01 X12.5276 Y66.5586
G01 X12.5198 Y66.5934
G01 X12.5158 Y66.6203
G01 X12.5132 Y66.6559
G01 X12.5129 Y68.6188
G01 X12.5139 Y68.6472
G01 X12.5156 Y68.6663
G01 X12.5187 Y68.6888
G01 X12.5247 Y68.7200
G01 X12.4781 Y68.9541
G01 X12.3455 Y69.1525
G01 X12.1471 Y69.2851
G01 X11.9130 Y69.3317
G01 X11.8818 Y69.3257
G01 X11.8610 Y69.3228
G01 X11.8402 Y69.3209
G01 X11.8118 Y69.3199
G01 X9.6863 Y69.3199
G01 X9.6579 Y69.3209
G01 X9.6388 Y69.3226
G01 X9.6026 Y69.3282
G01 X9.5694 Y69.3363
G01 X9.5493 Y69.3425
G01 X9.5262 Y69.3511
G01 X9.4915 Y69.3670
G01 X9.4731 Y69.3770
G01 X9.4552 Y69.3879
G01 X9.4378 Y69.3997
G01 X9.4211 Y69.4123
G01 X9.4050 Y69.4257
G01 X9.3895 Y69.4399
G01 X9.3649 Y69.4657
G01 X9.3477 Y69.4867
G01 X9.3271 Y69.5159
G01 X9.3156 Y69.5349
G01 X8.9013 Y69.9492
G01 X8.4720 Y70.1270
G01 X8.4469 Y70.1384
G01 X8.4279 Y70.1483
G01 X8.4100 Y70.1589
G01 X8.3926 Y70.1703
G01 X8.3758 Y70.1825
G01 X8.3549 Y70.1996
G01 X8.3396 Y70.2136
G01 X8.3249 Y70.2284
G01 X8.3110 Y70.2439
G01 X8.2891 Y70.2717
G01 X8.2774 Y70.2888
G01 X8.2665 Y70.3065
G01 X8.2525 Y70.3325
G01 X8.2368 Y70.3683
G01 X8.2258 Y70.4006
G01 X8.2168 Y70.4370
G01 X8.2116 Y70.4690
G01 X8.2095 Y70.4897
G01 X8.2085 Y70.5104
G01 X8.2085 Y70.5312
G01 X8.2094 Y70.5520
G01 X8.2134 Y70.5872
G01 X8.2163 Y70.6039
G01 X8.2218 Y70.6279
G01 X8.2293 Y70.6538
G01 X8.2417 Y70.6870
G01 X8.2502 Y70.7060
G01 X8.2596 Y70.7245
G01 X8.2698 Y70.7422
G01 X8.2811 Y70.7601
G01 X8.3009 Y70.7870
G01 X8.2148 Y70.7764
G01 X8.1438 Y70.7715
G01 X8.0800 Y70.7700
G01 X8.0162 Y70.7715
G01 X7.9452 Y70.7764
G01 X7.8745 Y70.7847
G01 X7.8318 Y70.7917
G01 X7.8492 Y70.7701
G01 X7.8696 Y70.7402
G01 X7.8872 Y70.7092
G01 X7.9031 Y70.6744
G01 X7.9136 Y70.6454
G01 X7.9231 Y70.6110
G01 X7.9274 Y70.5904
G01 X7.9306 Y70.5697
G01 X7.9332 Y70.5427
G01 X7.9341 Y70.5070
G01 X7.9316 Y70.4669
G01 X7.9259 Y70.4307
G01 X7.9179 Y70.3975
G01 X7.9067 Y70.3636
G01 X7.8903 Y70.3259
G01 X7.8772 Y70.3012
G01 X7.8581 Y70.2710
G01 X7.8419 Y70.2492
G01 X7.8285 Y70.2331
G01 X7.8091 Y70.2124
G01 X7.7884 Y70.1931
G01 X7.7723 Y70.1796
G01 X7.7505 Y70.1634
G01 X7.7330 Y70.1519
G01 X7.7149 Y70.1413
G01 X7.6956 Y70.1312
G01 X7.6706 Y70.1198
G01 X7.2587 Y69.9492
G01 X6.8508 Y69.5413
G01 X6.6301 Y69.0084
G01 X6.6301 Y68.4316
G01 X6.8508 Y67.8987
G01 X7.2587 Y67.4908
G01 X7.5635 Y67.3646
G01 X7.5885 Y67.3532
G01 X7.6132 Y67.3400
G01 X7.6434 Y67.3209
G01 X7.6652 Y67.3047
G01 X7.6922 Y67.2814
G01 X7.7072 Y67.2667
G01 X7.7213 Y67.2513
G01 X7.7421 Y67.2257
G01 X7.7625 Y67.1958
G01 X7.7731 Y67.1778
G01 X7.7832 Y67.1585
G01 X7.7996 Y67.1208
G01 X7.8065 Y67.1010
G01 X7.8124 Y67.0809
G01 X7.8174 Y67.0605
G01 X7.8213 Y67.0399
G01 X7.8242 Y67.0192
G01 X7.8261 Y66.9983
G01 X7.8270 Y66.9774
G01 X7.8269 Y66.9564
G01 X7.8257 Y66.9355
G01 X7.8235 Y66.9146
G01 X7.8202 Y66.8939
G01 X7.8160 Y66.8734
G01 X7.8108 Y66.8531
G01 X7.7996 Y66.8192
G01 X7.7917 Y66.7998
G01 X7.7829 Y66.7808
G01 X7.7731 Y66.7622
G01 X7.7591 Y66.7389
G01 X7.7474 Y66.7216
G01 X7.7348 Y66.7048
G01 X7.7213 Y66.6887
G01 X7.7020 Y66.6680
G01 X7.6766 Y66.6446
G01 X7.6485 Y66.6227
G01 X7.6311 Y66.6109
G01 X7.6132 Y66.6000
G01 X7.5885 Y66.5868
G01 X7.5635 Y66.5754
G01 X7.2587 Y66.4492
G01 X6.8508 Y66.0413
G01 X6.6301 Y65.5084
G01 X6.6301 Y64.9316
G01 X6.8508 Y64.3987
G01 X7.2587 Y63.9908
G01 X7.5635 Y63.8646
G01 X7.5885 Y63.8532
G01 X7.6078 Y63.8431
G01 X7.6311 Y63.8291
G01 X7.6557 Y63.8121
G01 X7.6813 Y63.7913
G01 X7.6967 Y63.7771
G01 X7.7115 Y63.7622
G01 X7.7348 Y63.7352
G01 X7.7474 Y63.7184
G01 X7.7591 Y63.7011
G01 X7.7700 Y63.6832
G01 X7.7801 Y63.6648
G01 X7.7960 Y63.6300
G01 X7.8045 Y63.6069
G01 X7.8108 Y63.5869
G01 X7.8188 Y63.5536
G01 X7.8242 Y63.5192
G01 X7.8261 Y63.4983
G01 X7.8271 Y63.4700
G01 X7.8261 Y63.4417
G01 X7.8244 Y63.4226
G01 X7.8213 Y63.4001
G01 X7.8174 Y63.3795
G01 X7.8124 Y63.3591
G01 X7.8045 Y63.3331
G01 X7.7960 Y63.3100
G01 X7.7892 Y63.2941
G01 X7.7801 Y63.2752
G01 X7.7632 Y63.2454
G01 X7.7510 Y63.2267
G01 X7.7348 Y63.2048
G01 X7.7213 Y63.1887
G01 X7.7020 Y63.1680
G01 X7.6766 Y63.1446
G01 X7.6485 Y63.1227
G01 X7.6311 Y63.1109
G01 X7.6132 Y63.1000
G01 X7.5885 Y63.0868
G01 X7.5635 Y63.0754
G01 X7.2587 Y62.9492
G01 X6.8508 Y62.5413
G01 X6.6301 Y62.0084
G01 X6.6301 Y61.4316
G01 X6.8508 Y60.8987
G01 X7.1644 Y60.5847
G01 X7.1784 Y60.5691
G01 X7.1916 Y60.5528
G01 X7.2121 Y60.5236
G01 X7.2261 Y60.5003
G01 X7.2421 Y60.4684
G01 X7.2489 Y60.4526
G01 X7.2575 Y60.4294
G01 X7.2637 Y60.4094
G01 X7.2690 Y60.3891
G01 X7.2732 Y60.3686
G01 X7.2764 Y60.3479
G01 X7.2791 Y60.3208
G01 X7.2801 Y60.2925
G01 X7.2798 Y60.0823
G01 X7.2786 Y60.0614
G01 X7.2764 Y60.0406
G01 X7.2703 Y60.0054
G01 X7.2654 Y59.9850
G01 X7.2595 Y59.9649
G01 X7.2489 Y59.9359
G01 X7.2330 Y59.9011
G01 X7.2230 Y59.8827
G01 X7.2121 Y59.8648
G01 X7.2003 Y59.8475
G01 X7.1877 Y59.8307
G01 X7.1644 Y59.8037
G01 X7.1497 Y59.7888
G01 X7.1343 Y59.7746
G01 X7.1087 Y59.7539
G01 X7.0788 Y59.7335
G01 X7.0478 Y59.7159
G01 X7.0232 Y59.7043
G01 X6.9899 Y59.6914
G01 X6.9639 Y59.6835
G01 X6.9435 Y59.6786
G01 X6.8130 Y59.6525
G01 X6.7138 Y59.5862
G01 X6.6475 Y59.4870
G01 X6.6229 Y59.3637
G01 X6.6148 Y59.3301
G01 X6.6086 Y59.3101
G01 X6.5957 Y59.2768
G01 X6.5841 Y59.2522
G01 X6.5673 Y59.2224
G01 X6.5514 Y59.1986
G01 X6.5307 Y59.1718
G01 X6.5155 Y59.1548
G01 X6.4963 Y59.1356
G01 X6.4693 Y59.1123
G01 X6.4474 Y59.0961
G01 X6.4173 Y59.0770
G01 X6.3926 Y59.0638
G01 X6.3548 Y59.0475
G01 X6.3351 Y59.0405
G01 X6.3150 Y59.0346
G01 X6.2946 Y59.0297
G01 X6.2740 Y59.0257
G01 X6.2533 Y59.0228
G01 X6.2324 Y59.0209
G01 X6.2041 Y59.0199
G01 X6.1320 Y59.0199
G01 X6.1037 Y59.0209
G01 X6.0766 Y59.0236
G01 X6.0559 Y59.0268
G01 X6.0354 Y59.0310
G01 X6.0151 Y59.0363
G01 X5.9951 Y59.0425
G01 X5.9720 Y59.0511
G01 X5.9372 Y59.0670
G01 X5.9188 Y59.0770
G01 X5.9009 Y59.0879
G01 X5.8763 Y59.1049
G01 X5.8568 Y59.1204
G01 X5.8398 Y59.1356
G01 X5.8249 Y59.1503
G01 X5.8107 Y59.1657
G01 X5.7973 Y59.1818
G01 X5.7811 Y59.2037
G01 X5.7696 Y59.2212
G01 X5.7589 Y59.2392
G01 X5.7488 Y59.2585
G01 X5.7361 Y59.2870
G01 X5.7275 Y59.3101
G01 X5.7213 Y59.3301
G01 X5.7160 Y59.3504
G01 X5.7118 Y59.3709
G01 X5.7078 Y59.3978
G01 X5.7059 Y59.4187
G01 X5.7049 Y59.4470
G01 X5.7049 Y77.3968
G01 X5.7059 Y77.4251
G01 X5.7076 Y77.4442
G01 X5.7107 Y77.4667
G01 X5.7160 Y77.4934
G01 X5.7213 Y77.5137
G01 X5.7275 Y77.5337
G01 X5.7361 Y77.5568
G01 X5.7488 Y77.5853
G01 X5.7688 Y77.6214
G01 X5.7847 Y77.6452
G01 X5.8054 Y77.6719
G01 X5.8300 Y77.6987
G01 X7.3513 Y79.2200
G01 X7.3767 Y79.2434
G01 X7.4048 Y79.2653
G01 X7.4221 Y79.2771
G01 X7.4400 Y79.2880
G01 X7.4647 Y79.3012
G01 X7.4966 Y79.3153
G01 X7.5163 Y79.3225
G01 X7.5363 Y79.3287
G01 X7.5566 Y79.3340
G01 X7.5772 Y79.3382
G01 X7.5979 Y79.3414
G01 X7.6187 Y79.3436
G01 X7.6396 Y79.3448
G01 X7.6638 Y79.3451
G01 X8.0681 Y79.5125
G01 X8.3775 Y79.8219
G01 X8.5400 Y80.2136
G01 X8.5491 Y80.2325
G01 X8.5659 Y80.2623
G01 X8.5782 Y80.2810
G01 X8.5944 Y80.3028
G01 X8.6177 Y80.3299
G01 X8.6324 Y80.3448
G01 X8.6478 Y80.3590
G01 X8.6734 Y80.3797
G01 X8.6980 Y80.3968
G01 X8.7213 Y80.4108
G01 X8.7532 Y80.4268
G01 X8.7690 Y80.4336
G01 X8.7922 Y80.4422
G01 X8.8182 Y80.4501
G01 X8.8386 Y80.4550
G01 X8.8592 Y80.4589
G01 X8.8799 Y80.4619
G01 X8.9008 Y80.4638
G01 X8.9217 Y80.4646
G01 X8.9427 Y80.4645
G01 X8.9636 Y80.4633
G01 X8.9845 Y80.4611
G01 X9.0052 Y80.4579
G01 X9.0257 Y80.4536
G01 X9.0460 Y80.4484
G01 X9.0660 Y80.4422
G01 X9.0891 Y80.4336
G01 X9.1050 Y80.4268
G01 X9.1239 Y80.4177
G01 X9.1423 Y80.4077
G01 X9.1602 Y80.3968
G01 X9.1848 Y80.3797
G01 X9.2043 Y80.3643
G01 X9.2258 Y80.3448
G01 X9.6059 Y79.9648
G01 X9.6252 Y79.9441
G01 X9.6425 Y79.9231
G01 X9.6549 Y79.9062
G01 X9.6803 Y79.8683
G01 X9.9449 Y79.6915
G01 X10.2570 Y79.6294
G01 X10.3018 Y79.6382
G01 X10.3225 Y79.6414
G01 X10.3495 Y79.6441
G01 X10.3778 Y79.6451
G01 X14.1528 Y79.6451
G01 X14.1811 Y79.6441
G01 X14.2002 Y79.6424
G01 X14.2227 Y79.6393
G01 X14.2433 Y79.6353
G01 X14.2637 Y79.6304
G01 X14.2838 Y79.6245
G01 X14.3036 Y79.6175
G01 X14.3230 Y79.6097
G01 X14.3476 Y79.5980
G01 X14.3660 Y79.5880
G01 X14.3901 Y79.5731
G01 X14.6358 Y79.4089
G01 X14.9567 Y79.3451
G01 X15.1733 Y79.3451
G01 X15.4942 Y79.4089
G01 X15.8580 Y79.6520
G01 X16.1011 Y80.0158
G01 X16.1865 Y80.4450
G01 X16.1011 Y80.8742
G01 X15.8580 Y81.2380
G01 X15.4942 Y81.4811
G01 X15.1733 Y81.5449
G01 X14.9567 Y81.5449
G01 X14.6358 Y81.4811
G01 X14.3901 Y81.3169
G01 X14.3660 Y81.3020
G01 X14.3476 Y81.2920
G01 X14.3287 Y81.2829
G01 X14.3094 Y81.2747
G01 X14.2897 Y81.2675
G01 X14.2637 Y81.2596
G01 X14.2433 Y81.2547
G01 X14.2227 Y81.2507
G01 X14.2020 Y81.2478
G01 X14.1811 Y81.2459
G01 X14.1528 Y81.2449
G01 X10.7579 Y81.2450
G01 X10.7307 Y81.2464
G01 X10.6953 Y81.2507
G01 X10.6686 Y81.2560
G01 X10.6343 Y81.2655
G01 X10.6052 Y81.2761
G01 X10.5768 Y81.2888
G01 X10.5575 Y81.2989
G01 X10.5341 Y81.3129
G01 X10.5168 Y81.3247
G01 X10.5001 Y81.3373
G01 X10.4840 Y81.3507
G01 X10.4633 Y81.3700
G01 X9.7020 Y82.1313
G01 X9.6826 Y82.1520
G01 X9.6619 Y82.1776
G01 X9.6415 Y82.2075
G01 X9.6239 Y82.2385
G01 X9.6123 Y82.2631
G01 X9.5995 Y82.2964
G01 X9.5932 Y82.3164
G01 X9.5880 Y82.3367
G01 X9.5827 Y82.3634
G01 X9.5783 Y82.3988
G01 X9.5771 Y82.4197
G01 X9.5770 Y82.4407
G01 X9.5795 Y82.4807
G01 X9.5852 Y82.5169
G01 X9.5932 Y82.5502
G01 X9.5995 Y82.5702
G01 X9.6080 Y82.5933
G01 X9.6239 Y82.6281
G01 X9.6339 Y82.6465
G01 X9.6448 Y82.6644
G01 X9.6654 Y82.6935
G01 X9.6774 Y82.7085
G01 X9.6925 Y82.7255
G01 X9.7072 Y82.7404
G01 X9.7227 Y82.7546
G01 X9.7483 Y82.7753
G01 X9.7781 Y82.7957
G01 X9.7962 Y82.8064
G01 X9.8155 Y82.8165
G01 X9.8532 Y82.8328
G01 X9.8730 Y82.8397
G01 X9.8931 Y82.8457
G01 X9.9134 Y82.8506
G01 X9.9471 Y82.8574
G01 X10.0463 Y82.9237
G01 X10.1126 Y83.0229
G01 X10.1299 Y83.1100
G01 X10.1299 Y86.6700
G01 X10.1126 Y86.7571
G01 X10.0463 Y86.8563
G01 X9.9471 Y86.9226
G01 X9.7880 Y86.9542
G01 X6.3720 Y86.9542
G01 X6.2129 Y86.9226
G01 X6.1137 Y86.8563
G01 X6.0474 Y86.7571
G01 X6.0158 Y86.5980
G01 X6.0158 Y83.1820
G01 X6.0474 Y83.0229
G01 X6.1137 Y82.9237
G01 X6.2129 Y82.8574
G01 X6.3720 Y82.8258
G01 X6.8734 Y82.8258
G01 X6.9017 Y82.8248
G01 X6.9287 Y82.8221
G01 X6.9570 Y82.8175
G01 X6.9843 Y82.8111
G01 X7.0103 Y82.8032
G01 X7.0436 Y82.7904
G01 X7.0682 Y82.7787
G01 X7.0980 Y82.7619
G01 X7.1218 Y82.7460
G01 X7.1485 Y82.7253
G01 X7.1656 Y82.7101
G01 X7.1805 Y82.6954
G01 X7.1947 Y82.6800
G01 X7.2081 Y82.6639
G01 X7.2207 Y82.6471
G01 X7.2358 Y82.6245
G01 X7.2465 Y82.6065
G01 X7.2566 Y82.5872
G01 X7.2729 Y82.5495
G01 X7.2798 Y82.5297
G01 X7.2858 Y82.5096
G01 X7.2922 Y82.4820
G01 X7.3265 Y82.3099
G01 X7.4233 Y82.1645
G01 X7.4340 Y82.1464
G01 X7.4441 Y82.1272
G01 X7.4604 Y82.0895
G01 X7.4716 Y82.0556
G01 X7.4782 Y82.0292
G01 X7.4843 Y81.9941
G01 X7.4870 Y81.9670
G01 X7.4879 Y81.9387
G01 X7.4865 Y81.9042
G01 X7.4821 Y81.8688
G01 X7.4768 Y81.8421
G01 X7.4716 Y81.8218
G01 X7.4654 Y81.8018
G01 X7.4525 Y81.7685
G01 X7.4441 Y81.7502
G01 X7.4340 Y81.7309
G01 X7.4200 Y81.7076
G01 X7.3994 Y81.6784
G01 X7.3874 Y81.6635
G01 X7.3723 Y81.6465
G01 X7.3531 Y81.6273
G01 X7.3260 Y81.6040
G01 X7.3042 Y81.5878
G01 X7.2867 Y81.5763
G01 X7.2686 Y81.5656
G01 X7.2368 Y81.5496
G01 X6.8219 Y81.3775
G01 X6.5125 Y81.0681
G01 X6.3451 Y80.6638
G01 X6.3441 Y80.6249
G01 X6.3424 Y80.6058
G01 X6.3393 Y80.5833
G01 X6.3353 Y80.5627
G01 X6.3304 Y80.5424
G01 X6.3245 Y80.5222
G01 X6.3175 Y80.5025
G01 X6.3071 Y80.4773
G01 X6.2911 Y80.4455
G01 X6.2812 Y80.4286
G01 X6.2689 Y80.4099
G01 X6.2527 Y80.3881
G01 X6.2393 Y80.3720
G01 X6.2200 Y80.3513
G01 X4.4248 Y78.5561
G01 X4.4041 Y78.5368
G01 X4.3831 Y78.5195
G01 X4.3662 Y78.5071
G01 X4.3283 Y78.4817
G01 X4.1515 Y78.2171
G01 X4.1052 Y77.9847
G01 X4.1052 Y12.6583
G01 X4.1515 Y12.4259
G01 X4.3283 Y12.1613
G01 X4.3785 Y12.1270
G01 X4.3980 Y12.1115
G01 X4.4195 Y12.0920
G01 X4.4800 Y12.0317
G01 X4.4993 Y12.0110
G01 X4.5200 Y11.9855
G01 X4.5371 Y11.9609
G01 X4.5511 Y11.9375
G01 X4.5671 Y11.9057
G01 X4.5775 Y11.8805
G01 X4.5887 Y11.8467
G01 X4.5968 Y11.8134
G01 X4.6014 Y11.7851
G01 X4.6041 Y11.7581
G01 X4.6051 Y11.7298
G01 X4.6051 Y10.3332
G01 X4.6041 Y10.3049
G01 X4.6024 Y10.2858
G01 X4.5968 Y10.2496
G01 X4.5904 Y10.2223
G01 X4.5844 Y10.2022
G01 X4.5775 Y10.1825
G01 X4.5671 Y10.1573
G01 X4.5580 Y10.1384
G01 X4.5480 Y10.1200
G01 X4.5371 Y10.1021
G01 X4.5200 Y10.0775
G01 X4.5046 Y10.0581
G01 X4.4894 Y10.0410
G01 X4.4150 Y9.9667
G01 X4.3994 Y9.9527
G01 X4.3785 Y9.9360
G01 X4.3283 Y9.9017
G01 X4.1515 Y9.6371
G01 X4.1052 Y9.4047
G01 X4.1052 Y9.2453
G01 X4.1515 Y9.0129
G01 X4.2831 Y8.8158
G01 X10.1108 Y2.9881
G01 X10.3079 Y2.8565
G01 X10.6200 Y2.7944
G01 X10.9321 Y2.8565
G01 X11.1967 Y3.0333
G01 X11.2278 Y3.0787
G01 X11.2433 Y3.0982
G01 X11.2627 Y3.1197
G01 X11.2776 Y3.1344
G01 X11.3047 Y3.1577
G01 X11.3214 Y3.1703
G01 X11.3388 Y3.1821
G01 X11.3621 Y3.1961
G01 X11.3814 Y3.2062
G01 X11.4098 Y3.2189
G01 X11.4329 Y3.2275
G01 X11.4590 Y3.2354
G01 X11.4862 Y3.2418
G01 X11.5145 Y3.2464
G01 X11.5353 Y3.2486
G01 X11.5698 Y3.2501
G01 X15.2778 Y3.2501
G01 X15.3061 Y3.2491
G01 X15.3332 Y3.2464
G01 X15.3614 Y3.2418
G01 X15.3947 Y3.2337
G01 X15.4147 Y3.2275
G01 X15.4480 Y3.2147
G01 X15.4726 Y3.2030
G01 X15.5024 Y3.1862
G01 X15.5212 Y3.1739
G01 X15.5430 Y3.1577
G01 X15.5700 Y3.1344
G01 X15.5849 Y3.1197
G01 X15.6032 Y3.0996
G01 X15.6199 Y3.0787
G01 X15.6509 Y3.0333
G01 X15.9155 Y2.8565
G01 X16.2277 Y2.7944
G01 X16.2724 Y2.8032
G01 X16.2931 Y2.8064
G01 X16.3202 Y2.8091
G01 X16.3485 Y2.8101
G01 X30.5742 Y2.8101
G01 X30.6025 Y2.8091
G01 X30.6295 Y2.8064
G01 X30.6502 Y2.8032
G01 X30.6950 Y2.7944
G01 X30.7398 Y2.8032
G01 X30.7605 Y2.8064
G01 X30.7875 Y2.8091
G01 X30.8158 Y2.8101
G01 X46.3042 Y2.8101
G01 X46.3325 Y2.8091
G01 X46.3595 Y2.8064
G01 X46.3802 Y2.8032
G01 X46.4250 Y2.7944
G01 X46.7371 Y2.8565
G01 X47.0017 Y3.0333
G01 X47.0271 Y3.0712
G01 X47.0395 Y3.0881
G01 X47.0568 Y3.1091
G01 X47.0761 Y3.1298
G01 X47.3050 Y3.3583
G01 X47.3206 Y3.3723
G01 X47.3415 Y3.3890
G01 X47.3917 Y3.4233
G01 X47.5685 Y3.6879
G01 X47.6306 Y4.0000
G01 X47.6218 Y4.0448
G01 X47.6186 Y4.0655
G01 X47.6164 Y4.0863
G01 X47.6152 Y4.1072
G01 X47.6150 Y4.2814
G01 X47.6159 Y4.3024
G01 X47.6186 Y4.3294
G01 X47.6218 Y4.3502
G01 X47.6260 Y4.3707
G01 X47.6313 Y4.3910
G01 X47.6375 Y4.4110
G01 X47.6503 Y4.4443
G01 X47.6588 Y4.4626
G01 X47.6689 Y4.4818
G01 X47.6829 Y4.5052
G01 X47.6999 Y4.5298
G01 X47.7207 Y4.5554
G01 X47.7400 Y4.5760
G01 X47.7607 Y4.5954
G01 X47.7817 Y4.6126
G01 X47.7987 Y4.6250
G01 X47.8288 Y4.6441
G01 X47.8472 Y4.6541
G01 X47.8718 Y4.6657
G01 X47.9051 Y4.6786
G01 X47.9251 Y4.6848
G01 X47.9587 Y4.6929
G01 X48.0820 Y4.7175
G01 X48.1812 Y4.7838
G01 X48.2475 Y4.8830
G01 X48.2792 Y5.0421
G01 X48.2792 Y7.2579
G01 X48.2475 Y7.4170
G01 X48.1812 Y7.5162
G01 X48.0820 Y7.5825
G01 X47.9587 Y7.6071
G01 X47.9311 Y7.6135
G01 X47.9110 Y7.6195
G01 X47.8912 Y7.6264
G01 X47.8718 Y7.6343
G01 X47.8528 Y7.6431
G01 X47.8288 Y7.6559
G01 X47.8109 Y7.6668
G01 X47.7863 Y7.6839
G01 X47.7668 Y7.6993
G01 X47.7498 Y7.7145
G01 X47.7306 Y7.7337
G01 X47.7166 Y7.7494
G01 X47.6947 Y7.7775
G01 X47.6796 Y7.8001
G01 X47.6689 Y7.8182
G01 X47.6588 Y7.8374
G01 X47.6461 Y7.8659
G01 X47.6375 Y7.8890
G01 X47.6313 Y7.9090
G01 X47.6260 Y7.9293
G01 X47.6207 Y7.9560
G01 X47.6164 Y7.9914
G01 X47.6150 Y8.0186
G01 X47.6152 Y8.1928
G01 X47.6164 Y8.2137
G01 X47.6186 Y8.2345
G01 X47.6218 Y8.2552
G01 X47.6306 Y8.3000
G01 X47.5685 Y8.6121
G01 X47.3917 Y8.8767
G01 X47.3415 Y8.9110
G01 X47.3220 Y8.9265
G01 X47.3005 Y8.9459
G01 X46.6198 Y9.6265
G01 X46.6004 Y9.6472
G01 X46.5832 Y9.6682
G01 X46.5708 Y9.6852
G01 X46.5517 Y9.7153
G01 X46.5389 Y9.7393
G01 X46.5258 Y9.7685
G01 X46.5172 Y9.7916
G01 X46.5094 Y9.8176
G01 X46.5044 Y9.8380
G01 X46.5005 Y9.8586
G01 X46.4961 Y9.8940
G01 X46.4949 Y9.9149
G01 X46.4949 Y9.9421
G01 X46.4973 Y9.9759
G01 X46.5005 Y9.9984
G01 X46.5044 Y10.0190
G01 X46.5110 Y10.0454
G01 X46.5172 Y10.0654
G01 X46.5272 Y10.0919
G01 X46.6406 Y10.3655
G01 X46.6494 Y10.3845
G01 X46.6623 Y10.4085
G01 X46.6732 Y10.4264
G01 X46.6902 Y10.4510
G01 X46.7057 Y10.4705
G01 X46.7251 Y10.4920
G01 X46.7401 Y10.5068
G01 X46.7671 Y10.5301
G01 X46.7889 Y10.5463
G01 X46.8191 Y10.5653
G01 X46.8431 Y10.5782
G01 X46.8621 Y10.5870
G01 X46.8954 Y10.5998
G01 X46.9214 Y10.6077
G01 X46.9486 Y10.6141
G01 X46.9769 Y10.6188
G01 X47.0040 Y10.6214
G01 X47.0323 Y10.6224
G01 X47.0606 Y10.6214
G01 X47.0876 Y10.6188
G01 X47.1159 Y10.6141
G01 X47.1492 Y10.6061
G01 X47.1830 Y10.5949
G01 X47.2208 Y10.5785
G01 X47.2455 Y10.5653
G01 X47.2756 Y10.5463
G01 X47.2974 Y10.5301
G01 X47.3245 Y10.5068
G01 X49.0883 Y8.7433
G01 X49.1076 Y8.7226
G01 X49.1210 Y8.7065
G01 X49.1336 Y8.6898
G01 X49.1515 Y8.6635
G01 X49.3499 Y8.5309
G01 X49.5840 Y8.4843
G01 X49.6298 Y8.4924
G01 X49.6568 Y8.4951
G01 X49.6851 Y8.4961
G01 X49.8166 Y8.4958
G01 X49.8504 Y8.4934
G01 X49.8866 Y8.4878
G01 X49.9199 Y8.4797
G01 X49.9538 Y8.4685
G01 X49.9915 Y8.4522
G01 X50.0276 Y8.4322
G01 X50.0587 Y8.4111
G01 X50.0843 Y8.3903
G01 X50.1101 Y8.3657
G01 X50.1243 Y8.3503
G01 X50.1377 Y8.3342
G01 X50.1503 Y8.3174
G01 X50.1621 Y8.3001
G01 X50.1761 Y8.2768
G01 X50.1862 Y8.2575
G01 X50.1989 Y8.2290
G01 X50.2075 Y8.2059
G01 X50.2154 Y8.1799
G01 X50.2218 Y8.1526
G01 X50.2264 Y8.1244
G01 X50.2291 Y8.0973
G01 X50.2300 Y8.0764
G01 X50.2301 Y4.1651
G01 X50.2291 Y4.1368
G01 X50.2274 Y4.1177
G01 X50.2243 Y4.0952
G01 X50.2183 Y4.0640
G01 X50.2649 Y3.8299
G01 X50.3975 Y3.6315
G01 X50.4238 Y3.6136
G01 X50.4405 Y3.6010
G01 X50.4566 Y3.5876
G01 X50.4773 Y3.5683
G01 X51.2183 Y2.8273
G01 X51.2376 Y2.8066
G01 X51.2510 Y2.7905
G01 X51.2636 Y2.7738
G01 X51.2815 Y2.7475
G01 X51.4799 Y2.6149
G01 X51.7140 Y2.5683
G01 X51.7452 Y2.5743
G01 X51.7660 Y2.5772
G01 X51.7868 Y2.5791
G01 X51.8151 Y2.5801
G01 X61.5789 Y2.5801
G01 X61.6072 Y2.5791
G01 X61.6263 Y2.5774
G01 X61.6488 Y2.5743
G01 X61.6800 Y2.5683
G01 X61.9141 Y2.6149
G01 X62.1125 Y2.7475
G01 X62.1304 Y2.7738
G01 X62.1430 Y2.7905
G01 X62.1564 Y2.8066
G01 X62.1757 Y2.8273
G01 X62.9946 Y3.6462
G01 X63.0153 Y3.6655
G01 X63.0409 Y3.6863
G01 X63.0708 Y3.7067
G01 X63.1018 Y3.7242
G01 X63.1366 Y3.7401
G01 X63.1597 Y3.7487
G01 X63.1797 Y3.7549
G01 X63.2130 Y3.7630
G01 X63.2474 Y3.7684
G01 X63.2830 Y3.7710
G01 X63.3102 Y3.7710
G01 X63.3311 Y3.7698
G01 X63.3520 Y3.7676
G01 X63.3871 Y3.7615
G01 X63.4075 Y3.7566
G01 X63.4276 Y3.7507
G01 X63.4566 Y3.7401
G01 X63.4914 Y3.7242
G01 X63.5212 Y3.7074
G01 X63.5523 Y3.6863
G01 X63.5779 Y3.6655
G01 X63.5986 Y3.6462
G01 X63.6179 Y3.6255
G01 X63.6352 Y3.6045
G01 X63.6517 Y3.5815
G01 X63.7638 Y3.4138
G01 X63.8630 Y3.3475
G01 X64.0221 Y3.3158
G01 X64.2152 Y3.3156
G01 X64.2361 Y3.3144
G01 X64.2570 Y3.3122
G01 X64.2777 Y3.3090
G01 X64.2982 Y3.3047
G01 X64.3326 Y3.2952
G01 X64.3524 Y3.2883
G01 X64.3775 Y3.2779
G01 X64.3964 Y3.2688
G01 X64.4148 Y3.2588
G01 X64.4327 Y3.2479
G01 X64.5277 Y3.1845
G01 X65.0527 Y3.0801
G01 X68.8207 Y3.0801
G01 X68.8552 Y3.0786
G01 X68.8906 Y3.0743
G01 X69.0400 Y3.0448
G01 X69.7423 Y3.1845
G01 X70.0589 Y3.3959
G01 X70.0822 Y3.4099
G01 X70.1141 Y3.4260
G01 X70.1392 Y3.4364
G01 X70.1731 Y3.4476
G01 X70.1934 Y3.4528
G01 X70.2201 Y3.4581
G01 X70.2408 Y3.4610
G01 X70.2764 Y3.4637
G01 X70.3036 Y3.4637
G01 X70.3374 Y3.4612
G01 X70.3736 Y3.4556
G01 X70.4069 Y3.4476
G01 X70.4408 Y3.4364
G01 X70.4785 Y3.4200
G01 X70.5146 Y3.4000
G01 X70.5457 Y3.3789
G01 X70.5713 Y3.3581
G01 X70.5971 Y3.3335
G01 X70.6113 Y3.3181
G01 X70.6247 Y3.3020
G01 X70.6409 Y3.2802
G01 X70.6524 Y3.2627
G01 X70.6631 Y3.2446
G01 X70.6791 Y3.2127
G01 X70.6895 Y3.1876
G01 X70.6965 Y3.1678
G01 X70.7024 Y3.1477
G01 X70.7102 Y3.1129
G01 X70.7134 Y3.0922
G01 X70.7156 Y3.0714
G01 X70.7171 Y3.0368
G01 X70.7168 Y0.6964
G01 X70.7144 Y0.6626
G01 X70.7088 Y0.6264
G01 X70.7007 Y0.5931
G01 X70.6895 Y0.5592
G01 X70.6732 Y0.5215
G01 X70.6600 Y0.4968
G01 X70.6409 Y0.4667
G01 X70.6247 Y0.4448
G01 X70.6113 Y0.4287
G01 X70.5920 Y0.4080
G01 X70.5713 Y0.3887
G01 X70.5552 Y0.3753
G01 X70.5333 Y0.3591
G01 X70.5158 Y0.3476
G01 X70.4978 Y0.3369
G01 X70.4785 Y0.3268
G01 X70.4500 Y0.3141
G01 X70.4269 Y0.3055
G01 X70.4069 Y0.2993
G01 X70.3866 Y0.2940
G01 X70.3599 Y0.2887
G01 X70.3392 Y0.2858
G01 X70.3183 Y0.2839
G01 X70.2900 Y0.2829
G01 X33.9090 Y0.2829
G01 X33.8503 Y0.2639
G01 X33.7887 Y0.2473
G01 X33.7339 Y0.2350
G01 X33.6780 Y0.2252
G01 X33.6001 Y0.2156
G01 X33.5364 Y0.2113
G01 X33.4800 Y0.2100
G01 X33.4236 Y0.2113
G01 X33.3599 Y0.2156
G01 X33.2820 Y0.2252
G01 X33.2261 Y0.2350
G01 X33.1713 Y0.2473
G01 X33.1097 Y0.2639
G01 X33.0510 Y0.2829
G01 X2.7100 Y0.2829
G01 X2.6726 Y0.2846
G01 X2.6415 Y0.2885
G01 X2.6134 Y0.2940
G01 X2.5790 Y0.3035
G01 X2.5525 Y0.3131
G01 X2.5152 Y0.3300
G01 X2.4854 Y0.3468
G01 X2.4568 Y0.3661
G01 X2.4287 Y0.3887
G01 X2.4133 Y0.4029
G01 X2.3986 Y0.4178
G01 X2.3743 Y0.4461
G01 X2.3509 Y0.4789
G01 X2.3345 Y0.5065
G01 X2.3183 Y0.5398
G01 X2.3055 Y0.5731
G01 X2.2999 Y0.5907
G01 X2.2940 Y0.6134
G01 X2.2898 Y0.6339
G01 X2.2866 Y0.6541
G01 X2.2839 Y0.6817
G01 X2.2829 Y0.7100
G01 X2.2829 Y10.4271
G01 X2.2565 Y10.4616
G01 X2.2201 Y10.5139
G01 X2.1938 Y10.5554
G01 X2.1620 Y10.6107
G01 X2.1267 Y10.6809
G01 X2.1026 Y10.7359
G01 X2.0835 Y10.7851
G01 X2.0589 Y10.8597
G01 X2.0422 Y10.9213
G01 X2.0300 Y10.9761
G01 X2.0202 Y11.0320
G01 X2.0121 Y11.0953
G01 X2.0064 Y11.1736
G00 Z1.0000
G00 X5.7053 Y13.2326
G01 F76.20
G01 Z-0.2000
G01 F170.00
G01 X5.7049 Y14.4480
G01 X5.7059 Y14.4763
G01 X5.7076 Y14.4954
G01 X5.7132 Y14.5316
G01 X5.7196 Y14.5589
G01 X5.7275 Y14.5849
G01 X5.7403 Y14.6182
G01 X5.7520 Y14.6428
G01 X5.7688 Y14.6726
G01 X5.7811 Y14.6913
G01 X5.7973 Y14.7132
G01 X5.8206 Y14.7402
G01 X5.8353 Y14.7551
G01 X5.8554 Y14.7734
G01 X5.8763 Y14.7901
G01 X5.9062 Y14.8104
G01 X5.9242 Y14.8211
G01 X5.9561 Y14.8371
G01 X5.9812 Y14.8475
G01 X6.0151 Y14.8587
G01 X6.0354 Y14.8640
G01 X6.0621 Y14.8693
G01 X6.0828 Y14.8722
G01 X6.1037 Y14.8741
G01 X6.1320 Y14.8751
G01 X6.2114 Y14.8750
G01 X6.2324 Y14.8741
G01 X6.2594 Y14.8714
G01 X6.2877 Y14.8668
G01 X6.3150 Y14.8604
G01 X6.3351 Y14.8545
G01 X6.3607 Y14.8453
G01 X6.3926 Y14.8312
G01 X6.4118 Y14.8211
G01 X6.4287 Y14.8112
G01 X6.4474 Y14.7989
G01 X6.4693 Y14.7827
G01 X6.4854 Y14.7693
G01 X6.5008 Y14.7551
G01 X6.5155 Y14.7402
G01 X6.5295 Y14.7246
G01 X6.5461 Y14.7037
G01 X6.5632 Y14.6791
G01 X6.5772 Y14.6558
G01 X6.5873 Y14.6365
G01 X6.6000 Y14.6080
G01 X6.6086 Y14.5849
G01 X6.6148 Y14.5649
G01 X6.6229 Y14.5313
G01 X6.6475 Y14.4080
G01 X6.7138 Y14.3088
G01 X6.8130 Y14.2425
G01 X6.9721 Y14.2108
G01 X9.1879 Y14.2108
G01 X9.3470 Y14.2425
G01 X9.4462 Y14.3088
G01 X9.5125 Y14.4080
G01 X9.5442 Y14.5671
G01 X9.5442 Y16.7829
G01 X9.5125 Y16.9420
G01 X9.4462 Y17.0412
G01 X9.3470 Y17.1075
G01 X9.1879 Y17.1392
G01 X9.1010 Y17.1392
G01 X9.0726 Y17.1401
G01 X9.0535 Y17.1418
G01 X9.0310 Y17.1450
G01 X9.0043 Y17.1503
G01 X8.9841 Y17.1555
G01 X8.9640 Y17.1617
G01 X8.9409 Y17.1703
G01 X8.9251 Y17.1771
G01 X8.9062 Y17.1862
G01 X8.8878 Y17.1962
G01 X8.8699 Y17.2071
G01 X8.8453 Y17.2242
G01 X8.8258 Y17.2397
G01 X8.8088 Y17.2548
G01 X8.7895 Y17.2740
G01 X8.7756 Y17.2897
G01 X8.7589 Y17.3106
G01 X8.7418 Y17.3352
G01 X8.7279 Y17.3585
G01 X8.7178 Y17.3778
G01 X8.7050 Y17.4062
G01 X8.6965 Y17.4293
G01 X8.6902 Y17.4493
G01 X8.6850 Y17.4696
G01 X8.6807 Y17.4902
G01 X8.6768 Y17.5171
G01 X8.6749 Y17.5379
G01 X8.6739 Y17.5662
G01 X8.6753 Y17.6008
G01 X8.6775 Y17.6216
G01 X8.6807 Y17.6423
G01 X8.6886 Y17.6771
G01 X8.6945 Y17.6972
G01 X8.7014 Y17.7170
G01 X8.7178 Y17.7547
G01 X8.7347 Y17.7859
G01 X8.7536 Y17.8147
G01 X8.7744 Y17.8414
G01 X8.7895 Y17.8584
G01 X8.8042 Y17.8734
G01 X8.8197 Y17.8876
G01 X8.8358 Y17.9010
G01 X8.8525 Y17.9136
G01 X8.8699 Y17.9253
G01 X8.8967 Y17.9412
G01 X9.3156 Y18.3601
G01 X9.3271 Y18.3791
G01 X9.3389 Y18.3964
G01 X9.3515 Y18.4132
G01 X9.3649 Y18.4293
G01 X9.3791 Y18.4447
G01 X9.3941 Y18.4594
G01 X9.4097 Y18.4734
G01 X9.4306 Y18.4901
G01 X9.4604 Y18.5104
G01 X9.4915 Y18.5280
G01 X9.5161 Y18.5397
G01 X9.5493 Y18.5525
G01 X9.5754 Y18.5604
G01 X9.6102 Y18.5682
G01 X9.6371 Y18.5722
G01 X9.6727 Y18.5748
G01 X12.1139 Y18.5751
G01 X12.1422 Y18.5741
G01 X12.1613 Y18.5724
G01 X12.1838 Y18.5693
G01 X12.2150 Y18.5633
G01 X12.4491 Y18.6099
G01 X12.6475 Y18.7425
G01 X12.6742 Y18.7806
G01 X12.6861 Y18.7955
G01 X12.7013 Y18.8125
G01 X12.7834 Y18.8950
G01 X12.8041 Y18.9143
G01 X12.8297 Y18.9351
G01 X12.8596 Y18.9554
G01 X12.8906 Y18.9730
G01 X12.9254 Y18.9889
G01 X12.9544 Y18.9995
G01 X12.9888 Y19.0090
G01 X13.0155 Y19.0143
G01 X13.0509 Y19.0186
G01 X13.0854 Y19.0201
G01 X13.2683 Y19.0201
G01 X13.5892 Y19.0839
G01 X13.9530 Y19.3270
G01 X14.1961 Y19.6908
G01 X14.2815 Y20.1200
G01 X14.1961 Y20.5492
G01 X13.9530 Y20.9130
G01 X13.5892 Y21.1561
G01 X13.2683 Y21.2199
G01 X13.0517 Y21.2199
G01 X12.7308 Y21.1561
G01 X12.3670 Y20.9130
G01 X12.1239 Y20.5492
G01 X12.0383 Y20.1187
G01 X12.0318 Y20.0911
G01 X12.0258 Y20.0710
G01 X12.0189 Y20.0512
G01 X12.0085 Y20.0261
G01 X11.9925 Y19.9942
G01 X11.9785 Y19.9709
G01 X11.9615 Y19.9463
G01 X11.9460 Y19.9268
G01 X11.9308 Y19.9098
G01 X11.9161 Y19.8949
G01 X11.8960 Y19.8766
G01 X11.8751 Y19.8599
G01 X11.8505 Y19.8429
G01 X11.8326 Y19.8320
G01 X11.8142 Y19.8220
G01 X11.7896 Y19.8103
G01 X11.7702 Y19.8025
G01 X11.7363 Y19.7913
G01 X11.7160 Y19.7860
G01 X11.6893 Y19.7807
G01 X11.6686 Y19.7778
G01 X11.6330 Y19.7752
G01 X9.6789 Y19.7750
G01 X9.6388 Y19.7776
G01 X9.6026 Y19.7832
G01 X9.5694 Y19.7913
G01 X9.5355 Y19.8025
G01 X9.5161 Y19.8103
G01 X9.4915 Y19.8220
G01 X9.4731 Y19.8320
G01 X9.4552 Y19.8429
G01 X9.4378 Y19.8547
G01 X9.4211 Y19.8673
G01 X9.4050 Y19.8807
G01 X9.3843 Y19.9000
G01 X9.3649 Y19.9207
G01 X9.3442 Y19.9463
G01 X9.3271 Y19.9709
G01 X9.3156 Y19.9899
G01 X8.9923 Y20.3132
G01 X8.9689 Y20.3386
G01 X8.9522 Y20.3595
G01 X8.9392 Y20.3779
G01 X8.8225 Y20.5525
G01 X8.6917 Y20.6399
G01 X8.6733 Y20.6530
G01 X8.6538 Y20.6684
G01 X8.6368 Y20.6836
G01 X8.6219 Y20.6983
G01 X8.6077 Y20.7137
G01 X8.5869 Y20.7393
G01 X8.5666 Y20.7692
G01 X8.5490 Y20.8002
G01 X8.5331 Y20.8350
G01 X8.5245 Y20.8581
G01 X8.5183 Y20.8781
G01 X8.5102 Y20.9114
G01 X8.5048 Y20.9458
G01 X8.5022 Y20.9814
G01 X8.5020 Y21.0024
G01 X8.5029 Y21.0233
G01 X8.5046 Y21.0424
G01 X8.5077 Y21.0649
G01 X8.5117 Y21.0855
G01 X8.5166 Y21.1059
G01 X8.5225 Y21.1260
G01 X8.5317 Y21.1516
G01 X8.5399 Y21.1709
G01 X8.5490 Y21.1898
G01 X8.5590 Y21.2082
G01 X8.5699 Y21.2261
G01 X8.5817 Y21.2434
G01 X8.5943 Y21.2602
G01 X8.6077 Y21.2763
G01 X8.6219 Y21.2917
G01 X8.6477 Y21.3163
G01 X8.6687 Y21.3336
G01 X8.6979 Y21.3541
G01 X8.7212 Y21.3681
G01 X8.7405 Y21.3782
G01 X8.7588 Y21.3867
G01 X8.9013 Y21.4458
G01 X9.3156 Y21.8601
G01 X9.3271 Y21.8791
G01 X9.3477 Y21.9083
G01 X9.3649 Y21.9293
G01 X9.3895 Y21.9551
G01 X9.4050 Y21.9693
G01 X9.4211 Y21.9827
G01 X9.4378 Y21.9953
G01 X9.4552 Y22.0071
G01 X9.4731 Y22.0180
G01 X9.4915 Y22.0280
G01 X9.5262 Y22.0439
G01 X9.5493 Y22.0525
G01 X9.5694 Y22.0587
G01 X9.6026 Y22.0668
G01 X9.6371 Y22.0722
G01 X9.6579 Y22.0741
G01 X9.6863 Y22.0751
G01 X11.8039 Y22.0751
G01 X11.8322 Y22.0741
G01 X11.8513 Y22.0724
G01 X11.8738 Y22.0693
G01 X11.9050 Y22.0633
G01 X12.1391 Y22.1099
G01 X12.3375 Y22.2425
G01 X12.3642 Y22.2806
G01 X12.3814 Y22.3016
G01 X12.3956 Y22.3170
G01 X12.7834 Y22.7050
G01 X12.8041 Y22.7243
G01 X12.8297 Y22.7451
G01 X12.8543 Y22.7621
G01 X12.8776 Y22.7761
G01 X12.9095 Y22.7921
G01 X12.9254 Y22.7989
G01 X12.9485 Y22.8075
G01 X12.9685 Y22.8137
G01 X12.9888 Y22.8190
G01 X13.0155 Y22.8243
G01 X13.0509 Y22.8286
G01 X13.0780 Y22.8300
G01 X13.2683 Y22.8301
G01 X13.5892 Y22.8939
G01 X13.9530 Y23.1370
G01 X14.1961 Y23.5008
G01 X14.2815 Y23.9300
G01 X14.1961 Y24.3592
G01 X13.9530 Y24.7230
G01 X13.5892 Y24.9661
G01 X13.2683 Y25.0299
G01 X13.0517 Y25.0299
G01 X12.7308 Y24.9661
G01 X12.3670 Y24.7230
G01 X12.1239 Y24.3592
G01 X12.0385 Y23.9300
G01 X12.0446 Y23.8920
G01 X12.0472 Y23.8564
G01 X12.0472 Y23.8292
G01 X12.0448 Y23.7954
G01 X12.0392 Y23.7592
G01 X12.0328 Y23.7319
G01 X12.0249 Y23.7059
G01 X12.0121 Y23.6726
G01 X12.0036 Y23.6543
G01 X11.9935 Y23.6351
G01 X11.9795 Y23.6117
G01 X11.9678 Y23.5944
G01 X11.9552 Y23.5776
G01 X11.9318 Y23.5506
G01 X11.7718 Y23.3906
G01 X11.7562 Y23.3766
G01 X11.7353 Y23.3599
G01 X11.7107 Y23.3429
G01 X11.6874 Y23.3289
G01 X11.6681 Y23.3188
G01 X11.6396 Y23.3061
G01 X11.6165 Y23.2975
G01 X11.5965 Y23.2913
G01 X11.5762 Y23.2860
G01 X11.5495 Y23.2807
G01 X11.5141 Y23.2764
G01 X11.4932 Y23.2752
G01 X9.6882 Y23.2752
G01 X9.6543 Y23.2776
G01 X9.6257 Y23.2818
G01 X9.6052 Y23.2860
G01 X9.5708 Y23.2955
G01 X9.5417 Y23.3061
G01 X9.5133 Y23.3188
G01 X9.4940 Y23.3289
G01 X9.4707 Y23.3429
G01 X9.4461 Y23.3599
G01 X9.4252 Y23.3766
G01 X9.3998 Y23.4000
G01 X9.3805 Y23.4207
G01 X9.3597 Y23.4463
G01 X9.3427 Y23.4709
G01 X9.3287 Y23.4942
G01 X9.3186 Y23.5135
G01 X9.3022 Y23.5512
G01 X9.2953 Y23.5710
G01 X9.2894 Y23.5911
G01 X9.2816 Y23.6259
G01 X9.2783 Y23.6466
G01 X9.2761 Y23.6675
G01 X9.2748 Y23.6946
G01 X9.2749 Y23.7156
G01 X9.2761 Y23.7365
G01 X9.2783 Y23.7574
G01 X9.2829 Y23.7853
G01 X9.3117 Y23.9300
G01 X9.2651 Y24.1641
G01 X9.1325 Y24.3625
G01 X9.0585 Y24.4127
G01 X9.0329 Y24.4334
G01 X9.0122 Y24.4528
G01 X8.9888 Y24.4782
G01 X8.9669 Y24.5063
G01 X8.9551 Y24.5237
G01 X8.9442 Y24.5416
G01 X8.9310 Y24.5663
G01 X8.9147 Y24.6040
G01 X8.9078 Y24.6238
G01 X8.9018 Y24.6439
G01 X8.8969 Y24.6642
G01 X8.8930 Y24.6848
G01 X8.8900 Y24.7056
G01 X8.8881 Y24.7264
G01 X8.8873 Y24.7474
G01 X8.8874 Y24.7683
G01 X8.8886 Y24.7893
G01 X8.8908 Y24.8101
G01 X8.8969 Y24.8453
G01 X8.9018 Y24.8656
G01 X8.9078 Y24.8857
G01 X8.9147 Y24.9055
G01 X8.9226 Y24.9249
G01 X8.9310 Y24.9432
G01 X8.9411 Y24.9625
G01 X8.9510 Y24.9794
G01 X8.9633 Y24.9981
G01 X8.9757 Y25.0150
G01 X8.9888 Y25.0313
G01 X9.0122 Y25.0567
G01 X9.3092 Y25.3537
G01 X9.5299 Y25.8866
G01 X9.5299 Y26.4834
G01 X9.5240 Y26.5205
G01 X9.5221 Y26.5414
G01 X9.5211 Y26.5697
G01 X9.5221 Y26.5980
G01 X9.5238 Y26.6171
G01 X9.5269 Y26.6396
G01 X9.5322 Y26.6663
G01 X9.5417 Y26.7007
G01 X9.5522 Y26.7297
G01 X9.5681 Y26.7645
G01 X9.5857 Y26.7955
G01 X9.5972 Y26.8130
G01 X9.6134 Y26.8349
G01 X9.6367 Y26.8619
G01 X9.6532 Y26.8784
G01 X9.7951 Y27.0909
G01 X9.8264 Y27.2479
G01 X9.8314 Y27.2683
G01 X9.8373 Y27.2884
G01 X9.8478 Y27.3174
G01 X9.8609 Y27.3466
G01 X9.8806 Y27.3820
G01 X9.8964 Y27.4058
G01 X9.9172 Y27.4325
G01 X9.9418 Y27.4594
G01 X11.4914 Y29.0090
G01 X11.5122 Y29.0284
G01 X11.5333 Y29.0457
G01 X11.5626 Y29.0663
G01 X11.5860 Y29.0803
G01 X11.6047 Y29.0901
G01 X11.6238 Y29.0989
G01 X11.6572 Y29.1117
G01 X11.6834 Y29.1196
G01 X11.7038 Y29.1245
G01 X11.7245 Y29.1284
G01 X11.7601 Y29.1327
G01 X11.7938 Y29.1341
G01 X11.8294 Y29.1325
G01 X11.8628 Y29.1284
G01 X11.8917 Y29.1226
G01 X11.9120 Y29.1172
G01 X11.9321 Y29.1109
G01 X11.9540 Y29.1027
G01 X11.9712 Y29.0953
G01 X12.0031 Y29.0790
G01 X12.0196 Y29.0692
G01 X12.0387 Y29.0565
G01 X12.0606 Y29.0400
G01 X12.0618 Y29.0713
G01 X12.0647 Y29.1105
G01 X12.0709 Y29.1641
G01 X12.0812 Y29.2249
G01 X12.0913 Y29.2701
G01 X12.1053 Y29.3222
G01 X12.1219 Y29.3736
G01 X12.1424 Y29.4276
G01 X12.1685 Y29.4862
G01 X12.1934 Y29.5350
G01 X12.2196 Y29.5806
G01 X12.2495 Y29.6272
G01 X12.2809 Y29.6711
G01 X12.3132 Y29.7121
G01 X12.3500 Y29.7541
G01 X12.3822 Y29.7878
G01 X12.4159 Y29.8200
G01 X12.4565 Y29.8556
G01 X12.5034 Y29.8926
G01 X12.5428 Y29.9205
G01 X12.5882 Y29.9496
G01 X12.6350 Y29.9766
G01 X12.6838 Y30.0015
G01 X12.7323 Y30.0234
G01 X12.7825 Y30.0431
G01 X12.8337 Y30.0604
G01 X12.8856 Y30.0752
G01 X12.9451 Y30.0888
G01 X12.9913 Y30.0969
G01 X13.0449 Y30.1039
G01 X13.0987 Y30.1082
G01 X13.1600 Y30.1100
G01 X13.2066 Y30.1089
G01 X13.2605 Y30.1053
G01 X13.3141 Y30.0991
G01 X13.3749 Y30.0888
G01 X13.4201 Y30.0787
G01 X13.4722 Y30.0647
G01 X13.5236 Y30.0481
G01 X13.5776 Y30.0276
G01 X13.6236 Y30.0075
G01 X13.6720 Y29.9835
G01 X13.7192 Y29.9572
G01 X13.7650 Y29.9286
G01 X13.8166 Y29.8926
G01 X13.8521 Y29.8649
G01 X13.8932 Y29.8299
G01 X13.9325 Y29.7930
G01 X13.9700 Y29.7541
G01 X13.9931 Y29.7279
G01 X13.9975 Y29.7591
G01 X14.0053 Y29.7939
G01 X14.0132 Y29.8199
G01 X14.0261 Y29.8532
G01 X14.0377 Y29.8778
G01 X14.0477 Y29.8962
G01 X14.0586 Y29.9141
G01 X14.0757 Y29.9387
G01 X14.0964 Y29.9643
G01 X14.1210 Y29.9901
G01 X14.1364 Y30.0043
G01 X14.1525 Y30.0177
G01 X14.1744 Y30.0339
G01 X14.2045 Y30.0530
G01 X14.2292 Y30.0662
G01 X14.2611 Y30.0803
