(G-CODE GENERATED BY FLATCAM v8.93 - www.flatcam.org - Version Date: 2019/08/10)

(Name: main_board_front)
(Type: G-code from Geometry)
(Units: MM)

(Created on Monday, 11 November 2019 at 18:26)

(TOOL DIAMETER: 0.6 mm)
(Feedrate: 120.0 mm/min)
(Feedrate_Z: 76.2 mm/min)
(Feedrate rapids 76.2 mm/min)

(Z_Cut: -0.2836 mm)
(Z_Move: 1.0 mm)
(Z Toolchange: 12.7 mm)
(X,Y Toolchange: 0.0000, 0.0000 mm)
(Z Start: None mm)
(Z End: 12.7 mm)
(Steps per circle: 128)
(Postprocessor Geometry: default)

(X range:   -6.6740 ...  106.0222  mm)
(Y range:  -12.0172 ...   82.0365  mm)

(Spindle Speed: 12000 RPM)

G21
G90
G94

G01 F120.00
G00 Z1.0000

M03 S12000
G00 X0.7100 Y3.8800
G01 F76.20
G01 Z-0.2836
G01 F120.00
G01 X0.7100 Y6.2800
G01 X6.9100 Y6.2800
G01 X6.9100 Y3.8800
G01 X0.7100 Y3.8800
G00 Z1.0000
G00 X-0.0485 Y5.0678
G01 F76.20
G01 Z-0.2836
G01 F120.00
G01 X-0.0452 Y5.0586
G01 X-0.0416 Y5.0522
G01 X-0.0371 Y5.0464
G01 X-0.0317 Y5.0413
G01 X-0.0236 Y5.0359
G01 X-0.0169 Y5.0329
G01 X-0.0098 Y5.0309
G01 X-0.0025 Y5.0300
G01 X0.6100 Y5.0300
G01 X0.6100 Y3.8275
G01 X0.6109 Y3.8202
G01 X0.6129 Y3.8131
G01 X0.6159 Y3.8064
G01 X0.6213 Y3.7983
G01 X0.6283 Y3.7913
G01 X0.6343 Y3.7871
G01 X0.6431 Y3.7829
G01 X0.6502 Y3.7809
G01 X0.6600 Y3.7800
G01 X6.9600 Y3.7800
G01 X6.9698 Y3.7809
G01 X6.9791 Y3.7838
G01 X6.9878 Y3.7884
G01 X6.9954 Y3.7946
G01 X7.0016 Y3.8022
G01 X7.0052 Y3.8086
G01 X7.0085 Y3.8178
G01 X7.0100 Y3.8275
G01 X7.0100 Y5.0300
G01 X7.6249 Y5.0302
G01 X7.6322 Y5.0315
G01 X7.6414 Y5.0348
G01 X7.6498 Y5.0398
G01 X7.6571 Y5.0464
G01 X7.6629 Y5.0543
G01 X7.6671 Y5.0631
G01 X7.6691 Y5.0702
G01 X7.6700 Y5.0800
G01 X7.6691 Y5.0898
G01 X7.6671 Y5.0969
G01 X7.6629 Y5.1057
G01 X7.6571 Y5.1136
G01 X7.6498 Y5.1202
G01 X7.6414 Y5.1252
G01 X7.6322 Y5.1285
G01 X7.6249 Y5.1298
G01 X7.0100 Y5.1300
G01 X7.0100 Y6.3325
G01 X7.0091 Y6.3398
G01 X7.0071 Y6.3469
G01 X7.0041 Y6.3536
G01 X6.9987 Y6.3617
G01 X6.9917 Y6.3687
G01 X6.9857 Y6.3729
G01 X6.9769 Y6.3771
G01 X6.9698 Y6.3791
G01 X6.9600 Y6.3800
G01 X0.6600 Y6.3800
G01 X0.6502 Y6.3791
G01 X0.6409 Y6.3762
G01 X0.6322 Y6.3716
G01 X0.6246 Y6.3654
G01 X0.6184 Y6.3578
G01 X0.6148 Y6.3514
G01 X0.6115 Y6.3422
G01 X0.6100 Y6.3325
G01 X0.6100 Y5.1300
G01 X-0.0049 Y5.1298
G01 X-0.0145 Y5.1279
G01 X-0.0257 Y5.1229
G01 X-0.0354 Y5.1154
G01 X-0.0416 Y5.1078
G01 X-0.0462 Y5.0991
G01 X-0.0491 Y5.0898
G01 X-0.0500 Y5.0800
G01 X-0.0485 Y5.0678
G00 Z1.0000
G00 X4.0229 Y6.9670
G01 F76.20
G01 Z-0.2836
G01 F120.00
G01 X4.0279 Y6.9532
G01 X4.0333 Y6.9436
G01 X4.0401 Y6.9348
G01 X4.0481 Y6.9272
G01 X4.0571 Y6.9209
G01 X4.0704 Y6.9146
G01 X4.0811 Y6.9116
G01 X4.0957 Y6.9102
G01 X5.2423 Y6.9103
G01 X5.2532 Y6.9116
G01 X5.2673 Y6.9159
G01 X5.2771 Y6.9209
G01 X5.2862 Y6.9272
G01 X5.2942 Y6.9348
G01 X5.3010 Y6.9436
G01 X5.3064 Y6.9532
G01 X5.3104 Y6.9635
G01 X5.3132 Y6.9779
G01 X5.3135 Y6.9889
G01 X5.3128 Y6.9962
G01 X5.3104 Y7.0070
G01 X5.3079 Y7.0140
G01 X5.3010 Y7.0269
G01 X5.2916 Y7.0383
G01 X5.2803 Y7.0476
G01 X5.2673 Y7.0546
G01 X5.2604 Y7.0570
G01 X5.2496 Y7.0595
G01 X5.2386 Y7.0603
G01 X4.7422 Y7.0603
G01 X4.7421 Y8.9889
G01 X4.7407 Y8.9999
G01 X4.7365 Y9.0140
G01 X4.7315 Y9.0238
G01 X4.7251 Y9.0329
G01 X4.7175 Y9.0409
G01 X4.7088 Y9.0476
G01 X4.6992 Y9.0531
G01 X4.6889 Y9.0571
G01 X4.6781 Y9.0595
G01 X4.6708 Y9.0602
G01 X4.6597 Y9.0599
G01 X4.6489 Y9.0580
G01 X4.6384 Y9.0545
G01 X4.6285 Y9.0496
G01 X4.6195 Y9.0432
G01 X4.6115 Y9.0356
G01 X4.6047 Y9.0269
G01 X4.4184 Y8.7473
G01 X4.2417 Y8.5707
G01 X4.0622 Y8.4809
G01 X4.0527 Y8.4753
G01 X4.0415 Y8.4657
G01 X4.0345 Y8.4572
G01 X4.0305 Y8.4510
G01 X4.0258 Y8.4410
G01 X4.0234 Y8.4340
G01 X4.0218 Y8.4268
G01 X4.0207 Y8.4159
G01 X4.0217 Y8.4012
G01 X4.0256 Y8.3870
G01 X4.0322 Y8.3738
G01 X4.0388 Y8.3650
G01 X4.0438 Y8.3596
G01 X4.0554 Y8.3505
G01 X4.0618 Y8.3469
G01 X4.0720 Y8.3426
G01 X4.0863 Y8.3394
G01 X4.1010 Y8.3390
G01 X4.1155 Y8.3414
G01 X4.1293 Y8.3467
G01 X4.3228 Y8.4435
G01 X4.3315 Y8.4492
G01 X4.3392 Y8.4560
G01 X4.5323 Y8.6491
G01 X4.5391 Y8.6579
G01 X4.5921 Y8.7374
G01 X4.5921 Y7.0603
G01 X4.0957 Y7.0603
G01 X4.0847 Y7.0595
G01 X4.0739 Y7.0570
G01 X4.0670 Y7.0546
G01 X4.0540 Y7.0476
G01 X4.0427 Y7.0383
G01 X4.0333 Y7.0269
G01 X4.0264 Y7.0140
G01 X4.0221 Y6.9999
G01 X4.0210 Y6.9926
G01 X4.0208 Y6.9816
G01 X4.0229 Y6.9670
G00 Z1.0000
G00 X2.4016 Y8.9852
G01 F76.20
G01 Z-0.2836
G01 F120.00
G01 X2.4017 Y6.9816
G01 X2.4039 Y6.9670
G01 X2.4088 Y6.9532
G01 X2.4164 Y6.9405
G01 X2.4263 Y6.9296
G01 X2.4381 Y6.9209
G01 X2.4514 Y6.9146
G01 X2.4657 Y6.9110
G01 X2.4803 Y6.9103
G01 X2.4949 Y6.9125
G01 X2.5087 Y6.9174
G01 X2.5184 Y6.9228
G01 X2.5297 Y6.9322
G01 X2.5391 Y6.9436
G01 X2.5445 Y6.9532
G01 X2.5495 Y6.9670
G01 X2.5516 Y6.9816
G01 X2.5517 Y7.9578
G01 X3.1507 Y7.9582
G01 X3.1616 Y7.9601
G01 X3.1754 Y7.9650
G01 X3.1880 Y7.9726
G01 X3.1989 Y7.9825
G01 X3.2077 Y7.9943
G01 X3.2127 Y8.0041
G01 X3.2169 Y8.0182
G01 X3.2183 Y8.0292
G01 X3.2176 Y8.0439
G01 X3.2140 Y8.0581
G01 X3.2077 Y8.0714
G01 X3.1989 Y8.0833
G01 X3.1880 Y8.0931
G01 X3.1754 Y8.1007
G01 X3.1616 Y8.1056
G01 X3.1507 Y8.1075
G01 X2.5517 Y8.1079
G01 X2.5517 Y8.9102
G01 X3.4364 Y8.9106
G01 X3.4473 Y8.9125
G01 X3.4611 Y8.9174
G01 X3.4737 Y8.9250
G01 X3.4846 Y8.9348
G01 X3.4934 Y8.9467
G01 X3.4997 Y8.9600
G01 X3.5033 Y8.9742
G01 X3.5040 Y8.9889
G01 X3.5018 Y9.0035
G01 X3.4969 Y9.0173
G01 X3.4914 Y9.0269
G01 X3.4821 Y9.0383
G01 X3.4707 Y9.0476
G01 X3.4611 Y9.0531
G01 X3.4473 Y9.0580
G01 X3.4327 Y9.0602
G01 X2.4767 Y9.0603
G01 X2.4620 Y9.0588
G01 X2.4480 Y9.0546
G01 X2.4350 Y9.0476
G01 X2.4236 Y9.0383
G01 X2.4143 Y9.0269
G01 X2.4073 Y9.0140
G01 X2.4031 Y8.9999
G01 X2.4016 Y8.9852
G00 Z1.0000
G00 X2.2791 Y11.3368
G01 F76.20
G01 Z-0.2836
G01 F120.00
G01 X2.2772 Y11.3259
G01 X2.2769 Y11.3186
G01 X2.2773 Y10.2632
G01 X2.2793 Y10.2518
G01 X2.2848 Y10.2374
G01 X2.3800 Y10.0469
G01 X2.3857 Y10.0374
G01 X2.3928 Y10.0287
G01 X2.3982 Y10.0236
G01 X2.4071 Y10.0170
G01 X2.4136 Y10.0134
G01 X2.6041 Y9.9181
G01 X2.6148 Y9.9138
G01 X2.6261 Y9.9111
G01 X2.6376 Y9.9102
G01 X2.9233 Y9.9102
G01 X2.9387 Y9.9118
G01 X2.9498 Y9.9150
G01 X2.9569 Y9.9181
G01 X3.1340 Y10.0067
G01 X3.1344 Y9.9779
G01 X3.1355 Y9.9706
G01 X3.1384 Y9.9600
G01 X3.1429 Y9.9499
G01 X3.1488 Y9.9405
G01 X3.1560 Y9.9322
G01 X3.1643 Y9.9250
G01 X3.1770 Y9.9174
G01 X3.1873 Y9.9134
G01 X3.1980 Y9.9110
G01 X3.2090 Y9.9102
G01 X3.2201 Y9.9110
G01 X3.2308 Y9.9134
G01 X3.2411 Y9.9174
G01 X3.2507 Y9.9228
G01 X3.2594 Y9.9296
G01 X3.2646 Y9.9348
G01 X3.2714 Y9.9436
G01 X3.2752 Y9.9499
G01 X3.2784 Y9.9565
G01 X3.2818 Y9.9670
G01 X3.2837 Y9.9779
G01 X3.2841 Y9.9852
G01 X3.2841 Y11.3186
G01 X3.2833 Y11.3296
G01 X3.2809 Y11.3404
G01 X3.2769 Y11.3507
G01 X3.2714 Y11.3603
G01 X3.2646 Y11.3690
G01 X3.2567 Y11.3766
G01 X3.2476 Y11.3829
G01 X3.2378 Y11.3879
G01 X3.2273 Y11.3914
G01 X3.2164 Y11.3932
G01 X3.2017 Y11.3932
G01 X3.1908 Y11.3914
G01 X3.1803 Y11.3879
G01 X3.1705 Y11.3829
G01 X3.1614 Y11.3766
G01 X3.1534 Y11.3690
G01 X3.1467 Y11.3603
G01 X3.1412 Y11.3507
G01 X3.1363 Y11.3368
G01 X3.1344 Y11.3259
G01 X3.1340 Y10.2068
G01 X3.0694 Y10.1421
G01 X2.9056 Y10.0603
G01 X2.6553 Y10.0603
G01 X2.5031 Y10.1364
G01 X2.4269 Y10.2887
G01 X2.4269 Y11.3186
G01 X2.4261 Y11.3296
G01 X2.4237 Y11.3404
G01 X2.4181 Y11.3539
G01 X2.4099 Y11.3662
G01 X2.4023 Y11.3742
G01 X2.3905 Y11.3829
G01 X2.3806 Y11.3879
G01 X2.3665 Y11.3922
G01 X2.3556 Y11.3935
G01 X2.3445 Y11.3932
G01 X2.3301 Y11.3904
G01 X2.3198 Y11.3864
G01 X2.3072 Y11.3788
G01 X2.2963 Y11.3690
G01 X2.2895 Y11.3603
G01 X2.2841 Y11.3507
G01 X2.2791 Y11.3368
G00 Z1.0000
G00 X3.9936 Y10.9185
G01 F76.20
G01 Z-0.2836
G01 F120.00
G01 X3.9991 Y10.9041
G01 X4.0961 Y10.7103
G01 X4.1046 Y10.6982
G01 X4.1097 Y10.6928
G01 X4.1183 Y10.6857
G01 X4.1279 Y10.6800
G01 X4.3183 Y10.5848
G01 X4.3254 Y10.5817
G01 X4.3366 Y10.5785
G01 X4.3519 Y10.5769
G01 X4.6199 Y10.5769
G01 X4.7722 Y10.5007
G01 X4.8483 Y10.3485
G01 X4.8483 Y10.2887
G01 X4.7722 Y10.1364
G01 X4.6199 Y10.0603
G01 X4.2744 Y10.0603
G01 X4.0964 Y10.1492
G01 X4.0895 Y10.1518
G01 X4.0788 Y10.1544
G01 X4.0678 Y10.1555
G01 X4.0605 Y10.1553
G01 X4.0532 Y10.1544
G01 X4.0425 Y10.1517
G01 X4.0323 Y10.1474
G01 X4.0228 Y10.1417
G01 X4.0143 Y10.1347
G01 X4.0069 Y10.1265
G01 X4.0008 Y10.1173
G01 X3.9961 Y10.1073
G01 X3.9929 Y10.0967
G01 X3.9913 Y10.0858
G01 X3.9914 Y10.0748
G01 X3.9930 Y10.0638
G01 X3.9963 Y10.0533
G01 X4.0010 Y10.0433
G01 X4.0050 Y10.0371
G01 X4.0120 Y10.0286
G01 X4.0202 Y10.0212
G01 X4.0326 Y10.0134
G01 X4.2231 Y9.9181
G01 X4.2376 Y9.9127
G01 X4.2489 Y9.9106
G01 X4.2567 Y9.9102
G01 X4.6376 Y9.9102
G01 X4.6530 Y9.9118
G01 X4.6641 Y9.9150
G01 X4.6712 Y9.9181
G01 X4.8617 Y10.0134
G01 X4.8712 Y10.0191
G01 X4.8798 Y10.0261
G01 X4.8873 Y10.0344
G01 X4.8952 Y10.0469
G01 X4.9904 Y10.2374
G01 X4.9959 Y10.2518
G01 X4.9980 Y10.2632
G01 X4.9984 Y10.2710
G01 X4.9983 Y10.3701
G01 X4.9968 Y10.3815
G01 X4.9948 Y10.3890
G01 X4.9904 Y10.3997
G01 X4.8952 Y10.5902
G01 X4.8873 Y10.6028
G01 X4.8771 Y10.6135
G01 X4.8649 Y10.6220
G01 X4.6712 Y10.7190
G01 X4.6604 Y10.7234
G01 X4.6492 Y10.7260
G01 X4.6376 Y10.7269
G01 X4.3696 Y10.7269
G01 X4.2174 Y10.8031
G01 X4.1412 Y10.9553
G01 X4.1412 Y11.0151
G01 X4.2174 Y11.1674
G01 X4.3696 Y11.2435
G01 X4.6199 Y11.2435
G01 X4.7979 Y11.1547
G01 X4.8047 Y11.1520
G01 X4.8155 Y11.1494
G01 X4.8265 Y11.1483
G01 X4.8338 Y11.1485
G01 X4.8411 Y11.1494
G01 X4.8518 Y11.1521
G01 X4.8620 Y11.1564
G01 X4.8715 Y11.1621
G01 X4.8800 Y11.1691
G01 X4.8874 Y11.1773
G01 X4.8935 Y11.1865
G01 X4.8982 Y11.1965
G01 X4.9014 Y11.2071
G01 X4.9029 Y11.2180
G01 X4.9029 Y11.2291
G01 X4.9013 Y11.2400
G01 X4.8980 Y11.2505
G01 X4.8933 Y11.2605
G01 X4.8893 Y11.2667
G01 X4.8823 Y11.2752
G01 X4.8741 Y11.2826
G01 X4.8617 Y11.2904
G01 X4.6712 Y11.3857
G01 X4.6641 Y11.3888
G01 X4.6530 Y11.3920
G01 X4.6376 Y11.3936
G01 X4.3519 Y11.3936
G01 X4.3366 Y11.3920
G01 X4.3254 Y11.3888
G01 X4.1246 Y11.2887
G01 X4.1153 Y11.2825
G01 X4.1097 Y11.2777
G01 X4.1000 Y11.2665
G01 X4.0943 Y11.2569
G01 X3.9991 Y11.0664
G01 X3.9947 Y11.0557
G01 X3.9920 Y11.0444
G01 X3.9912 Y11.0329
G01 X3.9912 Y10.9376
G01 X3.9916 Y10.9299
G01 X3.9936 Y10.9185
G00 Z1.0000
G00 X5.6127 Y10.2518
G01 F76.20
G01 Z-0.2836
G01 F120.00
G01 X5.6181 Y10.2374
G01 X5.7134 Y10.0469
G01 X5.7213 Y10.0344
G01 X5.7287 Y10.0261
G01 X5.7374 Y10.0191
G01 X5.7469 Y10.0134
G01 X5.9374 Y9.9181
G01 X5.9445 Y9.9150
G01 X5.9556 Y9.9118
G01 X5.9710 Y9.9102
G01 X6.3519 Y9.9102
G01 X6.3635 Y9.9111
G01 X6.3747 Y9.9138
G01 X6.3855 Y9.9181
G01 X6.5759 Y10.0134
G01 X6.5884 Y10.0212
G01 X6.5966 Y10.0286
G01 X6.6036 Y10.0371
G01 X6.6076 Y10.0433
G01 X6.6123 Y10.0533
G01 X6.6155 Y10.0638
G01 X6.6172 Y10.0748
G01 X6.6172 Y10.0858
G01 X6.6156 Y10.0967
G01 X6.6125 Y10.1073
G01 X6.6078 Y10.1173
G01 X6.6017 Y10.1265
G01 X6.5943 Y10.1347
G01 X6.5858 Y10.1417
G01 X6.5763 Y10.1474
G01 X6.5661 Y10.1517
G01 X6.5554 Y10.1544
G01 X6.5481 Y10.1553
G01 X6.5407 Y10.1555
G01 X6.5297 Y10.1544
G01 X6.5190 Y10.1518
G01 X6.5122 Y10.1492
G01 X6.3342 Y10.0603
G01 X5.9887 Y10.0603
G01 X5.8364 Y10.1364
G01 X5.7603 Y10.2887
G01 X5.7603 Y10.5904
G01 X6.6523 Y10.7688
G01 X6.6630 Y10.7718
G01 X6.6762 Y10.7780
G01 X6.6880 Y10.7868
G01 X6.6956 Y10.7948
G01 X6.7020 Y10.8038
G01 X6.7070 Y10.8137
G01 X6.7104 Y10.8242
G01 X6.7126 Y10.8387
G01 X6.7127 Y11.0329
G01 X6.7111 Y11.0482
G01 X6.7078 Y11.0593
G01 X6.7047 Y11.0664
G01 X6.6095 Y11.2569
G01 X6.6016 Y11.2694
G01 X6.5941 Y11.2777
G01 X6.5855 Y11.2847
G01 X6.5759 Y11.2904
G01 X6.3855 Y11.3857
G01 X6.3784 Y11.3888
G01 X6.3673 Y11.3920
G01 X6.3519 Y11.3936
G01 X5.9710 Y11.3936
G01 X5.9632 Y11.3932
G01 X5.9518 Y11.3911
G01 X5.9374 Y11.3857
G01 X5.7469 Y11.2904
G01 X5.7344 Y11.2825
G01 X5.7261 Y11.2751
G01 X5.7191 Y11.2665
G01 X5.7134 Y11.2569
G01 X5.6181 Y11.0664
G01 X5.6127 Y11.0520
G01 X5.6106 Y11.0406
G01 X5.6102 Y10.2710
G01 X5.6106 Y10.2632
G01 X5.6127 Y10.2518
G00 Z1.0000
G00 X5.7603 Y10.7434
G01 F76.20
G01 Z-0.2836
G01 F120.00
G01 X5.7603 Y11.0151
G01 X5.8364 Y11.1674
G01 X5.9887 Y11.2435
G01 X6.3342 Y11.2435
G01 X6.4865 Y11.1674
G01 X6.5626 Y11.0151
G01 X6.5626 Y10.9039
G01 X5.7603 Y10.7434
G00 Z1.0000
G00 X0.5626 Y11.9852
G01 F76.20
G01 Z-0.2836
G01 F120.00
G01 X0.5627 Y9.9816
G01 X0.5648 Y9.9670
G01 X0.5698 Y9.9532
G01 X0.5773 Y9.9405
G01 X0.5872 Y9.9296
G01 X0.5990 Y9.9209
G01 X0.6123 Y9.9146
G01 X0.6266 Y9.9110
G01 X0.6413 Y9.9103
G01 X0.6559 Y9.9125
G01 X0.6697 Y9.9174
G01 X0.6793 Y9.9228
G01 X0.6907 Y9.9322
G01 X0.7000 Y9.9436
G01 X0.7055 Y9.9532
G01 X0.7104 Y9.9670
G01 X0.7126 Y9.9816
G01 X0.7127 Y10.9578
G01 X1.3116 Y10.9582
G01 X1.3225 Y10.9601
G01 X1.3364 Y10.9650
G01 X1.3490 Y10.9726
G01 X1.3599 Y10.9825
G01 X1.3686 Y10.9943
G01 X1.3736 Y11.0041
G01 X1.3779 Y11.0182
G01 X1.3792 Y11.0292
G01 X1.3785 Y11.0439
G01 X1.3749 Y11.0581
G01 X1.3686 Y11.0714
G01 X1.3599 Y11.0833
G01 X1.3490 Y11.0931
G01 X1.3364 Y11.1007
G01 X1.3225 Y11.1056
G01 X1.3116 Y11.1075
G01 X0.7127 Y11.1079
G01 X0.7127 Y11.9102
G01 X1.5974 Y11.9106
G01 X1.6082 Y11.9125
G01 X1.6221 Y11.9174
G01 X1.6347 Y11.9250
G01 X1.6456 Y11.9348
G01 X1.6544 Y11.9467
G01 X1.6607 Y11.9600
G01 X1.6642 Y11.9742
G01 X1.6649 Y11.9889
G01 X1.6628 Y12.0035
G01 X1.6578 Y12.0173
G01 X1.6524 Y12.0269
G01 X1.6431 Y12.0383
G01 X1.6317 Y12.0476
G01 X1.6221 Y12.0531
G01 X1.6082 Y12.0580
G01 X1.5937 Y12.0602
G01 X0.6376 Y12.0603
G01 X0.6230 Y12.0588
G01 X0.6089 Y12.0546
G01 X0.5959 Y12.0476
G01 X0.5846 Y12.0383
G01 X0.5752 Y12.0269
G01 X0.5683 Y12.0140
G01 X0.5640 Y11.9999
G01 X0.5626 Y11.9852
G00 Z1.0000
G00 X14.4529 Y2.0694
G01 F76.20
G01 Z-0.2836
G01 F120.00
G01 X14.4564 Y2.0589
G01 X14.4595 Y2.0522
G01 X14.4633 Y2.0459
G01 X14.4701 Y2.0372
G01 X14.4781 Y2.0296
G01 X14.4871 Y2.0233
G01 X14.4970 Y2.0183
G01 X14.5039 Y2.0158
G01 X14.5147 Y2.0134
G01 X14.5257 Y2.0126
G01 X14.6244 Y2.0127
G01 X14.6414 Y2.0154
G01 X14.7875 Y2.0641
G01 X14.7982 Y2.0686
G01 X14.8049 Y2.0724
G01 X14.8169 Y2.0822
G01 X14.9121 Y2.1774
G01 X14.9218 Y2.1894
G01 X14.9274 Y2.1996
G01 X14.9779 Y2.3496
G01 X14.9804 Y2.3596
G01 X14.9817 Y2.3733
G01 X14.9816 Y3.0913
G01 X14.9803 Y3.1023
G01 X14.9785 Y3.1094
G01 X14.9745 Y3.1197
G01 X14.9691 Y3.1293
G01 X14.9623 Y3.1380
G01 X14.9571 Y3.1432
G01 X14.9484 Y3.1500
G01 X14.9387 Y3.1555
G01 X14.9284 Y3.1594
G01 X14.9213 Y3.1612
G01 X14.9140 Y3.1623
G01 X14.9030 Y3.1626
G01 X14.8920 Y3.1612
G01 X14.8849 Y3.1594
G01 X14.8713 Y3.1538
G01 X14.8650 Y3.1500
G01 X14.8563 Y3.1432
G01 X14.8511 Y3.1380
G01 X14.8443 Y3.1293
G01 X14.8373 Y3.1163
G01 X14.8349 Y3.1094
G01 X14.8324 Y3.0986
G01 X14.8316 Y3.0876
G01 X14.8316 Y2.3855
G01 X14.7935 Y2.2710
G01 X14.7233 Y2.2008
G01 X14.6088 Y2.1627
G01 X14.5184 Y2.1623
G01 X14.5039 Y2.1594
G01 X14.4970 Y2.1569
G01 X14.4871 Y2.1520
G01 X14.4781 Y2.1456
G01 X14.4701 Y2.1380
G01 X14.4614 Y2.1262
G01 X14.4564 Y2.1163
G01 X14.4529 Y2.1059
G01 X14.4510 Y2.0950
G01 X14.4510 Y2.0803
G01 X14.4529 Y2.0694
G00 Z1.0000
G00 X15.2627 Y2.4016
G01 F76.20
G01 Z-0.2836
G01 F120.00
G01 X15.2663 Y2.3913
G01 X15.2713 Y2.3816
G01 X15.2801 Y2.3700
G01 X15.2881 Y2.3626
G01 X15.2971 Y2.3564
G01 X15.3068 Y2.3515
G01 X15.3172 Y2.3481
G01 X15.3280 Y2.3463
G01 X15.7364 Y2.3459
G01 X15.7365 Y2.0839
G01 X15.7386 Y2.0694
G01 X15.7436 Y2.0555
G01 X15.7490 Y2.0459
G01 X15.7558 Y2.0372
G01 X15.7610 Y2.0320
G01 X15.7697 Y2.0252
G01 X15.7793 Y2.0198
G01 X15.7896 Y2.0158
G01 X15.7968 Y2.0140
G01 X15.8077 Y2.0127
G01 X15.8188 Y2.0129
G01 X15.8261 Y2.0140
G01 X15.8367 Y2.0170
G01 X15.8468 Y2.0214
G01 X15.8531 Y2.0252
G01 X15.8618 Y2.0320
G01 X15.8694 Y2.0400
G01 X15.8758 Y2.0490
G01 X15.8808 Y2.0589
G01 X15.8832 Y2.0658
G01 X15.8850 Y2.0730
G01 X15.8864 Y2.0839
G01 X15.8865 Y2.3459
G01 X15.9616 Y2.3463
G01 X15.9761 Y2.3491
G01 X15.9897 Y2.3548
G01 X15.9960 Y2.3586
G01 X16.0047 Y2.3654
G01 X16.0123 Y2.3733
G01 X16.0186 Y2.3824
G01 X16.0236 Y2.3922
G01 X16.0271 Y2.4027
G01 X16.0290 Y2.4136
G01 X16.0293 Y2.4210
G01 X16.0290 Y2.4283
G01 X16.0271 Y2.4392
G01 X16.0236 Y2.4497
G01 X16.0186 Y2.4595
G01 X16.0123 Y2.4686
G01 X16.0047 Y2.4766
G01 X15.9960 Y2.4833
G01 X15.9897 Y2.4871
G01 X15.9761 Y2.4928
G01 X15.9616 Y2.4956
G01 X15.8865 Y2.4960
G01 X15.8864 Y2.7580
G01 X15.8842 Y2.7725
G01 X15.8793 Y2.7864
G01 X15.8738 Y2.7960
G01 X15.8645 Y2.8073
G01 X15.8590 Y2.8123
G01 X15.8500 Y2.8186
G01 X15.8401 Y2.8236
G01 X15.8332 Y2.8261
G01 X15.8261 Y2.8279
G01 X15.8151 Y2.8292
G01 X15.8041 Y2.8290
G01 X15.7968 Y2.8279
G01 X15.7896 Y2.8261
G01 X15.7793 Y2.8221
G01 X15.7697 Y2.8167
G01 X15.7638 Y2.8123
G01 X15.7558 Y2.8047
G01 X15.7512 Y2.7990
G01 X15.7471 Y2.7929
G01 X15.7421 Y2.7830
G01 X15.7378 Y2.7689
G01 X15.7364 Y2.7543
G01 X15.7364 Y2.4960
G01 X15.4393 Y2.4960
G01 X15.6465 Y3.1186
G01 X15.6482 Y3.1295
G01 X15.6478 Y3.1442
G01 X15.6446 Y3.1586
G01 X15.6404 Y3.1688
G01 X15.6326 Y3.1812
G01 X15.6252 Y3.1894
G01 X15.6136 Y3.1985
G01 X15.6039 Y3.2038
G01 X15.5900 Y3.2084
G01 X15.5754 Y3.2102
G01 X15.5607 Y3.2092
G01 X15.5465 Y3.2053
G01 X15.5334 Y3.1987
G01 X15.5217 Y3.1897
G01 X15.5121 Y3.1786
G01 X15.5048 Y3.1658
G01 X15.2641 Y2.4447
G01 X15.2614 Y2.4341
G01 X15.2602 Y2.4232
G01 X15.2607 Y2.4123
G01 X15.2627 Y2.4016
G00 Z1.0000
G00 X14.9529 Y-2.5918
G01 F76.20
G01 Z-0.2836
G01 F120.00
G01 X14.9515 Y-2.5990
G01 X14.9507 Y-2.6100
G01 X14.9515 Y-2.6210
G01 X14.9529 Y-2.6282
G01 X14.9564 Y-2.6387
G01 X14.9595 Y-2.6454
G01 X14.9654 Y-2.6547
G01 X14.9701 Y-2.6604
G01 X15.1210 Y-2.8109
G01 X15.1300 Y-2.8172
G01 X15.1399 Y-2.8222
G01 X15.1539 Y-2.8265
G01 X15.1649 Y-2.8278
G01 X15.1759 Y-2.8275
G01 X15.1832 Y-2.8265
G01 X15.1973 Y-2.8222
G01 X15.2103 Y-2.8152
G01 X15.2216 Y-2.8059
G01 X15.3694 Y-2.6576
G01 X15.3758 Y-2.6486
G01 X15.3808 Y-2.6387
G01 X15.3850 Y-2.6246
G01 X15.3864 Y-2.6137
G01 X15.3857 Y-2.5990
G01 X15.3821 Y-2.5847
G01 X15.3758 Y-2.5714
G01 X15.3694 Y-2.5624
G01 X15.3645 Y-2.5569
G01 X15.2162 Y-2.4091
G01 X15.2071 Y-2.4028
G01 X15.1973 Y-2.3978
G01 X15.1868 Y-2.3944
G01 X15.1723 Y-2.3922
G01 X15.1576 Y-2.3929
G01 X15.1433 Y-2.3965
G01 X15.1300 Y-2.4028
G01 X15.1182 Y-2.4115
G01 X14.9701 Y-2.5596
G01 X14.9654 Y-2.5653
G01 X14.9595 Y-2.5746
G01 X14.9551 Y-2.5847
G01 X14.9529 Y-2.5918
G00 Z1.0000
G00 X15.0935 Y-3.4671
G01 F76.20
G01 Z-0.2836
G01 F120.00
G01 X15.0936 Y-5.4708
G01 X15.0958 Y-5.4854
G01 X15.1007 Y-5.4992
G01 X15.1083 Y-5.5118
G01 X15.1182 Y-5.5227
G01 X15.1300 Y-5.5315
G01 X15.1433 Y-5.5378
G01 X15.1576 Y-5.5414
G01 X15.1723 Y-5.5421
G01 X15.1868 Y-5.5399
G01 X15.2007 Y-5.5350
G01 X15.2103 Y-5.5295
G01 X15.2216 Y-5.5202
G01 X15.2310 Y-5.5088
G01 X15.2364 Y-5.4992
G01 X15.2414 Y-5.4854
G01 X15.2435 Y-5.4708
G01 X15.2435 Y-3.4635
G01 X15.2414 Y-3.4489
G01 X15.2364 Y-3.4351
G01 X15.2288 Y-3.4224
G01 X15.2190 Y-3.4115
G01 X15.2071 Y-3.4028
G01 X15.1939 Y-3.3965
G01 X15.1796 Y-3.3929
G01 X15.1649 Y-3.3922
G01 X15.1503 Y-3.3944
G01 X15.1365 Y-3.3993
G01 X15.1239 Y-3.4069
G01 X15.1130 Y-3.4167
G01 X15.1042 Y-3.4286
G01 X15.0992 Y-3.4384
G01 X15.0950 Y-3.4525
G01 X15.0935 Y-3.4671
G00 Z1.0000
G00 X16.5221 Y-3.4671
G01 F76.20
G01 Z-0.2836
G01 F120.00
G01 X16.5221 Y-5.4671
G01 X16.5229 Y-5.4782
G01 X16.5253 Y-5.4889
G01 X16.5293 Y-5.4992
G01 X16.5348 Y-5.5088
G01 X16.5415 Y-5.5175
G01 X16.5495 Y-5.5251
G01 X16.5586 Y-5.5315
G01 X16.5684 Y-5.5365
G01 X16.5789 Y-5.5399
G01 X16.5898 Y-5.5418
G01 X16.6045 Y-5.5418
G01 X16.6154 Y-5.5399
G01 X16.6259 Y-5.5365
G01 X16.6357 Y-5.5315
G01 X16.6447 Y-5.5251
G01 X16.6527 Y-5.5175
G01 X16.6595 Y-5.5088
G01 X16.6650 Y-5.4992
G01 X16.6699 Y-5.4854
G01 X16.6718 Y-5.4745
G01 X16.6722 Y-3.7839
G01 X16.7844 Y-3.6717
G01 X17.0434 Y-3.5422
G01 X17.4366 Y-3.5422
G01 X17.6841 Y-3.6659
G01 X17.8078 Y-3.9134
G01 X17.8079 Y-5.4708
G01 X17.8093 Y-5.4818
G01 X17.8111 Y-5.4889
G01 X17.8150 Y-5.4992
G01 X17.8205 Y-5.5088
G01 X17.8273 Y-5.5175
G01 X17.8325 Y-5.5227
G01 X17.8412 Y-5.5295
G01 X17.8508 Y-5.5350
G01 X17.8611 Y-5.5389
G01 X17.8682 Y-5.5407
G01 X17.8792 Y-5.5421
G01 X17.8902 Y-5.5418
G01 X17.8975 Y-5.5407
G01 X17.9081 Y-5.5378
G01 X17.9149 Y-5.5350
G01 X17.9245 Y-5.5295
G01 X17.9332 Y-5.5227
G01 X17.9385 Y-5.5175
G01 X17.9452 Y-5.5088
G01 X17.9490 Y-5.5025
G01 X17.9522 Y-5.4959
G01 X17.9556 Y-5.4854
G01 X17.9575 Y-5.4745
G01 X17.9579 Y-5.4671
G01 X17.9578 Y-3.8919
G01 X17.9554 Y-3.8766
G01 X17.9500 Y-3.8622
G01 X17.8071 Y-3.5764
G01 X17.8014 Y-3.5669
G01 X17.7968 Y-3.5610
G01 X17.7890 Y-3.5532
G01 X17.7800 Y-3.5465
G01 X17.7736 Y-3.5429
G01 X17.4878 Y-3.4000
G01 X17.4734 Y-3.3946
G01 X17.4620 Y-3.3925
G01 X17.0257 Y-3.3921
G01 X17.0104 Y-3.3937
G01 X17.0029 Y-3.3957
G01 X16.9922 Y-3.4000
G01 X16.7064 Y-3.5429
G01 X16.6920 Y-3.5523
G01 X16.6722 Y-3.5717
G01 X16.6722 Y-3.4671
G01 X16.6707 Y-3.4525
G01 X16.6665 Y-3.4384
G01 X16.6595 Y-3.4255
G01 X16.6502 Y-3.4141
G01 X16.6388 Y-3.4048
G01 X16.6292 Y-3.3993
G01 X16.6189 Y-3.3953
G01 X16.6118 Y-3.3935
G01 X16.6008 Y-3.3922
G01 X16.5898 Y-3.3925
G01 X16.5825 Y-3.3935
G01 X16.5719 Y-3.3965
G01 X16.5618 Y-3.4010
G01 X16.5555 Y-3.4048
G01 X16.5467 Y-3.4115
G01 X16.5391 Y-3.4195
G01 X16.5328 Y-3.4286
G01 X16.5278 Y-3.4384
G01 X16.5244 Y-3.4489
G01 X16.5225 Y-3.4598
G01 X16.5221 Y-3.4671
G00 Z1.0000
G00 X12.0962 Y-2.4473
G01 F76.20
G01 Z-0.2836
G01 F120.00
G01 X12.0941 Y-2.4582
G01 X12.0936 Y-2.4692
G01 X12.0947 Y-2.4802
G01 X12.0974 Y-2.4909
G01 X13.0974 Y-5.4909
G01 X13.1034 Y-5.5043
G01 X13.1118 Y-5.5163
G01 X13.1225 Y-5.5264
G01 X13.1349 Y-5.5342
G01 X13.1486 Y-5.5395
G01 X13.1631 Y-5.5420
G01 X13.1777 Y-5.5416
G01 X13.1921 Y-5.5384
G01 X13.2055 Y-5.5325
G01 X13.2147 Y-5.5264
G01 X13.2202 Y-5.5216
G01 X13.2276 Y-5.5134
G01 X13.2319 Y-5.5074
G01 X13.2355 Y-5.5010
G01 X13.2398 Y-5.4909
G01 X14.2398 Y-2.4909
G01 X14.2425 Y-2.4802
G01 X14.2436 Y-2.4655
G01 X14.2425 Y-2.4545
G01 X14.2399 Y-2.4438
G01 X14.2357 Y-2.4336
G01 X14.2279 Y-2.4211
G01 X14.2205 Y-2.4129
G01 X14.2119 Y-2.4059
G01 X14.2025 Y-2.4002
G01 X14.1923 Y-2.3960
G01 X14.1816 Y-2.3932
G01 X14.1706 Y-2.3921
G01 X14.1596 Y-2.3926
G01 X14.1488 Y-2.3948
G01 X14.1383 Y-2.3985
G01 X14.1286 Y-2.4036
G01 X14.1197 Y-2.4102
G01 X14.1095 Y-2.4208
G01 X14.1034 Y-2.4300
G01 X14.0986 Y-2.4399
G01 X13.1686 Y-5.2299
G01 X12.2385 Y-2.4399
G01 X12.2338 Y-2.4300
G01 X12.2276 Y-2.4208
G01 X12.2174 Y-2.4102
G01 X12.2085 Y-2.4036
G01 X12.1988 Y-2.3985
G01 X12.1884 Y-2.3948
G01 X12.1776 Y-2.3926
G01 X12.1665 Y-2.3921
G01 X12.1555 Y-2.3932
G01 X12.1448 Y-2.3960
G01 X12.1314 Y-2.4020
G01 X12.1222 Y-2.4081
G01 X12.1116 Y-2.4183
G01 X12.1051 Y-2.4272
G01 X12.0999 Y-2.4369
G01 X12.0962 Y-2.4473
G00 Z1.0000
G00 X6.3748 Y-5.4473
G01 F76.20
G01 Z-0.2836
G01 F120.00
G01 X6.3726 Y-5.4582
G01 X6.3721 Y-5.4692
G01 X6.3732 Y-5.4802
G01 X6.3760 Y-5.4909
G01 X7.3760 Y-8.4909
G01 X7.3819 Y-8.5043
G01 X7.3904 Y-8.5163
G01 X7.4011 Y-8.5264
G01 X7.4135 Y-8.5342
G01 X7.4272 Y-8.5395
G01 X7.4416 Y-8.5420
G01 X7.4563 Y-8.5416
G01 X7.4706 Y-8.5384
G01 X7.4841 Y-8.5325
G01 X7.4932 Y-8.5264
G01 X7.4988 Y-8.5216
G01 X7.5062 Y-8.5134
G01 X7.5105 Y-8.5074
G01 X7.5141 Y-8.5010
G01 X7.5183 Y-8.4909
G01 X8.5183 Y-5.4909
G01 X8.5210 Y-5.4802
G01 X8.5222 Y-5.4655
G01 X8.5211 Y-5.4545
G01 X8.5185 Y-5.4438
G01 X8.5143 Y-5.4336
G01 X8.5064 Y-5.4211
G01 X8.4990 Y-5.4129
G01 X8.4905 Y-5.4059
G01 X8.4811 Y-5.4002
G01 X8.4709 Y-5.3960
G01 X8.4602 Y-5.3932
G01 X8.4492 Y-5.3921
G01 X8.4382 Y-5.3926
G01 X8.4273 Y-5.3948
G01 X8.4169 Y-5.3985
G01 X8.4072 Y-5.4036
G01 X8.3983 Y-5.4102
G01 X8.3881 Y-5.4208
G01 X8.3820 Y-5.4300
G01 X8.3772 Y-5.4399
G01 X7.4471 Y-8.2299
G01 X6.5171 Y-5.4399
G01 X6.5123 Y-5.4300
G01 X6.5062 Y-5.4208
G01 X6.4960 Y-5.4102
G01 X6.4871 Y-5.4036
G01 X6.4774 Y-5.3985
G01 X6.4670 Y-5.3948
G01 X6.4561 Y-5.3926
G01 X6.4451 Y-5.3921
G01 X6.4341 Y-5.3932
G01 X6.4234 Y-5.3960
G01 X6.4100 Y-5.4020
G01 X6.4008 Y-5.4081
G01 X6.3902 Y-5.4183
G01 X6.3836 Y-5.4272
G01 X6.3785 Y-5.4369
G01 X6.3748 Y-5.4473
G00 Z1.0000
G00 X3.8029 Y-6.9139
G01 F76.20
G01 Z-0.2836
G01 F120.00
G01 X3.8078 Y-6.9277
G01 X3.8113 Y-6.9342
G01 X3.8177 Y-6.9433
G01 X3.8281 Y-6.9537
G01 X3.8403 Y-6.9619
G01 X3.8539 Y-6.9675
G01 X3.8610 Y-6.9693
G01 X3.8720 Y-6.9707
G01 X3.8794 Y-6.9707
G01 X3.8903 Y-6.9693
G01 X3.9044 Y-6.9650
G01 X3.9174 Y-6.9581
G01 X3.9261 Y-6.9513
G01 X4.0630 Y-6.8145
G01 X4.3220 Y-6.6850
G01 X5.0009 Y-6.6850
G01 X5.2598 Y-6.8145
G01 X5.3855 Y-6.9402
G01 X5.5150 Y-7.1991
G01 X5.5150 Y-7.8780
G01 X5.3855 Y-8.1370
G01 X5.2598 Y-8.2626
G01 X5.0009 Y-8.3921
G01 X4.3220 Y-8.3921
G01 X4.0630 Y-8.2626
G01 X3.9261 Y-8.1258
G01 X3.9143 Y-8.1171
G01 X3.9044 Y-8.1121
G01 X3.8975 Y-8.1096
G01 X3.8867 Y-8.1072
G01 X3.8794 Y-8.1065
G01 X3.8684 Y-8.1068
G01 X3.8611 Y-8.1078
G01 X3.8504 Y-8.1108
G01 X3.8436 Y-8.1136
G01 X3.8340 Y-8.1190
G01 X3.8253 Y-8.1258
G01 X3.8201 Y-8.1310
G01 X3.8133 Y-8.1397
G01 X3.8079 Y-8.1493
G01 X3.8039 Y-8.1596
G01 X3.8021 Y-8.1668
G01 X3.8010 Y-8.1741
G01 X3.8008 Y-8.1851
G01 X3.8021 Y-8.1961
G01 X3.8064 Y-8.2101
G01 X3.8114 Y-8.2200
G01 X3.8201 Y-8.2318
G01 X3.9655 Y-8.3773
G01 X3.9761 Y-8.3862
G01 X3.9850 Y-8.3914
G01 X4.2707 Y-8.5343
G01 X4.2852 Y-8.5397
G01 X4.2966 Y-8.5418
G01 X5.0186 Y-8.5422
G01 X5.0301 Y-8.5413
G01 X5.0414 Y-8.5386
G01 X5.0521 Y-8.5343
G01 X5.3378 Y-8.3914
G01 X5.3467 Y-8.3862
G01 X5.3549 Y-8.3797
G01 X5.5002 Y-8.2345
G01 X5.5109 Y-8.2210
G01 X5.6571 Y-7.9293
G01 X5.6615 Y-7.9185
G01 X5.6646 Y-7.9034
G01 X5.6650 Y-7.1814
G01 X5.6641 Y-7.1699
G01 X5.6615 Y-7.1586
G01 X5.6571 Y-7.1479
G01 X5.5143 Y-6.8622
G01 X5.5048 Y-6.8477
G01 X5.3573 Y-6.6998
G01 X5.3439 Y-6.6891
G01 X5.0521 Y-6.5429
G01 X5.0377 Y-6.5374
G01 X5.0263 Y-6.5354
G01 X4.3043 Y-6.5350
G01 X4.2927 Y-6.5359
G01 X4.2815 Y-6.5385
G01 X4.2707 Y-6.5429
G01 X3.9850 Y-6.6857
G01 X3.9712 Y-6.6947
G01 X4.0865 Y-5.5422
G01 X5.4545 Y-5.5418
G01 X5.4654 Y-5.5399
G01 X5.4759 Y-5.5365
G01 X5.4857 Y-5.5315
G01 X5.4918 Y-5.5274
G01 X5.4975 Y-5.5227
G01 X5.5051 Y-5.5147
G01 X5.5115 Y-5.5057
G01 X5.5165 Y-5.4959
G01 X5.5199 Y-5.4854
G01 X5.5218 Y-5.4745
G01 X5.5221 Y-5.4635
G01 X5.5214 Y-5.4561
G01 X5.5189 Y-5.4454
G01 X5.5150 Y-5.4351
G01 X5.5095 Y-5.4255
G01 X5.5027 Y-5.4167
G01 X5.4918 Y-5.4069
G01 X5.4792 Y-5.3993
G01 X5.4689 Y-5.3953
G01 X5.4618 Y-5.3935
G01 X5.4471 Y-5.3921
G01 X4.0186 Y-5.3921
G01 X4.0039 Y-5.3935
G01 X3.9899 Y-5.3978
G01 X3.9800 Y-5.4028
G01 X3.9682 Y-5.4115
G01 X3.9583 Y-5.4224
G01 X3.9508 Y-5.4350
G01 X3.9458 Y-5.4488
G01 X3.9439 Y-5.4597
G01 X3.8010 Y-6.8882
G01 X3.8010 Y-6.9030
G01 X3.8029 Y-6.9139
G00 Z1.0000
G00 X-1.4850 Y-5.4671
G01 F76.20
G01 Z-0.2836
G01 F120.00
G01 X-1.4850 Y-8.4671
G01 X-1.4847 Y-8.4745
G01 X-1.4828 Y-8.4854
G01 X-1.4793 Y-8.4959
G01 X-1.4744 Y-8.5057
G01 X-1.4680 Y-8.5147
G01 X-1.4604 Y-8.5227
G01 X-1.4486 Y-8.5315
G01 X-1.4387 Y-8.5365
G01 X-1.4282 Y-8.5399
G01 X-1.4174 Y-8.5418
G01 X-1.4026 Y-8.5418
G01 X-1.3918 Y-8.5399
G01 X-1.3779 Y-8.5350
G01 X-1.3683 Y-8.5295
G01 X-1.3596 Y-8.5227
G01 X-1.3520 Y-8.5147
G01 X-1.3456 Y-8.5057
G01 X-1.3407 Y-8.4959
G01 X-1.3364 Y-8.4818
G01 X-1.3351 Y-8.4708
G01 X-1.3350 Y-5.7497
G01 X0.2391 Y-8.5044
G01 X0.2477 Y-8.5165
G01 X0.2585 Y-8.5266
G01 X0.2711 Y-8.5344
G01 X0.2850 Y-8.5397
G01 X0.2996 Y-8.5420
G01 X0.3144 Y-8.5415
G01 X0.3289 Y-8.5380
G01 X0.3423 Y-8.5318
G01 X0.3485 Y-8.5277
G01 X0.3570 Y-8.5205
G01 X0.3620 Y-8.5151
G01 X0.3685 Y-8.5060
G01 X0.3735 Y-8.4961
G01 X0.3760 Y-8.4891
G01 X0.3785 Y-8.4782
G01 X0.3793 Y-8.4671
G01 X0.3793 Y-5.4671
G01 X0.3790 Y-5.4598
G01 X0.3771 Y-5.4489
G01 X0.3736 Y-5.4384
G01 X0.3686 Y-5.4286
G01 X0.3623 Y-5.4195
G01 X0.3547 Y-5.4115
G01 X0.3429 Y-5.4028
G01 X0.3330 Y-5.3978
G01 X0.3225 Y-5.3944
G01 X0.3116 Y-5.3925
G01 X0.2969 Y-5.3925
G01 X0.2861 Y-5.3944
G01 X0.2722 Y-5.3993
G01 X0.2626 Y-5.4048
G01 X0.2539 Y-5.4115
G01 X0.2463 Y-5.4195
G01 X0.2399 Y-5.4286
G01 X0.2350 Y-5.4384
G01 X0.2307 Y-5.4525
G01 X0.2293 Y-5.4635
G01 X0.2292 Y-8.1846
G01 X-1.3468 Y-5.4267
G01 X-1.3534 Y-5.4178
G01 X-1.3614 Y-5.4100
G01 X-1.3703 Y-5.4034
G01 X-1.3836 Y-5.3969
G01 X-1.3943 Y-5.3938
G01 X-1.4091 Y-5.3921
G01 X-1.4202 Y-5.3928
G01 X-1.4310 Y-5.3951
G01 X-1.4415 Y-5.3990
G01 X-1.4512 Y-5.4044
G01 X-1.4600 Y-5.4112
G01 X-1.4700 Y-5.4221
G01 X-1.4760 Y-5.4315
G01 X-1.4806 Y-5.4417
G01 X-1.4836 Y-5.4524
G01 X-1.4850 Y-5.4671
G00 Z1.0000
G00 X-2.9136 Y-5.4671
G01 F76.20
G01 Z-0.2836
G01 F120.00
G01 X-2.9135 Y-8.4708
G01 X-2.9114 Y-8.4854
G01 X-2.9064 Y-8.4992
G01 X-2.8988 Y-8.5118
G01 X-2.8890 Y-8.5227
G01 X-2.8771 Y-8.5315
G01 X-2.8639 Y-8.5378
G01 X-2.8496 Y-8.5414
G01 X-2.8349 Y-8.5421
G01 X-2.8203 Y-8.5399
G01 X-2.8065 Y-8.5350
G01 X-2.7939 Y-8.5274
G01 X-2.7830 Y-8.5175
G01 X-2.7742 Y-8.5057
G01 X-2.7692 Y-8.4959
G01 X-2.7650 Y-8.4818
G01 X-2.7635 Y-8.4671
G01 X-2.7636 Y-5.4635
G01 X-2.7658 Y-5.4489
G01 X-2.7707 Y-5.4351
G01 X-2.7783 Y-5.4224
G01 X-2.7882 Y-5.4115
G01 X-2.8000 Y-5.4028
G01 X-2.8133 Y-5.3965
G01 X-2.8276 Y-5.3929
G01 X-2.8423 Y-5.3922
G01 X-2.8568 Y-5.3944
G01 X-2.8707 Y-5.3993
G01 X-2.8833 Y-5.4069
G01 X-2.8942 Y-5.4167
G01 X-2.9029 Y-5.4286
G01 X-2.9079 Y-5.4384
G01 X-2.9122 Y-5.4525
G01 X-2.9136 Y-5.4671
G00 Z1.0000
G00 X3.3744 Y36.5146
G01 F76.20
G01 Z-0.2836
G01 F120.00
G01 X3.3778 Y36.5041
G01 X3.3828 Y36.4943
G01 X3.3891 Y36.4853
G01 X3.3967 Y36.4773
G01 X3.4055 Y36.4705
G01 X3.4151 Y36.4650
G01 X3.4254 Y36.4611
G01 X3.4361 Y36.4586
G01 X3.4471 Y36.4578
G01 X3.7397 Y36.4581
G01 X3.7566 Y36.4617
G01 X4.1888 Y36.6058
G01 X4.2025 Y36.6129
G01 X4.2145 Y36.6227
G01 X4.5002 Y36.9084
G01 X4.5099 Y36.9203
G01 X4.5170 Y36.9341
G01 X4.6612 Y37.3663
G01 X4.6638 Y37.3763
G01 X4.6650 Y37.3866
G01 X4.6650 Y39.5329
G01 X4.6642 Y39.5439
G01 X4.6618 Y39.5546
G01 X4.6578 Y39.5649
G01 X4.6524 Y39.5745
G01 X4.6456 Y39.5833
G01 X4.6376 Y39.5909
G01 X4.6286 Y39.5972
G01 X4.6187 Y39.6022
G01 X4.6118 Y39.6047
G01 X4.6010 Y39.6071
G01 X4.5937 Y39.6078
G01 X4.5826 Y39.6075
G01 X4.5682 Y39.6047
G01 X4.5613 Y39.6022
G01 X4.5514 Y39.5972
G01 X4.5396 Y39.5885
G01 X4.5344 Y39.5833
G01 X4.5276 Y39.5745
G01 X4.5222 Y39.5649
G01 X4.5193 Y39.5581
G01 X4.5164 Y39.5475
G01 X4.5153 Y39.5402
G01 X4.5150 Y37.4022
G01 X4.3816 Y37.0020
G01 X4.1209 Y36.7413
G01 X3.7207 Y36.6079
G01 X3.4471 Y36.6079
G01 X3.4361 Y36.6071
G01 X3.4254 Y36.6047
G01 X3.4118 Y36.5990
G01 X3.3995 Y36.5909
G01 X3.3915 Y36.5833
G01 X3.3828 Y36.5714
G01 X3.3765 Y36.5581
G01 X3.3729 Y36.5439
G01 X3.3722 Y36.5292
G01 X3.3744 Y36.5146
G00 Z1.0000
G00 X5.8029 Y38.0861
G01 F76.20
G01 Z-0.2836
G01 F120.00
G01 X5.8078 Y38.0723
G01 X5.8113 Y38.0658
G01 X5.8177 Y38.0567
G01 X5.8281 Y38.0463
G01 X5.8403 Y38.0381
G01 X5.8539 Y38.0325
G01 X5.8610 Y38.0307
G01 X5.8720 Y38.0293
G01 X5.8794 Y38.0293
G01 X5.8903 Y38.0307
G01 X5.9044 Y38.0350
G01 X5.9174 Y38.0419
G01 X5.9261 Y38.0487
G01 X6.0630 Y38.1855
G01 X6.3220 Y38.3150
G01 X7.0009 Y38.3150
G01 X7.2598 Y38.1855
G01 X7.3855 Y38.0598
G01 X7.5150 Y37.8009
G01 X7.5150 Y37.1220
G01 X7.3855 Y36.8630
G01 X7.2598 Y36.7374
G01 X7.0009 Y36.6079
G01 X6.3220 Y36.6079
G01 X6.0630 Y36.7374
G01 X5.9261 Y36.8742
G01 X5.9143 Y36.8829
G01 X5.9044 Y36.8879
G01 X5.8975 Y36.8904
G01 X5.8867 Y36.8928
G01 X5.8794 Y36.8935
G01 X5.8684 Y36.8932
G01 X5.8611 Y36.8922
G01 X5.8504 Y36.8892
G01 X5.8436 Y36.8864
G01 X5.8340 Y36.8810
G01 X5.8253 Y36.8742
G01 X5.8201 Y36.8690
G01 X5.8133 Y36.8603
G01 X5.8079 Y36.8507
G01 X5.8039 Y36.8404
G01 X5.8021 Y36.8332
G01 X5.8010 Y36.8259
G01 X5.8008 Y36.8149
G01 X5.8021 Y36.8039
G01 X5.8064 Y36.7899
G01 X5.8114 Y36.7800
G01 X5.8201 Y36.7682
G01 X5.9655 Y36.6227
G01 X5.9761 Y36.6138
G01 X5.9850 Y36.6086
G01 X6.2707 Y36.4657
G01 X6.2852 Y36.4603
G01 X6.2966 Y36.4582
G01 X7.0186 Y36.4578
G01 X7.0301 Y36.4587
G01 X7.0414 Y36.4614
G01 X7.0521 Y36.4657
G01 X7.3378 Y36.6086
G01 X7.3467 Y36.6138
G01 X7.3549 Y36.6203
G01 X7.5002 Y36.7655
G01 X7.5109 Y36.7790
G01 X7.6571 Y37.0707
G01 X7.6615 Y37.0815
G01 X7.6646 Y37.0966
G01 X7.6650 Y37.8186
G01 X7.6641 Y37.8301
G01 X7.6615 Y37.8414
G01 X7.6571 Y37.8521
G01 X7.5143 Y38.1378
G01 X7.5048 Y38.1523
G01 X7.3573 Y38.3002
G01 X7.3439 Y38.3109
G01 X7.0521 Y38.4571
G01 X7.0377 Y38.4626
G01 X7.0263 Y38.4646
G01 X6.3043 Y38.4650
G01 X6.2927 Y38.4641
G01 X6.2815 Y38.4615
G01 X6.2707 Y38.4571
G01 X5.9850 Y38.3143
G01 X5.9712 Y38.3053
G01 X6.0865 Y39.4578
G01 X7.4545 Y39.4582
G01 X7.4654 Y39.4601
G01 X7.4759 Y39.4635
G01 X7.4857 Y39.4685
G01 X7.4918 Y39.4726
G01 X7.4975 Y39.4773
G01 X7.5051 Y39.4853
G01 X7.5115 Y39.4943
G01 X7.5165 Y39.5041
G01 X7.5199 Y39.5146
G01 X7.5218 Y39.5255
G01 X7.5221 Y39.5365
G01 X7.5214 Y39.5439
G01 X7.5189 Y39.5546
G01 X7.5150 Y39.5649
G01 X7.5095 Y39.5745
G01 X7.5027 Y39.5833
G01 X7.4918 Y39.5931
G01 X7.4792 Y39.6007
G01 X7.4689 Y39.6047
G01 X7.4618 Y39.6065
G01 X7.4471 Y39.6079
G01 X6.0186 Y39.6079
G01 X6.0039 Y39.6065
G01 X5.9899 Y39.6022
G01 X5.9800 Y39.5972
G01 X5.9682 Y39.5885
G01 X5.9583 Y39.5776
G01 X5.9508 Y39.5650
G01 X5.9458 Y39.5512
G01 X5.9439 Y39.5403
G01 X5.8010 Y38.1118
G01 X5.8010 Y38.0970
G01 X5.8029 Y38.0861
G00 Z1.0000
G00 X4.3748 Y42.9654
G01 F76.20
G01 Z-0.2836
G01 F120.00
G01 X4.3785 Y42.9550
G01 X4.3836 Y42.9453
G01 X4.3902 Y42.9364
G01 X4.3980 Y42.9286
G01 X4.4068 Y42.9220
G01 X4.4165 Y42.9167
G01 X4.4269 Y42.9130
G01 X4.4378 Y42.9108
G01 X4.4488 Y42.9102
G01 X4.4598 Y42.9113
G01 X4.4705 Y42.9139
G01 X4.4807 Y42.9181
G01 X4.4871 Y42.9217
G01 X4.4960 Y42.9283
G01 X4.5038 Y42.9361
G01 X4.5104 Y42.9449
G01 X4.5157 Y42.9546
G01 X4.5183 Y42.9615
G01 X4.6917 Y43.4816
G01 X5.5359 Y43.4816
G01 X5.7093 Y42.9615
G01 X5.7153 Y42.9481
G01 X5.7214 Y42.9389
G01 X5.7289 Y42.9308
G01 X5.7374 Y42.9238
G01 X5.7437 Y42.9199
G01 X5.7537 Y42.9152
G01 X5.7642 Y42.9120
G01 X5.7752 Y42.9104
G01 X5.7862 Y42.9104
G01 X5.7971 Y42.9121
G01 X5.8042 Y42.9141
G01 X5.8144 Y42.9183
G01 X5.8238 Y42.9240
G01 X5.8324 Y42.9310
G01 X5.8398 Y42.9392
G01 X5.8459 Y42.9484
G01 X5.8506 Y42.9584
G01 X5.8544 Y42.9726
G01 X5.8555 Y42.9836
G01 X5.8549 Y42.9946
G01 X5.8517 Y43.0090
G01 X5.1850 Y45.0090
G01 X5.1823 Y45.0158
G01 X5.1771 Y45.0255
G01 X5.1681 Y45.0371
G01 X5.1599 Y45.0445
G01 X5.1539 Y45.0487
G01 X5.1408 Y45.0553
G01 X5.1266 Y45.0592
G01 X5.1120 Y45.0603
G01 X5.0974 Y45.0585
G01 X5.0835 Y45.0539
G01 X5.0707 Y45.0466
G01 X5.0596 Y45.0371
G01 X5.0505 Y45.0255
G01 X5.0439 Y45.0124
G01 X4.3760 Y43.0090
G01 X4.3732 Y42.9983
G01 X4.3721 Y42.9873
G01 X4.3726 Y42.9763
G01 X4.3748 Y42.9654
G00 Z1.0000
G00 X5.4859 Y43.6317
G01 F76.20
G01 Z-0.2836
G01 F120.00
G01 X4.7417 Y43.6317
G01 X5.1138 Y44.7479
G01 X5.4859 Y43.6317
G01 X5.4859 Y43.6317
G00 Z1.0000
G00 X6.3721 Y44.3186
G01 F76.20
G01 Z-0.2836
G01 F120.00
G01 X6.3722 Y42.9816
G01 X6.3744 Y42.9670
G01 X6.3793 Y42.9532
G01 X6.3869 Y42.9405
G01 X6.3967 Y42.9296
G01 X6.4086 Y42.9209
G01 X6.4219 Y42.9146
G01 X6.4361 Y42.9110
G01 X6.4508 Y42.9103
G01 X6.4654 Y42.9125
G01 X6.4792 Y42.9174
G01 X6.4888 Y42.9228
G01 X6.5002 Y42.9322
G01 X6.5095 Y42.9436
G01 X6.5150 Y42.9532
G01 X6.5199 Y42.9670
G01 X6.5221 Y42.9816
G01 X6.5222 Y43.9199
G01 X6.6040 Y44.0836
G01 X6.6821 Y44.1617
G01 X6.8458 Y44.2435
G01 X7.0223 Y44.2436
G01 X7.0332 Y44.2450
G01 X7.0473 Y44.2492
G01 X7.0571 Y44.2542
G01 X7.0662 Y44.2606
G01 X7.0742 Y44.2682
G01 X7.0810 Y44.2769
G01 X7.0864 Y44.2865
G01 X7.0914 Y44.3003
G01 X7.0932 Y44.3112
G01 X7.0935 Y44.3223
G01 X7.0922 Y44.3332
G01 X7.0879 Y44.3473
G01 X7.0829 Y44.3571
G01 X7.0766 Y44.3662
G01 X7.0690 Y44.3742
G01 X7.0603 Y44.3810
G01 X7.0507 Y44.3864
G01 X7.0368 Y44.3914
G01 X7.0259 Y44.3932
G01 X7.0186 Y44.3936
G01 X6.8281 Y44.3936
G01 X6.8127 Y44.3920
G01 X6.8016 Y44.3888
G01 X6.7945 Y44.3857
G01 X6.5980 Y44.2871
G01 X6.5846 Y44.2764
G01 X6.5222 Y44.2140
G01 X6.5222 Y44.3186
G01 X6.5207 Y44.3332
G01 X6.5165 Y44.3473
G01 X6.5095 Y44.3603
G01 X6.5002 Y44.3716
G01 X6.4888 Y44.3810
G01 X6.4792 Y44.3864
G01 X6.4689 Y44.3904
G01 X6.4618 Y44.3922
G01 X6.4508 Y44.3935
G01 X6.4398 Y44.3932
G01 X6.4325 Y44.3922
G01 X6.4219 Y44.3892
G01 X6.4118 Y44.3847
G01 X6.4055 Y44.3810
G01 X6.3967 Y44.3742
G01 X6.3891 Y44.3662
G01 X6.3828 Y44.3571
G01 X6.3778 Y44.3473
G01 X6.3744 Y44.3368
G01 X6.3725 Y44.3259
G01 X6.3721 Y44.3186
G00 Z1.0000
G00 X7.5174 Y43.3471
G01 F76.20
G01 Z-0.2836
G01 F120.00
G01 X7.5229 Y43.3326
G01 X7.6181 Y43.1422
G01 X7.6234 Y43.1333
G01 X7.6322 Y43.1227
G01 X7.7274 Y43.0274
G01 X7.7380 Y43.0186
G01 X7.7469 Y43.0134
G01 X7.9445 Y42.9150
G01 X7.9556 Y42.9118
G01 X7.9710 Y42.9102
G01 X8.3596 Y42.9106
G01 X8.3710 Y42.9127
G01 X8.3820 Y42.9165
G01 X8.4714 Y42.9611
G01 X8.4762 Y42.9499
G01 X8.4821 Y42.9405
G01 X8.4920 Y42.9296
G01 X8.5007 Y42.9228
G01 X8.5103 Y42.9174
G01 X8.5241 Y42.9125
G01 X8.5350 Y42.9106
G01 X8.5461 Y42.9103
G01 X8.5570 Y42.9116
G01 X8.5642 Y42.9134
G01 X8.5711 Y42.9159
G01 X8.5810 Y42.9209
G01 X8.5900 Y42.9272
G01 X8.5954 Y42.9322
G01 X8.6004 Y42.9376
G01 X8.6067 Y42.9467
G01 X8.6117 Y42.9565
G01 X8.6152 Y42.9670
G01 X8.6171 Y42.9779
G01 X8.6174 Y42.9852
G01 X8.6174 Y44.9852
G01 X8.6171 Y44.9926
G01 X8.6152 Y45.0035
G01 X8.6117 Y45.0140
G01 X8.6067 Y45.0238
G01 X8.6004 Y45.0328
G01 X8.5954 Y45.0383
G01 X8.5900 Y45.0432
G01 X8.5810 Y45.0496
G01 X8.5711 Y45.0546
G01 X8.5642 Y45.0570
G01 X8.5570 Y45.0588
G01 X8.5461 Y45.0602
G01 X8.5350 Y45.0599
G01 X8.5277 Y45.0588
G01 X8.5206 Y45.0570
G01 X8.5103 Y45.0531
G01 X8.5007 Y45.0476
G01 X8.4948 Y45.0432
G01 X8.4868 Y45.0356
G01 X8.4821 Y45.0299
G01 X8.4780 Y45.0238
G01 X8.4731 Y45.0140
G01 X8.4706 Y45.0070
G01 X8.4682 Y44.9962
G01 X8.4673 Y44.9852
G01 X8.4673 Y44.3447
G01 X8.3820 Y44.3873
G01 X8.3710 Y44.3911
G01 X8.3596 Y44.3932
G01 X7.9710 Y44.3936
G01 X7.9556 Y44.3920
G01 X7.9445 Y44.3888
G01 X7.9374 Y44.3857
G01 X7.7469 Y44.2904
G01 X7.7380 Y44.2852
G01 X7.7274 Y44.2764
G01 X7.6322 Y44.1812
G01 X7.6215 Y44.1677
G01 X7.5229 Y43.9712
G01 X7.5174 Y43.9567
G01 X7.5154 Y43.9453
G01 X7.5150 Y43.3662
G01 X7.5154 Y43.3585
G01 X7.5174 Y43.3471
G00 Z1.0000
G00 X8.4673 Y44.1770
G01 F76.20
G01 Z-0.2836
G01 F120.00
G01 X8.4673 Y43.1269
G01 X8.3342 Y43.0603
G01 X7.9887 Y43.0603
G01 X7.8249 Y43.1421
G01 X7.7469 Y43.2202
G01 X7.6650 Y43.3839
G01 X7.6650 Y43.9199
G01 X7.7469 Y44.0836
G01 X7.8249 Y44.1617
G01 X7.9887 Y44.2435
G01 X8.3342 Y44.2435
G01 X8.4673 Y44.1770
G00 Z1.0000
G00 X9.4220 Y44.3368
G01 F76.20
G01 Z-0.2836
G01 F120.00
G01 X9.4201 Y44.3259
G01 X9.4197 Y44.3186
G01 X9.4201 Y43.2632
G01 X9.4222 Y43.2518
G01 X9.4276 Y43.2374
G01 X9.5229 Y43.0469
G01 X9.5286 Y43.0374
G01 X9.5356 Y43.0287
G01 X9.5410 Y43.0236
G01 X9.5500 Y43.0170
G01 X9.5564 Y43.0134
G01 X9.7469 Y42.9181
G01 X9.7576 Y42.9138
G01 X9.7689 Y42.9111
G01 X9.7805 Y42.9102
G01 X10.0662 Y42.9102
G01 X10.0815 Y42.9118
G01 X10.0927 Y42.9150
G01 X10.0997 Y42.9181
G01 X10.2769 Y43.0067
G01 X10.2772 Y42.9779
G01 X10.2783 Y42.9706
G01 X10.2813 Y42.9600
G01 X10.2857 Y42.9499
G01 X10.2916 Y42.9405
G01 X10.2988 Y42.9322
G01 X10.3072 Y42.9250
G01 X10.3198 Y42.9174
G01 X10.3301 Y42.9134
G01 X10.3409 Y42.9110
G01 X10.3519 Y42.9102
G01 X10.3629 Y42.9110
G01 X10.3737 Y42.9134
G01 X10.3840 Y42.9174
G01 X10.3936 Y42.9228
G01 X10.4023 Y42.9296
G01 X10.4075 Y42.9348
G01 X10.4143 Y42.9436
G01 X10.4181 Y42.9499
G01 X10.4212 Y42.9565
G01 X10.4247 Y42.9670
G01 X10.4266 Y42.9779
G01 X10.4269 Y42.9852
G01 X10.4269 Y44.3186
G01 X10.4261 Y44.3296
G01 X10.4237 Y44.3404
G01 X10.4197 Y44.3507
G01 X10.4143 Y44.3603
G01 X10.4075 Y44.3690
G01 X10.3995 Y44.3766
G01 X10.3905 Y44.3829
G01 X10.3806 Y44.3879
G01 X10.3701 Y44.3914
G01 X10.3593 Y44.3932
G01 X10.3445 Y44.3932
G01 X10.3337 Y44.3914
G01 X10.3232 Y44.3879
G01 X10.3133 Y44.3829
G01 X10.3043 Y44.3766
G01 X10.2963 Y44.3690
G01 X10.2895 Y44.3603
G01 X10.2841 Y44.3507
G01 X10.2791 Y44.3368
G01 X10.2772 Y44.3259
G01 X10.2769 Y43.2068
G01 X10.2122 Y43.1421
G01 X10.0485 Y43.0603
G01 X9.7982 Y43.0603
G01 X9.6459 Y43.1364
G01 X9.5698 Y43.2887
G01 X9.5698 Y44.3186
G01 X9.5690 Y44.3296
G01 X9.5666 Y44.3404
G01 X9.5609 Y44.3539
G01 X9.5528 Y44.3662
G01 X9.5452 Y44.3742
G01 X9.5333 Y44.3829
G01 X9.5235 Y44.3879
G01 X9.5094 Y44.3922
G01 X9.4984 Y44.3935
G01 X9.4874 Y44.3932
G01 X9.4730 Y44.3904
G01 X9.4627 Y44.3864
G01 X9.4501 Y44.3788
G01 X9.4392 Y44.3690
G01 X9.4324 Y44.3603
G01 X9.4269 Y44.3507
G01 X9.4220 Y44.3368
G00 Z1.0000
G00 X11.1363 Y44.9082
G01 F76.20
G01 Z-0.2836
G01 F120.00
G01 X11.1348 Y44.9010
G01 X11.1340 Y44.8900
G01 X11.1344 Y44.8826
G01 X11.1363 Y44.8718
G01 X11.1384 Y44.8647
G01 X11.1429 Y44.8546
G01 X11.1467 Y44.8483
G01 X11.1534 Y44.8396
G01 X11.2567 Y44.7368
G01 X11.2657 Y44.7304
G01 X11.2756 Y44.7254
G01 X11.2896 Y44.7212
G01 X11.3006 Y44.7198
G01 X11.3116 Y44.7201
G01 X11.3189 Y44.7212
G01 X11.3330 Y44.7254
G01 X11.3460 Y44.7324
G01 X11.3573 Y44.7417
G01 X11.4575 Y44.8424
G01 X11.4639 Y44.8514
G01 X11.4688 Y44.8613
G01 X11.4731 Y44.8754
G01 X11.4745 Y44.8863
G01 X11.4737 Y44.9010
G01 X11.4702 Y44.9153
G01 X11.4639 Y44.9286
G01 X11.4575 Y44.9376
G01 X11.4526 Y44.9431
G01 X11.3519 Y45.0432
G01 X11.3397 Y45.0514
G01 X11.3296 Y45.0559
G01 X11.3189 Y45.0588
G01 X11.3080 Y45.0602
G01 X11.2933 Y45.0595
G01 X11.2790 Y45.0559
G01 X11.2657 Y45.0496
G01 X11.2539 Y45.0408
G01 X11.1534 Y44.9404
G01 X11.1488 Y44.9347
G01 X11.1429 Y44.9254
G01 X11.1397 Y44.9187
G01 X11.1363 Y44.9082
G00 Z1.0000
G00 X11.2292 Y44.3186
G01 F76.20
G01 Z-0.2836
G01 F120.00
G01 X11.2293 Y42.9816
G01 X11.2315 Y42.9670
G01 X11.2365 Y42.9532
G01 X11.2440 Y42.9405
G01 X11.2539 Y42.9296
G01 X11.2657 Y42.9209
G01 X11.2790 Y42.9146
G01 X11.2933 Y42.9110
G01 X11.3080 Y42.9103
G01 X11.3225 Y42.9125
G01 X11.3364 Y42.9174
G01 X11.3460 Y42.9228
G01 X11.3573 Y42.9322
G01 X11.3667 Y42.9436
G01 X11.3721 Y42.9532
G01 X11.3771 Y42.9670
G01 X11.3792 Y42.9816
G01 X11.3792 Y44.3223
G01 X11.3771 Y44.3368
G01 X11.3721 Y44.3507
G01 X11.3646 Y44.3633
G01 X11.3547 Y44.3742
G01 X11.3429 Y44.3829
G01 X11.3296 Y44.3892
G01 X11.3153 Y44.3928
G01 X11.3006 Y44.3935
G01 X11.2861 Y44.3914
G01 X11.2722 Y44.3864
G01 X11.2596 Y44.3788
G01 X11.2487 Y44.3690
G01 X11.2399 Y44.3571
G01 X11.2350 Y44.3473
G01 X11.2307 Y44.3332
G01 X11.2292 Y44.3186
G00 Z1.0000
G00 X12.1816 Y44.3186
G01 F76.20
G01 Z-0.2836
G01 F120.00
G01 X12.1816 Y42.9852
G01 X12.1824 Y42.9742
G01 X12.1849 Y42.9635
G01 X12.1888 Y42.9532
G01 X12.1943 Y42.9436
G01 X12.2011 Y42.9348
G01 X12.2091 Y42.9272
G01 X12.2181 Y42.9209
G01 X12.2280 Y42.9159
G01 X12.2384 Y42.9125
G01 X12.2493 Y42.9106
G01 X12.2640 Y42.9106
G01 X12.2749 Y42.9125
G01 X12.2854 Y42.9159
G01 X12.2952 Y42.9209
G01 X12.3043 Y42.9272
G01 X12.3123 Y42.9348
G01 X12.3191 Y42.9436
G01 X12.3245 Y42.9532
G01 X12.3295 Y42.9670
G01 X12.3313 Y42.9779
G01 X12.3317 Y44.0970
G01 X12.3964 Y44.1617
G01 X12.5601 Y44.2435
G01 X12.8104 Y44.2435
G01 X12.9626 Y44.1674
G01 X13.0388 Y44.0151
G01 X13.0391 Y42.9779
G01 X13.0402 Y42.9706
G01 X13.0432 Y42.9600
G01 X13.0460 Y42.9532
G01 X13.0514 Y42.9436
G01 X13.0582 Y42.9348
G01 X13.0634 Y42.9296
G01 X13.0721 Y42.9228
G01 X13.0817 Y42.9174
G01 X13.0920 Y42.9134
G01 X13.0992 Y42.9116
G01 X13.1101 Y42.9103
G01 X13.1212 Y42.9106
G01 X13.1284 Y42.9116
G01 X13.1391 Y42.9146
G01 X13.1459 Y42.9174
G01 X13.1555 Y42.9228
G01 X13.1642 Y42.9296
G01 X13.1694 Y42.9348
G01 X13.1782 Y42.9467
G01 X13.1831 Y42.9565
G01 X13.1856 Y42.9635
G01 X13.1874 Y42.9706
G01 X13.1888 Y42.9816
G01 X13.1887 Y44.0367
G01 X13.1864 Y44.0520
G01 X13.1809 Y44.0664
G01 X13.0857 Y44.2569
G01 X13.0800 Y44.2665
G01 X13.0729 Y44.2751
G01 X13.0675 Y44.2802
G01 X13.0617 Y44.2847
G01 X13.0521 Y44.2904
G01 X12.8582 Y44.3873
G01 X12.8472 Y44.3911
G01 X12.8320 Y44.3935
G01 X12.5424 Y44.3936
G01 X12.5270 Y44.3920
G01 X12.5159 Y44.3888
G01 X12.5088 Y44.3857
G01 X12.3317 Y44.2971
G01 X12.3316 Y44.3223
G01 X12.3295 Y44.3368
G01 X12.3245 Y44.3507
G01 X12.3191 Y44.3603
G01 X12.3147 Y44.3662
G01 X12.3071 Y44.3742
G01 X12.3014 Y44.3788
G01 X12.2952 Y44.3829
G01 X12.2854 Y44.3879
G01 X12.2784 Y44.3904
G01 X12.2677 Y44.3928
G01 X12.2603 Y44.3935
G01 X12.2493 Y44.3932
G01 X12.2384 Y44.3914
G01 X12.2246 Y44.3864
G01 X12.2120 Y44.3788
G01 X12.2011 Y44.3690
G01 X12.1923 Y44.3571
G01 X12.1873 Y44.3473
G01 X12.1831 Y44.3332
G01 X12.1816 Y44.3186
G00 Z1.0000
G00 X13.8984 Y43.3471
G01 F76.20
G01 Z-0.2836
G01 F120.00
G01 X13.9038 Y43.3326
G01 X13.9991 Y43.1422
G01 X14.0043 Y43.1333
G01 X14.0131 Y43.1227
G01 X14.1084 Y43.0274
G01 X14.1190 Y43.0186
G01 X14.1279 Y43.0134
G01 X14.3183 Y42.9181
G01 X14.3286 Y42.9139
G01 X14.3393 Y42.9113
G01 X14.3519 Y42.9102
G01 X14.6376 Y42.9102
G01 X14.6530 Y42.9118
G01 X14.6641 Y42.9150
G01 X14.6712 Y42.9181
G01 X14.8617 Y43.0134
G01 X14.8734 Y43.0206
G01 X14.8812 Y43.0274
G01 X14.9764 Y43.1227
G01 X14.9871 Y43.1361
G01 X15.0857 Y43.3326
G01 X15.0911 Y43.3471
G01 X15.0932 Y43.3585
G01 X15.0936 Y43.9376
G01 X15.0927 Y43.9492
G01 X15.0901 Y43.9604
G01 X15.0857 Y43.9712
G01 X14.9904 Y44.1617
G01 X14.9832 Y44.1734
G01 X14.9764 Y44.1812
G01 X14.8812 Y44.2764
G01 X14.8677 Y44.2871
G01 X14.6712 Y44.3857
G01 X14.6567 Y44.3911
G01 X14.6453 Y44.3932
G01 X14.3519 Y44.3936
G01 X14.3366 Y44.3920
G01 X14.3254 Y44.3888
G01 X14.3183 Y44.3857
G01 X14.1279 Y44.2904
G01 X14.1162 Y44.2832
G01 X14.1084 Y44.2764
G01 X14.0131 Y44.1812
G01 X14.0043 Y44.1706
G01 X13.9991 Y44.1617
G01 X13.9038 Y43.9712
G01 X13.9007 Y43.9641
G01 X13.8975 Y43.9530
G01 X13.8959 Y43.9376
G01 X13.8959 Y43.3662
G01 X13.8963 Y43.3585
G01 X13.8984 Y43.3471
G00 Z1.0000
G00 X14.3696 Y43.0603
G01 F76.20
G01 Z-0.2836
G01 F120.00
G01 X14.2059 Y43.1421
G01 X14.1279 Y43.2202
G01 X14.0460 Y43.3839
G01 X14.0460 Y43.9199
G01 X14.1279 Y44.0836
G01 X14.2059 Y44.1617
G01 X14.3696 Y44.2435
G01 X14.6199 Y44.2435
G01 X14.7836 Y44.1617
G01 X14.8617 Y44.0836
G01 X14.9435 Y43.9199
G01 X14.9435 Y43.3839
G01 X14.8617 Y43.2202
G01 X14.7836 Y43.1421
G01 X14.6199 Y43.0603
G01 X14.3696 Y43.0603
G00 Z1.0000
G00 X15.3267 Y42.7765
G01 F76.20
G01 Z-0.2836
G01 F120.00
G01 X15.3317 Y42.7627
G01 X15.3371 Y42.7531
G01 X15.3439 Y42.7444
G01 X15.3519 Y42.7368
G01 X15.3609 Y42.7304
G01 X15.3708 Y42.7254
G01 X15.3849 Y42.7212
G01 X15.3958 Y42.7198
G01 X16.9233 Y42.7197
G01 X16.9380 Y42.7212
G01 X16.9520 Y42.7254
G01 X16.9650 Y42.7324
G01 X16.9764 Y42.7417
G01 X16.9857 Y42.7531
G01 X16.9927 Y42.7660
G01 X16.9969 Y42.7801
G01 X16.9984 Y42.7948
G01 X16.9969 Y42.8094
G01 X16.9927 Y42.8235
G01 X16.9877 Y42.8333
G01 X16.9789 Y42.8452
G01 X16.9680 Y42.8550
G01 X16.9554 Y42.8626
G01 X16.9416 Y42.8676
G01 X16.9270 Y42.8697
G01 X15.3995 Y42.8698
G01 X15.3849 Y42.8684
G01 X15.3777 Y42.8666
G01 X15.3674 Y42.8626
G01 X15.3578 Y42.8572
G01 X15.3519 Y42.8528
G01 X15.3415 Y42.8424
G01 X15.3371 Y42.8365
G01 X15.3317 Y42.8268
G01 X15.3277 Y42.8165
G01 X15.3259 Y42.8094
G01 X15.3248 Y42.8021
G01 X15.3246 Y42.7911
G01 X15.3267 Y42.7765
G00 Z1.0000
G00 X17.3245 Y44.9852
G01 F76.20
G01 Z-0.2836
G01 F120.00
G01 X17.3245 Y42.9852
G01 X17.3253 Y42.9742
G01 X17.3277 Y42.9635
G01 X17.3317 Y42.9532
G01 X17.3371 Y42.9436
G01 X17.3439 Y42.9348
G01 X17.3519 Y42.9272
G01 X17.3609 Y42.9209
G01 X17.3708 Y42.9159
G01 X17.3813 Y42.9125
G01 X17.3922 Y42.9106
G01 X17.4069 Y42.9106
G01 X17.4178 Y42.9125
G01 X17.4282 Y42.9159
G01 X17.4381 Y42.9209
G01 X17.4471 Y42.9272
G01 X17.4551 Y42.9348
G01 X17.4619 Y42.9436
G01 X17.4674 Y42.9532
G01 X17.4723 Y42.9670
G01 X17.4742 Y42.9779
G01 X17.4746 Y44.6470
G01 X17.9998 Y43.5216
G01 X18.0057 Y43.5122
G01 X18.0104 Y43.5065
G01 X18.0184 Y43.4988
G01 X18.0275 Y43.4924
G01 X18.0374 Y43.4874
G01 X18.0443 Y43.4849
G01 X18.0551 Y43.4824
G01 X18.0662 Y43.4816
G01 X18.0773 Y43.4824
G01 X18.0881 Y43.4849
G01 X18.0950 Y43.4874
G01 X18.1049 Y43.4924
G01 X18.1140 Y43.4988
G01 X18.1220 Y43.5065
G01 X18.1267 Y43.5122
G01 X18.1325 Y43.5216
G01 X18.6578 Y44.6470
G01 X18.6579 Y42.9816
G01 X18.6593 Y42.9706
G01 X18.6611 Y42.9635
G01 X18.6650 Y42.9532
G01 X18.6705 Y42.9436
G01 X18.6773 Y42.9348
G01 X18.6825 Y42.9296
G01 X18.6912 Y42.9228
G01 X18.7008 Y42.9174
G01 X18.7111 Y42.9134
G01 X18.7182 Y42.9116
G01 X18.7292 Y42.9103
G01 X18.7402 Y42.9106
G01 X18.7475 Y42.9116
G01 X18.7581 Y42.9146
G01 X18.7649 Y42.9174
G01 X18.7745 Y42.9228
G01 X18.7832 Y42.9296
G01 X18.7885 Y42.9348
G01 X18.7952 Y42.9436
G01 X18.7990 Y42.9499
G01 X18.8022 Y42.9565
G01 X18.8056 Y42.9670
G01 X18.8075 Y42.9779
G01 X18.8079 Y42.9852
G01 X18.8079 Y44.9852
G01 X18.8071 Y44.9963
G01 X18.8047 Y45.0071
G01 X18.8007 Y45.0174
G01 X18.7952 Y45.0270
G01 X18.7884 Y45.0357
G01 X18.7832 Y45.0409
G01 X18.7774 Y45.0456
G01 X18.7681 Y45.0515
G01 X18.7580 Y45.0559
G01 X18.7509 Y45.0581
G01 X18.7437 Y45.0595
G01 X18.7326 Y45.0603
G01 X18.7253 Y45.0599
G01 X18.7144 Y45.0580
G01 X18.7073 Y45.0558
G01 X18.6972 Y45.0513
G01 X18.6879 Y45.0453
G01 X18.6822 Y45.0406
G01 X18.6746 Y45.0326
G01 X18.6683 Y45.0235
G01 X18.0662 Y43.7341
G01 X17.4641 Y45.0235
G01 X17.4578 Y45.0326
G01 X17.4474 Y45.0430
G01 X17.4352 Y45.0513
G01 X17.4251 Y45.0558
G01 X17.4144 Y45.0588
G01 X17.3997 Y45.0603
G01 X17.3887 Y45.0595
G01 X17.3779 Y45.0571
G01 X17.3643 Y45.0515
G01 X17.3549 Y45.0456
G01 X17.3465 Y45.0384
G01 X17.3393 Y45.0300
G01 X17.3317 Y45.0174
G01 X17.3277 Y45.0071
G01 X17.3253 Y44.9963
G01 X17.3245 Y44.9852
G00 Z1.0000
G00 X19.6650 Y43.7434
G01 F76.20
G01 Z-0.2836
G01 F120.00
G01 X19.6650 Y44.0151
G01 X19.7412 Y44.1674
G01 X19.8934 Y44.2435
G01 X20.2390 Y44.2435
G01 X20.3912 Y44.1674
G01 X20.4673 Y44.0151
G01 X20.4673 Y43.9039
G01 X19.6650 Y43.7434
G00 Z1.0000
G00 X19.5174 Y43.2518
G01 F76.20
G01 Z-0.2836
G01 F120.00
G01 X19.5229 Y43.2374
G01 X19.6181 Y43.0469
G01 X19.6260 Y43.0344
G01 X19.6335 Y43.0261
G01 X19.6421 Y43.0191
G01 X19.6517 Y43.0134
G01 X19.8422 Y42.9181
G01 X19.8492 Y42.9150
G01 X19.8604 Y42.9118
G01 X19.8757 Y42.9102
G01 X20.2567 Y42.9102
G01 X20.2682 Y42.9111
G01 X20.2795 Y42.9138
G01 X20.2902 Y42.9181
G01 X20.4807 Y43.0134
G01 X20.4931 Y43.0212
G01 X20.5013 Y43.0286
G01 X20.5084 Y43.0371
G01 X20.5123 Y43.0433
G01 X20.5171 Y43.0533
G01 X20.5203 Y43.0638
G01 X20.5220 Y43.0748
G01 X20.5220 Y43.0858
G01 X20.5204 Y43.0967
G01 X20.5172 Y43.1073
G01 X20.5125 Y43.1173
G01 X20.5064 Y43.1265
G01 X20.4990 Y43.1347
G01 X20.4905 Y43.1417
G01 X20.4811 Y43.1474
G01 X20.4709 Y43.1517
G01 X20.4602 Y43.1544
G01 X20.4529 Y43.1553
G01 X20.4455 Y43.1555
G01 X20.4345 Y43.1544
G01 X20.4238 Y43.1518
G01 X20.4169 Y43.1492
G01 X20.2390 Y43.0603
G01 X19.8934 Y43.0603
G01 X19.7412 Y43.1364
G01 X19.6650 Y43.2887
G01 X19.6650 Y43.5904
G01 X20.5571 Y43.7688
G01 X20.5677 Y43.7718
G01 X20.5810 Y43.7780
G01 X20.5928 Y43.7868
G01 X20.6004 Y43.7948
G01 X20.6068 Y43.8038
G01 X20.6117 Y43.8137
G01 X20.6152 Y43.8242
G01 X20.6173 Y43.8387
G01 X20.6174 Y44.0329
G01 X20.6158 Y44.0482
G01 X20.6126 Y44.0593
G01 X20.6095 Y44.0664
G01 X20.5143 Y44.2569
G01 X20.5063 Y44.2694
G01 X20.4989 Y44.2777
G01 X20.4903 Y44.2847
G01 X20.4807 Y44.2904
G01 X20.2902 Y44.3857
G01 X20.2831 Y44.3888
G01 X20.2720 Y44.3920
G01 X20.2567 Y44.3936
G01 X19.8757 Y44.3936
G01 X19.8680 Y44.3932
G01 X19.8566 Y44.3911
G01 X19.8422 Y44.3857
G01 X19.6517 Y44.2904
G01 X19.6391 Y44.2825
G01 X19.6309 Y44.2751
G01 X19.6238 Y44.2665
G01 X19.6181 Y44.2569
G01 X19.5229 Y44.0664
G01 X19.5174 Y44.0520
G01 X19.5154 Y44.0406
G01 X19.5150 Y43.2710
G01 X19.5154 Y43.2632
G01 X19.5174 Y43.2518
G00 Z1.0000
G00 X21.2317 Y43.3471
G01 F76.20
G01 Z-0.2836
G01 F120.00
G01 X21.2372 Y43.3326
G01 X21.3324 Y43.1422
G01 X21.3377 Y43.1333
G01 X21.3465 Y43.1227
G01 X21.4417 Y43.0274
G01 X21.4523 Y43.0186
G01 X21.4612 Y43.0134
G01 X21.6552 Y42.9165
G01 X21.6699 Y42.9118
G01 X21.6852 Y42.9102
G01 X22.0739 Y42.9106
G01 X22.0853 Y42.9127
G01 X22.0962 Y42.9165
G01 X22.1816 Y42.9591
G01 X22.1816 Y42.7172
G01 X22.0998 Y42.5535
G01 X22.0217 Y42.4755
G01 X21.8580 Y42.3936
G01 X21.6077 Y42.3936
G01 X21.4297 Y42.4825
G01 X21.4193 Y42.4862
G01 X21.4085 Y42.4883
G01 X21.3975 Y42.4888
G01 X21.3865 Y42.4877
G01 X21.3758 Y42.4850
G01 X21.3656 Y42.4807
G01 X21.3592 Y42.4771
G01 X21.3504 Y42.4705
G01 X21.3426 Y42.4627
G01 X21.3360 Y42.4538
G01 X21.3324 Y42.4474
G01 X21.3282 Y42.4372
G01 X21.3256 Y42.4264
G01 X21.3245 Y42.4155
G01 X21.3247 Y42.4081
G01 X21.3264 Y42.3972
G01 X21.3283 Y42.3901
G01 X21.3326 Y42.3799
G01 X21.3362 Y42.3735
G01 X21.3428 Y42.3646
G01 X21.3535 Y42.3545
G01 X21.3660 Y42.3467
G01 X21.5564 Y42.2515
G01 X21.5709 Y42.2460
G01 X21.5823 Y42.2439
G01 X21.5900 Y42.2435
G01 X21.8757 Y42.2435
G01 X21.8911 Y42.2451
G01 X21.9022 Y42.2484
G01 X21.9093 Y42.2515
G01 X22.0997 Y42.3467
G01 X22.1087 Y42.3519
G01 X22.1168 Y42.3584
G01 X22.2145 Y42.4560
G01 X22.2252 Y42.4695
G01 X22.3238 Y42.6660
G01 X22.3292 Y42.6804
G01 X22.3313 Y42.6918
G01 X22.3317 Y44.3186
G01 X22.3303 Y44.3332
G01 X22.3260 Y44.3473
G01 X22.3210 Y44.3571
G01 X22.3123 Y44.3690
G01 X22.3043 Y44.3766
G01 X22.2952 Y44.3829
G01 X22.2854 Y44.3879
G01 X22.2784 Y44.3904
G01 X22.2713 Y44.3922
G01 X22.2603 Y44.3935
G01 X22.2493 Y44.3932
G01 X22.2420 Y44.3922
G01 X22.2349 Y44.3904
G01 X22.2246 Y44.3864
G01 X22.2150 Y44.3810
G01 X22.2063 Y44.3742
G01 X22.2011 Y44.3690
G01 X22.1943 Y44.3603
G01 X22.1888 Y44.3507
G01 X22.1856 Y44.3427
G01 X22.0962 Y44.3873
G01 X22.0853 Y44.3911
G01 X22.0739 Y44.3932
G01 X21.6775 Y44.3932
G01 X21.6661 Y44.3911
G01 X21.6517 Y44.3857
G01 X21.4612 Y44.2904
G01 X21.4523 Y44.2852
G01 X21.4442 Y44.2788
G01 X21.3465 Y44.1812
G01 X21.3377 Y44.1706
G01 X21.3324 Y44.1617
G01 X21.2372 Y43.9712
G01 X21.2341 Y43.9641
G01 X21.2308 Y43.9530
G01 X21.2292 Y43.9376
G01 X21.2292 Y43.3662
G01 X21.2296 Y43.3585
G01 X21.2317 Y43.3471
G00 Z1.0000
G00 X22.1816 Y44.1770
G01 F76.20
G01 Z-0.2836
G01 F120.00
G01 X22.1816 Y43.1269
G01 X22.0485 Y43.0603
G01 X21.7030 Y43.0603
G01 X21.5392 Y43.1421
G01 X21.4612 Y43.2202
G01 X21.3793 Y43.3839
G01 X21.3793 Y43.9199
G01 X21.4612 Y44.0836
G01 X21.5392 Y44.1617
G01 X21.7030 Y44.2435
G01 X22.0485 Y44.2435
G01 X22.1816 Y44.1770
G00 Z1.0000
G00 X23.0412 Y43.2518
G01 F76.20
G01 Z-0.2836
G01 F120.00
G01 X23.0467 Y43.2374
G01 X23.1419 Y43.0469
G01 X23.1476 Y43.0374
G01 X23.1547 Y43.0287
G01 X23.1629 Y43.0213
G01 X23.1755 Y43.0134
G01 X23.3660 Y42.9181
G01 X23.3767 Y42.9138
G01 X23.3880 Y42.9111
G01 X23.3995 Y42.9102
G01 X23.8796 Y42.9103
G01 X23.8948 Y42.9127
G01 X23.9058 Y42.9165
G01 X23.9952 Y42.9611
G01 X23.9984 Y42.9532
G01 X24.0038 Y42.9436
G01 X24.0106 Y42.9348
G01 X24.0158 Y42.9296
G01 X24.0245 Y42.9228
G01 X24.0308 Y42.9191
G01 X24.0375 Y42.9159
G01 X24.0480 Y42.9125
G01 X24.0588 Y42.9106
G01 X24.0662 Y42.9102
G01 X24.0735 Y42.9106
G01 X24.0844 Y42.9125
G01 X24.0949 Y42.9159
G01 X24.1048 Y42.9209
G01 X24.1138 Y42.9272
G01 X24.1192 Y42.9322
G01 X24.1286 Y42.9436
G01 X24.1355 Y42.9565
G01 X24.1398 Y42.9706
G01 X24.1412 Y42.9852
G01 X24.1411 Y44.0367
G01 X24.1388 Y44.0520
G01 X24.1333 Y44.0664
G01 X24.0381 Y44.2569
G01 X24.0302 Y44.2694
G01 X24.0227 Y44.2777
G01 X24.0141 Y44.2847
G01 X24.0045 Y44.2904
G01 X23.8140 Y44.3857
G01 X23.8070 Y44.3888
G01 X23.7958 Y44.3920
G01 X23.7805 Y44.3936
G01 X23.3995 Y44.3936
G01 X23.3918 Y44.3932
G01 X23.3804 Y44.3911
G01 X23.3660 Y44.3857
G01 X23.1755 Y44.2904
G01 X23.1630 Y44.2826
G01 X23.1548 Y44.2752
G01 X23.1478 Y44.2667
G01 X23.1439 Y44.2605
G01 X23.1391 Y44.2505
G01 X23.1359 Y44.2400
G01 X23.1342 Y44.2291
G01 X23.1342 Y44.2180
G01 X23.1358 Y44.2071
G01 X23.1390 Y44.1965
G01 X23.1437 Y44.1865
G01 X23.1498 Y44.1773
G01 X23.1572 Y44.1691
G01 X23.1657 Y44.1621
G01 X23.1751 Y44.1564
G01 X23.1853 Y44.1521
G01 X23.1960 Y44.1494
G01 X23.2033 Y44.1485
G01 X23.2107 Y44.1483
G01 X23.2217 Y44.1494
G01 X23.2324 Y44.1520
G01 X23.2393 Y44.1547
G01 X23.4172 Y44.2435
G01 X23.7628 Y44.2435
G01 X23.9150 Y44.1674
G01 X23.9912 Y44.0151
G01 X23.9912 Y43.8888
G01 X23.8580 Y43.8222
G01 X23.3995 Y43.8222
G01 X23.3842 Y43.8206
G01 X23.3730 Y43.8174
G01 X23.3660 Y43.8143
G01 X23.1755 Y43.7190
G01 X23.1659 Y43.7133
G01 X23.1547 Y43.7036
G01 X23.1498 Y43.6980
G01 X23.1437 Y43.6887
G01 X23.0467 Y43.4950
G01 X23.0412 Y43.4805
G01 X23.0392 Y43.4691
G01 X23.0388 Y43.4614
G01 X23.0388 Y43.2710
G01 X23.0392 Y43.2632
G01 X23.0412 Y43.2518
G00 Z1.0000
G00 X23.8948 Y43.6746
G01 F76.20
G01 Z-0.2836
G01 F120.00
G01 X23.9093 Y43.6800
G01 X23.9912 Y43.7210
G01 X23.9912 Y43.1269
G01 X23.8580 Y43.0603
G01 X23.4172 Y43.0603
G01 X23.2650 Y43.1364
G01 X23.1888 Y43.2887
G01 X23.1888 Y43.4437
G01 X23.2650 Y43.5960
G01 X23.4172 Y43.6721
G01 X23.8757 Y43.6721
G01 X23.8834 Y43.6725
G01 X23.8948 Y43.6746
G00 Z1.0000
G00 X24.7553 Y42.9670
G01 F76.20
G01 Z-0.2836
G01 F120.00
G01 X24.7603 Y42.9532
G01 X24.7657 Y42.9436
G01 X24.7725 Y42.9348
G01 X24.7805 Y42.9272
G01 X24.7895 Y42.9209
G01 X24.8028 Y42.9146
G01 X24.8135 Y42.9116
G01 X24.8281 Y42.9102
G01 X26.0699 Y42.9103
G01 X26.0808 Y42.9116
G01 X26.0880 Y42.9134
G01 X26.0949 Y42.9159
G01 X26.1048 Y42.9209
G01 X26.1138 Y42.9272
G01 X26.1192 Y42.9322
G01 X26.1242 Y42.9376
G01 X26.1306 Y42.9467
G01 X26.1355 Y42.9565
G01 X26.1380 Y42.9635
G01 X26.1398 Y42.9706
G01 X26.1411 Y42.9816
G01 X26.1409 Y42.9926
G01 X26.1398 Y42.9999
G01 X26.1380 Y43.0070
G01 X26.1340 Y43.0173
G01 X26.1286 Y43.0269
G01 X26.1218 Y43.0356
G01 X26.1166 Y43.0408
G01 X26.1079 Y43.0476
G01 X26.0983 Y43.0531
G01 X26.0915 Y43.0559
G01 X26.0808 Y43.0588
G01 X26.0735 Y43.0599
G01 X25.0093 Y43.0603
G01 X26.0240 Y44.0750
G01 X26.0337 Y44.0870
G01 X26.0393 Y44.0972
G01 X26.1374 Y44.3901
G01 X26.1400 Y44.4001
G01 X26.1412 Y44.4138
G01 X26.1412 Y44.6043
G01 X26.1403 Y44.6158
G01 X26.1377 Y44.6271
G01 X26.1333 Y44.6378
G01 X26.0381 Y44.8283
G01 X26.0328 Y44.8372
G01 X26.0240 Y44.8478
G01 X25.9288 Y44.9431
G01 X25.9210 Y44.9498
G01 X25.9123 Y44.9555
G01 X25.7188 Y45.0524
G01 X25.7081 Y45.0567
G01 X25.6968 Y45.0594
G01 X25.6852 Y45.0603
G01 X25.2013 Y45.0599
G01 X25.1899 Y45.0578
G01 X25.1755 Y45.0524
G01 X24.9850 Y44.9571
G01 X24.9761 Y44.9519
G01 X24.9655 Y44.9431
G01 X24.8703 Y44.8478
G01 X24.8653 Y44.8424
G01 X24.8590 Y44.8333
G01 X24.8540 Y44.8235
G01 X24.8505 Y44.8130
G01 X24.8487 Y44.8021
G01 X24.8484 Y44.7911
G01 X24.8497 Y44.7801
G01 X24.8515 Y44.7730
G01 X24.8555 Y44.7627
G01 X24.8609 Y44.7531
G01 X24.8677 Y44.7444
G01 X24.8729 Y44.7392
G01 X24.8816 Y44.7324
G01 X24.8913 Y44.7269
G01 X24.9016 Y44.7230
G01 X24.9087 Y44.7212
G01 X24.9197 Y44.7198
G01 X24.9307 Y44.7201
G01 X24.9416 Y44.7220
G01 X24.9520 Y44.7254
G01 X24.9619 Y44.7304
G01 X24.9709 Y44.7368
G01 X25.0630 Y44.8283
G01 X25.2268 Y44.9102
G01 X25.6675 Y44.9102
G01 X25.8313 Y44.8283
G01 X25.9093 Y44.7503
G01 X25.9912 Y44.5866
G01 X25.9912 Y44.4260
G01 X25.9054 Y44.1686
G01 X24.7750 Y43.0383
G01 X24.7701 Y43.0328
G01 X24.7637 Y43.0238
G01 X24.7588 Y43.0140
G01 X24.7553 Y43.0035
G01 X24.7534 Y42.9926
G01 X24.7531 Y42.9852
G01 X24.7534 Y42.9779
G01 X24.7553 Y42.9670
G00 Z1.0000
G00 X26.7553 Y44.0147
G01 F76.20
G01 Z-0.2836
G01 F120.00
G01 X26.7587 Y44.0042
G01 X26.7619 Y43.9976
G01 X26.7700 Y43.9853
G01 X26.7804 Y43.9749
G01 X26.7927 Y43.9667
G01 X26.8063 Y43.9611
G01 X26.8207 Y43.9582
G01 X26.8281 Y43.9578
G01 X26.8391 Y43.9586
G01 X26.8534 Y43.9622
G01 X26.8667 Y43.9685
G01 X26.8785 Y43.9773
G01 X26.9678 Y44.0664
G01 X27.1315 Y44.1483
G01 X27.5723 Y44.1483
G01 X27.7360 Y44.0664
G01 X27.8140 Y43.9884
G01 X27.8959 Y43.8247
G01 X27.8959 Y43.3839
G01 X27.8140 Y43.2202
G01 X27.7360 Y43.1421
G01 X27.5723 Y43.0603
G01 X27.1315 Y43.0603
G01 X26.9678 Y43.1421
G01 X26.8785 Y43.2313
G01 X26.8667 Y43.2401
G01 X26.8568 Y43.2450
G01 X26.8499 Y43.2475
G01 X26.8427 Y43.2493
G01 X26.8318 Y43.2507
G01 X26.8207 Y43.2504
G01 X26.8135 Y43.2493
G01 X26.8063 Y43.2475
G01 X26.7960 Y43.2435
G01 X26.7864 Y43.2381
G01 X26.7805 Y43.2337
G01 X26.7725 Y43.2261
G01 X26.7678 Y43.2204
G01 X26.7637 Y43.2143
G01 X26.7588 Y43.2044
G01 X26.7563 Y43.1975
G01 X26.7539 Y43.1867
G01 X26.7531 Y43.1794
G01 X26.7534 Y43.1684
G01 X26.7553 Y43.1575
G01 X26.7588 Y43.1470
G01 X26.7637 Y43.1371
G01 X26.7701 Y43.1281
G01 X26.8703 Y43.0274
G01 X26.8781 Y43.0206
G01 X26.8898 Y43.0134
G01 X27.0803 Y42.9181
G01 X27.0910 Y42.9138
G01 X27.1023 Y42.9111
G01 X27.1138 Y42.9102
G01 X27.5900 Y42.9102
G01 X27.6015 Y42.9111
G01 X27.6128 Y42.9138
G01 X27.6236 Y42.9181
G01 X27.8140 Y43.0134
G01 X27.8284 Y43.0228
G01 X27.9288 Y43.1227
G01 X27.9395 Y43.1361
G01 X28.0381 Y43.3326
G01 X28.0435 Y43.3471
G01 X28.0456 Y43.3585
G01 X28.0460 Y43.8424
G01 X28.0451 Y43.8539
G01 X28.0424 Y43.8652
G01 X28.0381 Y43.8759
G01 X27.9428 Y44.0664
G01 X27.9356 Y44.0781
G01 X27.9288 Y44.0859
G01 X27.8335 Y44.1812
G01 X27.8229 Y44.1900
G01 X27.8140 Y44.1952
G01 X27.6236 Y44.2904
G01 X27.6128 Y44.2948
G01 X27.6015 Y44.2975
G01 X27.5900 Y44.2984
G01 X27.1061 Y44.2980
G01 X27.0947 Y44.2959
G01 X27.0803 Y44.2904
G01 X26.9213 Y44.2110
G01 X26.9912 Y44.9102
G01 X27.8757 Y44.9102
G01 X27.8867 Y44.9110
G01 X27.8975 Y44.9134
G01 X27.9078 Y44.9174
G01 X27.9174 Y44.9228
G01 X27.9233 Y44.9272
G01 X27.9313 Y44.9348
G01 X27.9381 Y44.9436
G01 X27.9435 Y44.9532
G01 X27.9464 Y44.9600
G01 X27.9493 Y44.9706
G01 X27.9504 Y44.9779
G01 X27.9507 Y44.9889
G01 X27.9493 Y44.9999
G01 X27.9475 Y45.0070
G01 X27.9435 Y45.0173
G01 X27.9381 Y45.0269
G01 X27.9313 Y45.0356
G01 X27.9204 Y45.0455
G01 X27.9078 Y45.0531
G01 X27.8975 Y45.0570
G01 X27.8904 Y45.0588
G01 X27.8757 Y45.0603
G01 X26.9233 Y45.0603
G01 X26.9087 Y45.0588
G01 X26.8946 Y45.0546
G01 X26.8817 Y45.0477
G01 X26.8730 Y45.0409
G01 X26.8631 Y45.0300
G01 X26.8555 Y45.0174
G01 X26.8506 Y45.0036
G01 X26.8487 Y44.9927
G01 X26.7534 Y44.0403
G01 X26.7534 Y44.0256
G01 X26.7553 Y44.0147
G00 Z1.0000
G00 X28.6603 Y43.3471
G01 F76.20
G01 Z-0.2836
G01 F120.00
G01 X28.6657 Y43.3326
G01 X28.7610 Y43.1422
G01 X28.7662 Y43.1333
G01 X28.7750 Y43.1227
G01 X28.8703 Y43.0274
G01 X28.8809 Y43.0186
G01 X28.8898 Y43.0134
G01 X29.0803 Y42.9181
G01 X29.0910 Y42.9138
G01 X29.1023 Y42.9111
G01 X29.1138 Y42.9102
G01 X29.4948 Y42.9102
G01 X29.5063 Y42.9111
G01 X29.5176 Y42.9138
G01 X29.5283 Y42.9181
G01 X29.7188 Y43.0134
G01 X29.7277 Y43.0186
G01 X29.7383 Y43.0274
G01 X29.8335 Y43.1227
G01 X29.8442 Y43.1361
G01 X29.9428 Y43.3326
G01 X29.9472 Y43.3434
G01 X29.9499 Y43.3546
G01 X29.9508 Y43.3662
G01 X29.9504 Y43.8501
G01 X29.9483 Y43.8615
G01 X29.9428 Y43.8759
G01 X29.8442 Y44.0724
G01 X29.8335 Y44.0859
G01 X29.7358 Y44.1835
G01 X29.7277 Y44.1900
G01 X29.7188 Y44.1952
G01 X29.5283 Y44.2904
G01 X29.5176 Y44.2948
G01 X29.5101 Y44.2968
G01 X29.4948 Y44.2984
G01 X29.1099 Y44.2983
G01 X29.0947 Y44.2959
G01 X29.0803 Y44.2904
G01 X28.8838 Y44.1918
G01 X28.8703 Y44.1812
G01 X28.8079 Y44.1188
G01 X28.8977 Y44.4782
G01 X29.0769 Y44.7470
G01 X29.1583 Y44.8283
G01 X29.3220 Y44.9102
G01 X29.6852 Y44.9102
G01 X29.6999 Y44.9116
G01 X29.7070 Y44.9134
G01 X29.7173 Y44.9174
G01 X29.7269 Y44.9228
G01 X29.7356 Y44.9296
G01 X29.7408 Y44.9348
G01 X29.7476 Y44.9436
G01 X29.7531 Y44.9532
G01 X29.7570 Y44.9635
G01 X29.7588 Y44.9706
G01 X29.7602 Y44.9816
G01 X29.7599 Y44.9926
G01 X29.7588 Y44.9999
G01 X29.7559 Y45.0105
G01 X29.7514 Y45.0206
G01 X29.7476 Y45.0269
G01 X29.7408 Y45.0356
G01 X29.7328 Y45.0432
G01 X29.7238 Y45.0496
G01 X29.7140 Y45.0546
G01 X29.7035 Y45.0580
G01 X29.6926 Y45.0599
G01 X29.6852 Y45.0603
G01 X29.3043 Y45.0603
G01 X29.2927 Y45.0594
G01 X29.2815 Y45.0567
G01 X29.2707 Y45.0524
G01 X29.0803 Y44.9571
G01 X29.0713 Y44.9519
G01 X29.0607 Y44.9431
G01 X28.9655 Y44.8478
G01 X28.9583 Y44.8394
G01 X28.7637 Y44.5476
G01 X28.7587 Y44.5377
G01 X28.7553 Y44.5272
G01 X28.6601 Y44.1463
G01 X28.6582 Y44.1354
G01 X28.6578 Y43.3662
G01 X28.6582 Y43.3585
G01 X28.6603 Y43.3471
G00 Z1.0000
G00 X28.8079 Y43.8247
G01 F76.20
G01 Z-0.2836
G01 F120.00
G01 X28.8898 Y43.9884
G01 X28.9678 Y44.0664
G01 X29.1315 Y44.1483
G01 X29.4770 Y44.1483
G01 X29.6408 Y44.0664
G01 X29.7188 Y43.9884
G01 X29.8007 Y43.8247
G01 X29.8007 Y43.3839
G01 X29.7188 Y43.2202
G01 X29.6408 Y43.1421
G01 X29.4770 Y43.0603
G01 X29.1315 Y43.0603
G01 X28.9678 Y43.1421
G01 X28.8898 Y43.2202
G01 X28.8079 Y43.3839
G01 X28.8079 Y43.8247
G00 Z1.0000
G00 X30.6601 Y43.3480
G01 F76.20
G01 Z-0.2836
G01 F120.00
G01 X30.6657 Y43.3326
G01 X30.7610 Y43.1422
G01 X30.7662 Y43.1333
G01 X30.7750 Y43.1227
G01 X30.8703 Y43.0274
G01 X30.8809 Y43.0186
G01 X30.8898 Y43.0134
G01 X31.0803 Y42.9181
G01 X31.0947 Y42.9127
G01 X31.1061 Y42.9106
G01 X31.1138 Y42.9102
G01 X31.3043 Y42.9102
G01 X31.3120 Y42.9106
G01 X31.3234 Y42.9127
G01 X31.3378 Y42.9181
G01 X31.5283 Y43.0134
G01 X31.5372 Y43.0186
G01 X31.5478 Y43.0274
G01 X31.6431 Y43.1227
G01 X31.6519 Y43.1333
G01 X31.6571 Y43.1422
G01 X31.7556 Y43.3402
G01 X31.8533 Y43.7289
G01 X31.8552 Y43.7398
G01 X31.8555 Y44.2233
G01 X31.8552 Y44.2307
G01 X31.8533 Y44.2415
G01 X31.7569 Y44.6264
G01 X31.7524 Y44.6378
G01 X31.6538 Y44.8343
G01 X31.6431 Y44.8478
G01 X31.5478 Y44.9431
G01 X31.5372 Y44.9519
G01 X31.5283 Y44.9571
G01 X31.3308 Y45.0555
G01 X31.3196 Y45.0587
G01 X31.3043 Y45.0603
G01 X31.1138 Y45.0603
G01 X31.0976 Y45.0585
G01 X31.0885 Y45.0559
G01 X31.0803 Y45.0524
G01 X30.8838 Y44.9538
G01 X30.8703 Y44.9431
G01 X30.7750 Y44.8478
G01 X30.7662 Y44.8372
G01 X30.7610 Y44.8283
G01 X30.6625 Y44.6303
G01 X30.5648 Y44.2415
G01 X30.5629 Y44.2307
G01 X30.5626 Y44.2233
G01 X30.5629 Y43.7398
G01 X30.5648 Y43.7289
G01 X30.6601 Y43.3480
G00 Z1.0000
G00 X32.0886 Y42.7765
G01 F76.20
G01 Z-0.2836
G01 F120.00
G01 X32.0936 Y42.7627
G01 X32.0990 Y42.7531
G01 X32.1058 Y42.7444
G01 X32.1138 Y42.7368
G01 X32.1229 Y42.7304
G01 X32.1327 Y42.7254
G01 X32.1468 Y42.7212
G01 X32.1577 Y42.7198
G01 X33.6852 Y42.7197
G01 X33.6999 Y42.7212
G01 X33.7140 Y42.7254
G01 X33.7269 Y42.7324
G01 X33.7383 Y42.7417
G01 X33.7476 Y42.7531
G01 X33.7546 Y42.7660
G01 X33.7588 Y42.7801
G01 X33.7603 Y42.7948
G01 X33.7588 Y42.8094
G01 X33.7546 Y42.8235
G01 X33.7496 Y42.8333
G01 X33.7408 Y42.8452
G01 X33.7299 Y42.8550
G01 X33.7173 Y42.8626
G01 X33.7035 Y42.8676
G01 X33.6889 Y42.8697
G01 X32.1614 Y42.8698
G01 X32.1468 Y42.8684
G01 X32.1396 Y42.8666
G01 X32.1293 Y42.8626
G01 X32.1197 Y42.8572
G01 X32.1138 Y42.8528
G01 X32.1034 Y42.8424
G01 X32.0990 Y42.8365
G01 X32.0936 Y42.8268
G01 X32.0896 Y42.8165
G01 X32.0878 Y42.8094
G01 X32.0868 Y42.8021
G01 X32.0865 Y42.7911
G01 X32.0886 Y42.7765
G00 Z1.0000
G00 X31.1315 Y44.9102
G01 F76.20
G01 Z-0.2836
G01 F120.00
G01 X31.2866 Y44.9102
G01 X31.4503 Y44.8283
G01 X31.5283 Y44.7503
G01 X31.6144 Y44.5781
G01 X31.7054 Y44.2141
G01 X31.7054 Y43.7564
G01 X31.6144 Y43.3924
G01 X31.5283 Y43.2202
G01 X31.4503 Y43.1421
G01 X31.2866 Y43.0603
G01 X31.1315 Y43.0603
G01 X30.9678 Y43.1421
G01 X30.8898 Y43.2202
G01 X30.8037 Y43.3924
G01 X30.7127 Y43.7564
G01 X30.7127 Y44.2141
G01 X30.8037 Y44.5781
G01 X30.8898 Y44.7503
G01 X30.9678 Y44.8283
G01 X31.1315 Y44.9102
G00 Z1.0000
G00 X33.9936 Y44.3947
G01 F76.20
G01 Z-0.2836
G01 F120.00
G01 X33.9991 Y44.3803
G01 X34.0943 Y44.1898
G01 X34.0996 Y44.1809
G01 X34.1084 Y44.1703
G01 X34.2036 Y44.0750
G01 X34.2114 Y44.0682
G01 X34.2231 Y44.0610
G01 X34.4211 Y43.9625
G01 X34.8019 Y43.8668
G01 X34.9741 Y43.7807
G01 X35.0521 Y43.7027
G01 X35.1340 Y43.5390
G01 X35.1340 Y43.3839
G01 X35.0521 Y43.2202
G01 X34.9741 Y43.1421
G01 X34.8104 Y43.0603
G01 X34.3641 Y43.0603
G01 X34.0899 Y43.1517
G01 X34.0792 Y43.1544
G01 X34.0645 Y43.1555
G01 X34.0536 Y43.1544
G01 X34.0428 Y43.1518
G01 X34.0326 Y43.1476
G01 X34.0262 Y43.1440
G01 X34.0173 Y43.1374
G01 X34.0120 Y43.1324
G01 X34.0050 Y43.1238
G01 X33.9993 Y43.1144
G01 X33.9950 Y43.1042
G01 X33.9930 Y43.0971
G01 X33.9914 Y43.0862
G01 X33.9913 Y43.0752
G01 X33.9929 Y43.0642
G01 X33.9961 Y43.0537
G01 X34.0008 Y43.0437
G01 X34.0069 Y43.0345
G01 X34.0143 Y43.0263
G01 X34.0228 Y43.0192
G01 X34.0323 Y43.0135
G01 X34.0425 Y43.0093
G01 X34.3282 Y42.9141
G01 X34.3382 Y42.9115
G01 X34.3519 Y42.9102
G01 X34.8281 Y42.9102
G01 X34.8396 Y42.9111
G01 X34.8509 Y42.9138
G01 X34.8617 Y42.9181
G01 X35.0521 Y43.0134
G01 X35.0638 Y43.0206
G01 X35.0716 Y43.0274
G01 X35.1669 Y43.1227
G01 X35.1757 Y43.1333
G01 X35.1809 Y43.1422
G01 X35.2762 Y43.3326
G01 X35.2805 Y43.3434
G01 X35.2832 Y43.3546
G01 X35.2841 Y43.3662
G01 X35.2841 Y43.5567
G01 X35.2837 Y43.5644
G01 X35.2816 Y43.5758
G01 X35.2762 Y43.5902
G01 X35.1793 Y43.7837
G01 X35.1737 Y43.7924
G01 X35.1669 Y43.8002
G01 X35.0716 Y43.8954
G01 X35.0610 Y43.9042
G01 X35.0521 Y43.9095
G01 X34.8579 Y44.0065
G01 X34.8463 Y44.0104
G01 X34.4733 Y44.1037
G01 X34.3011 Y44.1898
G01 X34.2231 Y44.2678
G01 X34.1412 Y44.4315
G01 X34.1412 Y44.5866
G01 X34.2231 Y44.7503
G01 X34.3011 Y44.8283
G01 X34.4649 Y44.9102
G01 X34.9112 Y44.9102
G01 X35.1853 Y44.8188
G01 X35.1997 Y44.8156
G01 X35.2107 Y44.8150
G01 X35.2217 Y44.8160
G01 X35.2289 Y44.8176
G01 X35.2393 Y44.8213
G01 X35.2490 Y44.8265
G01 X35.2579 Y44.8330
G01 X35.2657 Y44.8408
G01 X35.2723 Y44.8497
G01 X35.2760 Y44.8561
G01 X35.2802 Y44.8663
G01 X35.2822 Y44.8734
G01 X35.2839 Y44.8843
G01 X35.2839 Y44.8953
G01 X35.2823 Y44.9062
G01 X35.2791 Y44.9168
G01 X35.2744 Y44.9268
G01 X35.2683 Y44.9360
G01 X35.2609 Y44.9442
G01 X35.2524 Y44.9512
G01 X35.2462 Y44.9552
G01 X35.2362 Y44.9599
G01 X34.9471 Y45.0564
G01 X34.9336 Y45.0596
G01 X34.9233 Y45.0603
G01 X34.4471 Y45.0603
G01 X34.4318 Y45.0587
G01 X34.4171 Y45.0540
G01 X34.2231 Y44.9571
G01 X34.2142 Y44.9519
G01 X34.2036 Y44.9431
G01 X34.1084 Y44.8478
G01 X34.0977 Y44.8343
G01 X33.9991 Y44.6378
G01 X33.9936 Y44.6234
G01 X33.9916 Y44.6120
G01 X33.9912 Y44.6043
G01 X33.9912 Y44.4138
G01 X33.9916 Y44.4061
G01 X33.9936 Y44.3947
G00 Z1.0000
G00 X35.9912 Y44.9852
G01 F76.20
G01 Z-0.2836
G01 F120.00
G01 X35.9912 Y42.9852
G01 X35.9926 Y42.9706
G01 X35.9944 Y42.9635
G01 X35.9984 Y42.9532
G01 X36.0038 Y42.9436
G01 X36.0106 Y42.9348
G01 X36.0186 Y42.9272
G01 X36.0308 Y42.9191
G01 X36.0409 Y42.9146
G01 X36.0516 Y42.9116
G01 X36.0662 Y42.9102
G01 X36.0772 Y42.9110
G01 X36.0880 Y42.9134
G01 X36.0983 Y42.9174
G01 X36.1079 Y42.9228
G01 X36.1192 Y42.9322
G01 X36.1286 Y42.9436
G01 X36.1340 Y42.9532
G01 X36.1380 Y42.9635
G01 X36.1404 Y42.9742
G01 X36.1412 Y42.9852
G01 X36.1412 Y44.0970
G01 X36.2059 Y44.1617
G01 X36.3696 Y44.2435
G01 X36.6199 Y44.2435
G01 X36.7722 Y44.1674
G01 X36.8483 Y44.0151
G01 X36.8487 Y42.9779
G01 X36.8497 Y42.9706
G01 X36.8527 Y42.9600
G01 X36.8555 Y42.9532
G01 X36.8609 Y42.9436
G01 X36.8677 Y42.9348
G01 X36.8729 Y42.9296
G01 X36.8848 Y42.9209
G01 X36.8946 Y42.9159
G01 X36.9016 Y42.9134
G01 X36.9087 Y42.9116
G01 X36.9197 Y42.9103
G01 X36.9307 Y42.9106
G01 X36.9380 Y42.9116
G01 X36.9451 Y42.9134
G01 X36.9554 Y42.9174
G01 X36.9650 Y42.9228
G01 X36.9737 Y42.9296
G01 X36.9789 Y42.9348
G01 X36.9857 Y42.9436
G01 X36.9912 Y42.9532
G01 X36.9951 Y42.9635
G01 X36.9969 Y42.9706
G01 X36.9983 Y42.9816
G01 X36.9984 Y44.0329
G01 X36.9968 Y44.0482
G01 X36.9921 Y44.0629
G01 X36.8952 Y44.2569
G01 X36.8873 Y44.2694
G01 X36.8798 Y44.2777
G01 X36.8712 Y44.2847
G01 X36.8617 Y44.2904
G01 X36.6712 Y44.3857
G01 X36.6567 Y44.3911
G01 X36.6453 Y44.3932
G01 X36.6376 Y44.3936
G01 X36.3519 Y44.3936
G01 X36.3366 Y44.3920
G01 X36.3254 Y44.3888
G01 X36.3183 Y44.3857
G01 X36.1412 Y44.2971
G01 X36.1412 Y44.9852
G01 X36.1398 Y44.9999
G01 X36.1355 Y45.0140
G01 X36.1286 Y45.0269
G01 X36.1218 Y45.0356
G01 X36.1109 Y45.0455
G01 X36.0983 Y45.0531
G01 X36.0844 Y45.0580
G01 X36.0735 Y45.0599
G01 X36.0588 Y45.0599
G01 X36.0480 Y45.0580
G01 X36.0341 Y45.0531
G01 X36.0215 Y45.0455
G01 X36.0106 Y45.0356
G01 X36.0018 Y45.0238
G01 X35.9969 Y45.0140
G01 X35.9926 Y44.9999
G01 X35.9912 Y44.9852
G00 Z1.0000
G00 X37.7077 Y44.9082
G01 F76.20
G01 Z-0.2836
G01 F120.00
G01 X37.7063 Y44.9010
G01 X37.7054 Y44.8900
G01 X37.7058 Y44.8826
G01 X37.7077 Y44.8718
G01 X37.7098 Y44.8647
G01 X37.7143 Y44.8546
G01 X37.7181 Y44.8483
G01 X37.7249 Y44.8396
G01 X37.8281 Y44.7368
G01 X37.8371 Y44.7304
G01 X37.8470 Y44.7254
G01 X37.8611 Y44.7212
G01 X37.8720 Y44.7198
G01 X37.8831 Y44.7201
G01 X37.8904 Y44.7212
G01 X37.9044 Y44.7254
G01 X37.9174 Y44.7324
G01 X37.9288 Y44.7417
G01 X38.0290 Y44.8424
G01 X38.0353 Y44.8514
G01 X38.0403 Y44.8613
G01 X38.0445 Y44.8754
G01 X38.0459 Y44.8863
G01 X38.0452 Y44.9010
G01 X38.0416 Y44.9153
G01 X38.0353 Y44.9286
G01 X38.0290 Y44.9376
G01 X38.0240 Y44.9431
G01 X37.9233 Y45.0432
G01 X37.9111 Y45.0514
G01 X37.9010 Y45.0559
G01 X37.8904 Y45.0588
G01 X37.8794 Y45.0602
G01 X37.8647 Y45.0595
G01 X37.8504 Y45.0559
G01 X37.8371 Y45.0496
G01 X37.8253 Y45.0408
G01 X37.7249 Y44.9404
G01 X37.7202 Y44.9347
G01 X37.7143 Y44.9254
G01 X37.7112 Y44.9187
G01 X37.7077 Y44.9082
G00 Z1.0000
G00 X37.8007 Y44.3186
G01 F76.20
G01 Z-0.2836
G01 F120.00
G01 X37.8008 Y42.9816
G01 X37.8029 Y42.9670
G01 X37.8079 Y42.9532
G01 X37.8154 Y42.9405
G01 X37.8253 Y42.9296
G01 X37.8371 Y42.9209
G01 X37.8504 Y42.9146
G01 X37.8647 Y42.9110
G01 X37.8794 Y42.9103
G01 X37.8939 Y42.9125
G01 X37.9078 Y42.9174
G01 X37.9174 Y42.9228
G01 X37.9288 Y42.9322
G01 X37.9381 Y42.9436
G01 X37.9435 Y42.9532
G01 X37.9485 Y42.9670
G01 X37.9507 Y42.9816
G01 X37.9507 Y44.3223
G01 X37.9485 Y44.3368
G01 X37.9435 Y44.3507
G01 X37.9360 Y44.3633
G01 X37.9261 Y44.3742
G01 X37.9143 Y44.3829
G01 X37.9010 Y44.3892
G01 X37.8867 Y44.3928
G01 X37.8720 Y44.3935
G01 X37.8575 Y44.3914
G01 X37.8436 Y44.3864
G01 X37.8310 Y44.3788
G01 X37.8201 Y44.3690
G01 X37.8114 Y44.3571
G01 X37.8064 Y44.3473
G01 X37.8021 Y44.3332
G01 X37.8007 Y44.3186
G00 Z1.0000
G00 X38.8079 Y43.7434
G01 F76.20
G01 Z-0.2836
G01 F120.00
G01 X38.8079 Y44.0151
G01 X38.8840 Y44.1674
G01 X39.0363 Y44.2435
G01 X39.3818 Y44.2435
G01 X39.5341 Y44.1674
G01 X39.6102 Y44.0151
G01 X39.6102 Y43.9039
G01 X38.8079 Y43.7434
G00 Z1.0000
G00 X38.6603 Y43.2518
G01 F76.20
G01 Z-0.2836
G01 F120.00
G01 X38.6657 Y43.2374
G01 X38.7610 Y43.0469
G01 X38.7689 Y43.0344
G01 X38.7764 Y43.0261
G01 X38.7850 Y43.0191
G01 X38.7945 Y43.0134
G01 X38.9850 Y42.9181
G01 X38.9921 Y42.9150
G01 X39.0032 Y42.9118
G01 X39.0186 Y42.9102
G01 X39.3995 Y42.9102
G01 X39.4111 Y42.9111
G01 X39.4223 Y42.9138
G01 X39.4331 Y42.9181
G01 X39.6236 Y43.0134
G01 X39.6360 Y43.0212
G01 X39.6442 Y43.0286
G01 X39.6512 Y43.0371
G01 X39.6552 Y43.0433
G01 X39.6599 Y43.0533
G01 X39.6632 Y43.0638
G01 X39.6648 Y43.0748
G01 X39.6648 Y43.0858
G01 X39.6633 Y43.0967
G01 X39.6601 Y43.1073
G01 X39.6554 Y43.1173
G01 X39.6493 Y43.1265
G01 X39.6419 Y43.1347
G01 X39.6334 Y43.1417
G01 X39.6239 Y43.1474
G01 X39.6137 Y43.1517
G01 X39.6030 Y43.1544
G01 X39.5957 Y43.1553
G01 X39.5884 Y43.1555
G01 X39.5774 Y43.1544
G01 X39.5667 Y43.1518
G01 X39.5598 Y43.1492
G01 X39.3818 Y43.0603
G01 X39.0363 Y43.0603
G01 X38.8840 Y43.1364
G01 X38.8079 Y43.2887
G01 X38.8079 Y43.5904
G01 X39.7000 Y43.7688
G01 X39.7106 Y43.7718
G01 X39.7239 Y43.7780
G01 X39.7357 Y43.7868
G01 X39.7433 Y43.7948
G01 X39.7496 Y43.8038
G01 X39.7546 Y43.8137
G01 X39.7580 Y43.8242
G01 X39.7602 Y43.8387
G01 X39.7603 Y44.0329
G01 X39.7587 Y44.0482
G01 X39.7554 Y44.0593
G01 X39.7524 Y44.0664
G01 X39.6571 Y44.2569
G01 X39.6492 Y44.2694
G01 X39.6417 Y44.2777
G01 X39.6331 Y44.2847
G01 X39.6236 Y44.2904
G01 X39.4331 Y44.3857
G01 X39.4260 Y44.3888
G01 X39.4149 Y44.3920
G01 X39.3995 Y44.3936
G01 X39.0186 Y44.3936
G01 X39.0109 Y44.3932
G01 X38.9995 Y44.3911
G01 X38.9850 Y44.3857
G01 X38.7945 Y44.2904
G01 X38.7820 Y44.2825
G01 X38.7737 Y44.2751
G01 X38.7667 Y44.2665
G01 X38.7610 Y44.2569
G01 X38.6657 Y44.0664
G01 X38.6603 Y44.0520
G01 X38.6582 Y44.0406
G01 X38.6578 Y43.2710
G01 X38.6582 Y43.2632
G01 X38.6603 Y43.2518
G00 Z1.0000
G00 X40.4696 Y45.0035
G01 F76.20
G01 Z-0.2836
G01 F120.00
G01 X40.4677 Y44.9926
G01 X40.4673 Y44.9852
G01 X40.4673 Y43.2710
G01 X40.4682 Y43.2594
G01 X40.4709 Y43.2481
G01 X40.4753 Y43.2374
G01 X40.5705 Y43.0469
G01 X40.5784 Y43.0344
G01 X40.5859 Y43.0261
G01 X40.5945 Y43.0191
G01 X40.6041 Y43.0134
G01 X40.7979 Y42.9166
G01 X40.8083 Y42.9129
G01 X40.8191 Y42.9107
G01 X40.8301 Y42.9102
G01 X40.8411 Y42.9113
G01 X40.8553 Y42.9153
G01 X40.8653 Y42.9200
G01 X40.8715 Y42.9240
G01 X40.8800 Y42.9310
G01 X40.8850 Y42.9364
G01 X40.8916 Y42.9453
G01 X40.8952 Y42.9517
G01 X40.8994 Y42.9619
G01 X40.9014 Y42.9690
G01 X40.9029 Y42.9799
G01 X40.9031 Y42.9873
G01 X40.9020 Y42.9983
G01 X40.9004 Y43.0054
G01 X40.8980 Y43.0124
G01 X40.8933 Y43.0224
G01 X40.8893 Y43.0286
G01 X40.8823 Y43.0371
G01 X40.8741 Y43.0445
G01 X40.8649 Y43.0506
G01 X40.6935 Y43.1364
G01 X40.6174 Y43.2887
G01 X40.6171 Y44.9926
G01 X40.6152 Y45.0035
G01 X40.6102 Y45.0173
G01 X40.6048 Y45.0269
G01 X40.5954 Y45.0383
G01 X40.5841 Y45.0476
G01 X40.5745 Y45.0531
G01 X40.5606 Y45.0580
G01 X40.5497 Y45.0599
G01 X40.5350 Y45.0599
G01 X40.5241 Y45.0580
G01 X40.5103 Y45.0531
G01 X40.5007 Y45.0476
G01 X40.4893 Y45.0383
G01 X40.4800 Y45.0269
G01 X40.4745 Y45.0173
G01 X40.4696 Y45.0035
G00 Z1.0000
G00 X41.4222 Y43.3471
G01 F76.20
G01 Z-0.2836
G01 F120.00
G01 X41.4276 Y43.3326
G01 X41.5229 Y43.1422
G01 X41.5281 Y43.1333
G01 X41.5369 Y43.1227
G01 X41.6322 Y43.0274
G01 X41.6428 Y43.0186
G01 X41.6517 Y43.0134
G01 X41.8492 Y42.9150
G01 X41.8604 Y42.9118
G01 X41.8757 Y42.9102
G01 X42.2644 Y42.9106
G01 X42.2758 Y42.9127
G01 X42.2867 Y42.9165
G01 X42.3761 Y42.9611
G01 X42.3810 Y42.9499
G01 X42.3869 Y42.9405
G01 X42.3967 Y42.9296
G01 X42.4055 Y42.9228
G01 X42.4151 Y42.9174
G01 X42.4289 Y42.9125
G01 X42.4398 Y42.9106
G01 X42.4508 Y42.9103
G01 X42.4618 Y42.9116
G01 X42.4689 Y42.9134
G01 X42.4759 Y42.9159
G01 X42.4857 Y42.9209
G01 X42.4947 Y42.9272
G01 X42.5002 Y42.9322
G01 X42.5051 Y42.9376
G01 X42.5115 Y42.9467
G01 X42.5165 Y42.9565
G01 X42.5199 Y42.9670
G01 X42.5218 Y42.9779
G01 X42.5222 Y42.9852
G01 X42.5222 Y44.9852
G01 X42.5218 Y44.9926
G01 X42.5199 Y45.0035
G01 X42.5165 Y45.0140
G01 X42.5115 Y45.0238
G01 X42.5051 Y45.0328
G01 X42.5002 Y45.0383
G01 X42.4947 Y45.0432
G01 X42.4857 Y45.0496
G01 X42.4759 Y45.0546
G01 X42.4689 Y45.0570
G01 X42.4618 Y45.0588
G01 X42.4508 Y45.0602
G01 X42.4398 Y45.0599
G01 X42.4325 Y45.0588
G01 X42.4254 Y45.0570
G01 X42.4151 Y45.0531
G01 X42.4055 Y45.0476
G01 X42.3995 Y45.0432
G01 X42.3915 Y45.0356
G01 X42.3869 Y45.0299
G01 X42.3828 Y45.0238
G01 X42.3778 Y45.0140
G01 X42.3753 Y45.0070
G01 X42.3729 Y44.9962
G01 X42.3721 Y44.9852
G01 X42.3721 Y44.3447
G01 X42.2867 Y44.3873
G01 X42.2758 Y44.3911
G01 X42.2644 Y44.3932
G01 X41.8757 Y44.3936
G01 X41.8604 Y44.3920
G01 X41.8492 Y44.3888
G01 X41.8422 Y44.3857
G01 X41.6517 Y44.2904
G01 X41.6428 Y44.2852
G01 X41.6322 Y44.2764
G01 X41.5369 Y44.1812
G01 X41.5262 Y44.1677
G01 X41.4276 Y43.9712
G01 X41.4222 Y43.9567
G01 X41.4201 Y43.9453
G01 X41.4197 Y43.3662
G01 X41.4201 Y43.3585
G01 X41.4222 Y43.3471
G00 Z1.0000
G00 X42.3721 Y44.1770
G01 F76.20
G01 Z-0.2836
G01 F120.00
G01 X42.3721 Y43.1269
G01 X42.2390 Y43.0603
G01 X41.8934 Y43.0603
G01 X41.7297 Y43.1421
G01 X41.6517 Y43.2202
G01 X41.5698 Y43.3839
G01 X41.5698 Y43.9199
G01 X41.6517 Y44.0836
G01 X41.7297 Y44.1617
G01 X41.8934 Y44.2435
G01 X42.2390 Y44.2435
G01 X42.3721 Y44.1770
G00 Z1.0000
G00 X29.7750 Y65.2980
G01 F76.20
G01 Z-0.2836
G01 F120.00
G01 X29.7759 Y65.2882
G01 X29.7788 Y65.2789
G01 X29.7834 Y65.2702
G01 X29.7896 Y65.2626
G01 X29.7972 Y65.2564
G01 X29.8059 Y65.2518
G01 X29.8152 Y65.2489
G01 X29.8250 Y65.2480
G01 X57.8050 Y65.2480
G01 X57.8123 Y65.2485
G01 X57.8195 Y65.2501
G01 X57.8282 Y65.2537
G01 X57.8344 Y65.2575
G01 X57.8400 Y65.2623
G01 X57.8452 Y65.2682
G01 X57.8500 Y65.2762
G01 X57.8527 Y65.2830
G01 X57.8544 Y65.2902
G01 X57.8550 Y65.2980
G01 X57.8550 Y74.1480
G01 X57.8544 Y74.1558
G01 X57.8527 Y74.1630
G01 X57.8500 Y74.1698
G01 X57.8452 Y74.1778
G01 X57.8400 Y74.1837
G01 X57.8344 Y74.1885
G01 X57.8282 Y74.1923
G01 X57.8214 Y74.1953
G01 X57.8123 Y74.1975
G01 X57.8050 Y74.1980
G01 X29.8250 Y74.1980
G01 X29.8172 Y74.1974
G01 X29.8100 Y74.1957
G01 X29.8032 Y74.1930
G01 X29.7952 Y74.1882
G01 X29.7896 Y74.1834
G01 X29.7848 Y74.1778
G01 X29.7809 Y74.1716
G01 X29.7777 Y74.1644
G01 X29.7759 Y74.1573
G01 X29.7750 Y74.1480
G01 X29.7750 Y65.2980
G00 Z1.0000
G00 X29.8750 Y65.4172
G01 F76.20
G01 Z-0.2836
G01 F120.00
G01 X29.8750 Y74.0288
G01 X29.8750 Y74.0288
G01 X30.3350 Y73.5770
G01 X30.3350 Y65.8690
G01 X29.8750 Y65.4172
G00 Z1.0000
G00 X30.4055 Y65.7980
G01 F76.20
G01 Z-0.2836
G01 F120.00
G01 X57.2440 Y65.7980
G01 X57.6858 Y65.3480
G01 X29.9473 Y65.3480
G01 X30.4055 Y65.7980
G00 Z1.0000
G00 X30.4350 Y73.5480
G01 F76.20
G01 Z-0.2836
G01 F120.00
G01 X41.5675 Y73.5480
G01 X41.5772 Y73.5495
G01 X41.5864 Y73.5528
G01 X41.5928 Y73.5564
G01 X41.6004 Y73.5626
G01 X41.6066 Y73.5702
G01 X41.6102 Y73.5766
G01 X41.6135 Y73.5858
G01 X41.6148 Y73.5931
G01 X41.6150 Y74.0980
G01 X46.0150 Y74.0980
G01 X46.0152 Y73.5931
G01 X46.0165 Y73.5858
G01 X46.0198 Y73.5766
G01 X46.0234 Y73.5702
G01 X46.0296 Y73.5626
G01 X46.0372 Y73.5564
G01 X46.0436 Y73.5528
G01 X46.0528 Y73.5495
G01 X46.0625 Y73.5480
G01 X57.2150 Y73.5480
G01 X57.2150 Y65.8980
G01 X30.4350 Y65.8980
G01 X30.4350 Y73.5480
G00 Z1.0000
G00 X37.1578 Y79.5329
G01 F76.20
G01 Z-0.2836
G01 F120.00
G01 X37.1579 Y76.5292
G01 X37.1601 Y76.5146
G01 X37.1650 Y76.5008
G01 X37.1726 Y76.4882
G01 X37.1825 Y76.4773
G01 X37.1943 Y76.4685
G01 X37.2076 Y76.4622
G01 X37.2218 Y76.4586
G01 X37.2365 Y76.4579
G01 X37.2511 Y76.4601
G01 X37.2649 Y76.4650
G01 X37.2776 Y76.4726
G01 X37.2885 Y76.4825
G01 X37.2972 Y76.4943
G01 X37.3022 Y76.5041
G01 X37.3065 Y76.5182
G01 X37.3079 Y76.5329
G01 X37.3078 Y79.5365
G01 X37.3056 Y79.5511
G01 X37.3007 Y79.5649
G01 X37.2931 Y79.5776
G01 X37.2832 Y79.5885
G01 X37.2714 Y79.5972
G01 X37.2581 Y79.6035
G01 X37.2439 Y79.6071
G01 X37.2292 Y79.6078
G01 X37.2146 Y79.6056
G01 X37.2008 Y79.6007
G01 X37.1882 Y79.5931
G01 X37.1773 Y79.5833
G01 X37.1685 Y79.5714
G01 X37.1635 Y79.5616
G01 X37.1593 Y79.5475
G01 X37.1578 Y79.5329
G00 Z1.0000
G00 X38.5864 Y78.5329
G01 F76.20
G01 Z-0.2836
G01 F120.00
G01 X38.5864 Y76.5329
G01 X38.5872 Y76.5218
G01 X38.5896 Y76.5111
G01 X38.5936 Y76.5008
G01 X38.5990 Y76.4912
G01 X38.6058 Y76.4825
G01 X38.6138 Y76.4749
G01 X38.6229 Y76.4685
G01 X38.6327 Y76.4635
G01 X38.6432 Y76.4601
G01 X38.6541 Y76.4582
G01 X38.6688 Y76.4582
G01 X38.6797 Y76.4601
G01 X38.6901 Y76.4635
G01 X38.7000 Y76.4685
G01 X38.7090 Y76.4749
G01 X38.7170 Y76.4825
G01 X38.7238 Y76.4912
G01 X38.7293 Y76.5008
G01 X38.7342 Y76.5146
G01 X38.7361 Y76.5255
G01 X38.7365 Y78.2161
G01 X38.8487 Y78.3283
G01 X39.1077 Y78.4578
G01 X39.5009 Y78.4578
G01 X39.7484 Y78.3341
G01 X39.8721 Y78.0866
G01 X39.8722 Y76.5292
G01 X39.8735 Y76.5182
G01 X39.8753 Y76.5111
G01 X39.8793 Y76.5008
G01 X39.8848 Y76.4912
G01 X39.8915 Y76.4825
G01 X39.8967 Y76.4773
G01 X39.9055 Y76.4705
G01 X39.9151 Y76.4650
G01 X39.9254 Y76.4611
G01 X39.9325 Y76.4593
G01 X39.9435 Y76.4579
G01 X39.9545 Y76.4582
G01 X39.9618 Y76.4593
G01 X39.9724 Y76.4622
G01 X39.9792 Y76.4650
G01 X39.9888 Y76.4705
G01 X39.9975 Y76.4773
G01 X40.0027 Y76.4825
G01 X40.0095 Y76.4912
G01 X40.0133 Y76.4975
G01 X40.0165 Y76.5041
G01 X40.0199 Y76.5146
G01 X40.0218 Y76.5255
G01 X40.0222 Y76.5329
G01 X40.0221 Y78.1081
G01 X40.0197 Y78.1234
G01 X40.0143 Y78.1378
G01 X39.8714 Y78.4236
G01 X39.8657 Y78.4331
G01 X39.8586 Y78.4417
G01 X39.8533 Y78.4468
G01 X39.8474 Y78.4514
G01 X39.8378 Y78.4571
G01 X39.5521 Y78.6000
G01 X39.5414 Y78.6043
G01 X39.5263 Y78.6075
G01 X39.0900 Y78.6079
G01 X39.0746 Y78.6063
G01 X39.0672 Y78.6043
G01 X39.0564 Y78.6000
G01 X38.7707 Y78.4571
G01 X38.7563 Y78.4477
G01 X38.7365 Y78.4283
G01 X38.7365 Y78.5329
G01 X38.7350 Y78.5475
G01 X38.7308 Y78.5616
G01 X38.7238 Y78.5745
G01 X38.7145 Y78.5859
G01 X38.7031 Y78.5952
G01 X38.6935 Y78.6007
G01 X38.6832 Y78.6047
G01 X38.6761 Y78.6065
G01 X38.6651 Y78.6078
G01 X38.6541 Y78.6075
G01 X38.6468 Y78.6065
G01 X38.6361 Y78.6035
G01 X38.6261 Y78.5990
G01 X38.6197 Y78.5952
G01 X38.6110 Y78.5885
G01 X38.6034 Y78.5805
G01 X38.5971 Y78.5714
G01 X38.5921 Y78.5616
G01 X38.5886 Y78.5511
G01 X38.5868 Y78.5402
G01 X38.5864 Y78.5329
G00 Z1.0000
G00 X41.4508 Y78.3436
G01 F76.20
G01 Z-0.2836
G01 F120.00
G01 X41.6791 Y78.4578
G01 X42.2151 Y78.4578
G01 X42.4741 Y78.3283
G01 X42.5998 Y78.2027
G01 X42.7292 Y77.9437
G01 X42.7292 Y77.1220
G01 X42.5998 Y76.8630
G01 X42.4741 Y76.7374
G01 X42.2151 Y76.6079
G01 X41.6791 Y76.6079
G01 X41.4508 Y76.7221
G01 X41.4508 Y78.3436
G00 Z1.0000
G00 X44.0172 Y78.5511
G01 F76.20
G01 Z-0.2836
G01 F120.00
G01 X44.0153 Y78.5402
G01 X44.0150 Y78.5329
G01 X44.0154 Y76.9537
G01 X44.0174 Y76.9423
G01 X44.0229 Y76.9279
G01 X44.1657 Y76.6422
G01 X44.1714 Y76.6326
G01 X44.1785 Y76.6240
G01 X44.1839 Y76.6189
G01 X44.1897 Y76.6143
G01 X44.1993 Y76.6086
G01 X44.4850 Y76.4657
G01 X44.4921 Y76.4626
G01 X44.5032 Y76.4594
G01 X44.5186 Y76.4578
G01 X44.9471 Y76.4578
G01 X44.9587 Y76.4587
G01 X44.9663 Y76.4603
G01 X44.9807 Y76.4657
G01 X45.2664 Y76.6086
G01 X45.2808 Y76.6180
G01 X45.3007 Y76.6374
G01 X45.3010 Y76.5255
G01 X45.3021 Y76.5182
G01 X45.3051 Y76.5076
G01 X45.3079 Y76.5008
G01 X45.3133 Y76.4912
G01 X45.3227 Y76.4798
G01 X45.3340 Y76.4705
G01 X45.3470 Y76.4635
G01 X45.3611 Y76.4593
G01 X45.3757 Y76.4578
G01 X45.3904 Y76.4593
G01 X45.4044 Y76.4635
G01 X45.4174 Y76.4705
G01 X45.4261 Y76.4773
G01 X45.4313 Y76.4825
G01 X45.4381 Y76.4912
G01 X45.4419 Y76.4975
G01 X45.4450 Y76.5041
G01 X45.4485 Y76.5146
G01 X45.4504 Y76.5255
G01 X45.4508 Y76.5329
G01 X45.4508 Y78.5329
G01 X45.4499 Y78.5439
G01 X45.4475 Y78.5546
G01 X45.4435 Y78.5649
G01 X45.4381 Y78.5745
G01 X45.4313 Y78.5833
G01 X45.4233 Y78.5909
G01 X45.4143 Y78.5972
G01 X45.4044 Y78.6022
G01 X45.3939 Y78.6056
G01 X45.3831 Y78.6075
G01 X45.3684 Y78.6075
G01 X45.3575 Y78.6056
G01 X45.3470 Y78.6022
G01 X45.3371 Y78.5972
G01 X45.3281 Y78.5909
G01 X45.3201 Y78.5833
G01 X45.3133 Y78.5745
G01 X45.3079 Y78.5649
G01 X45.3029 Y78.5511
G01 X45.3010 Y78.5402
G01 X45.3007 Y76.8497
G01 X45.1884 Y76.7374
G01 X44.9294 Y76.6079
G01 X44.5363 Y76.6079
G01 X44.2888 Y76.7316
G01 X44.1650 Y76.9791
G01 X44.1647 Y78.5402
G01 X44.1628 Y78.5511
G01 X44.1578 Y78.5649
G01 X44.1524 Y78.5745
G01 X44.1431 Y78.5859
G01 X44.1317 Y78.5952
G01 X44.1221 Y78.6007
G01 X44.1082 Y78.6056
G01 X44.0974 Y78.6075
G01 X44.0826 Y78.6075
G01 X44.0718 Y78.6056
G01 X44.0579 Y78.6007
G01 X44.0483 Y78.5952
G01 X44.0369 Y78.5859
G01 X44.0276 Y78.5745
G01 X44.0222 Y78.5649
G01 X44.0172 Y78.5511
G00 Z1.0000
G00 X46.3029 Y78.5146
G01 F76.20
G01 Z-0.2836
G01 F120.00
G01 X46.3064 Y78.5041
G01 X46.3114 Y78.4943
G01 X46.3177 Y78.4853
G01 X46.3253 Y78.4773
G01 X46.3340 Y78.4705
G01 X46.3436 Y78.4650
G01 X46.3539 Y78.4611
G01 X46.3647 Y78.4586
G01 X46.3757 Y78.4578
G01 X46.7292 Y78.4578
G01 X46.7296 Y76.9537
G01 X46.7317 Y76.9423
G01 X46.7372 Y76.9279
G01 X46.8837 Y76.6357
G01 X46.8903 Y76.6267
G01 X46.8954 Y76.6214
G01 X46.9040 Y76.6143
G01 X46.9103 Y76.6103
G01 X47.1993 Y76.4657
G01 X47.2137 Y76.4603
G01 X47.2213 Y76.4587
G01 X47.2329 Y76.4578
G01 X47.5186 Y76.4578
G01 X47.5259 Y76.4582
G01 X47.5368 Y76.4601
G01 X47.5473 Y76.4635
G01 X47.5571 Y76.4685
G01 X47.5662 Y76.4749
G01 X47.5742 Y76.4825
G01 X47.5810 Y76.4912
G01 X47.5847 Y76.4975
G01 X47.5892 Y76.5076
G01 X47.5922 Y76.5182
G01 X47.5932 Y76.5255
G01 X47.5935 Y76.5365
G01 X47.5922 Y76.5475
G01 X47.5904 Y76.5546
G01 X47.5864 Y76.5649
G01 X47.5810 Y76.5745
G01 X47.5742 Y76.5833
G01 X47.5690 Y76.5885
G01 X47.5603 Y76.5952
G01 X47.5507 Y76.6007
G01 X47.5404 Y76.6047
G01 X47.5332 Y76.6065
G01 X47.5186 Y76.6079
G01 X47.2506 Y76.6079
G01 X47.0031 Y76.7316
G01 X46.8793 Y76.9791
G01 X46.8793 Y78.4578
G01 X47.5259 Y78.4582
G01 X47.5368 Y78.4601
G01 X47.5507 Y78.4650
G01 X47.5633 Y78.4726
G01 X47.5742 Y78.4825
G01 X47.5829 Y78.4943
G01 X47.5879 Y78.5041
G01 X47.5922 Y78.5182
G01 X47.5936 Y78.5329
G01 X47.5922 Y78.5475
G01 X47.5879 Y78.5616
G01 X47.5829 Y78.5714
G01 X47.5742 Y78.5833
G01 X47.5633 Y78.5931
G01 X47.5507 Y78.6007
G01 X47.5368 Y78.6056
G01 X47.5259 Y78.6075
G01 X46.8793 Y78.6079
G01 X46.8792 Y79.5365
G01 X46.8779 Y79.5475
G01 X46.8761 Y79.5546
G01 X46.8721 Y79.5649
G01 X46.8667 Y79.5745
G01 X46.8599 Y79.5833
G01 X46.8547 Y79.5885
G01 X46.8460 Y79.5952
G01 X46.8364 Y79.6007
G01 X46.8261 Y79.6047
G01 X46.8189 Y79.6065
G01 X46.8116 Y79.6075
G01 X46.8006 Y79.6078
G01 X46.7896 Y79.6065
G01 X46.7825 Y79.6047
G01 X46.7756 Y79.6022
G01 X46.7657 Y79.5972
G01 X46.7539 Y79.5885
G01 X46.7487 Y79.5833
G01 X46.7419 Y79.5745
G01 X46.7365 Y79.5649
G01 X46.7336 Y79.5581
G01 X46.7307 Y79.5475
G01 X46.7296 Y79.5402
G01 X46.7292 Y78.6079
G01 X46.3757 Y78.6079
G01 X46.3611 Y78.6065
G01 X46.3470 Y78.6022
G01 X46.3340 Y78.5952
G01 X46.3253 Y78.5885
G01 X46.3201 Y78.5833
G01 X46.3114 Y78.5714
G01 X46.3051 Y78.5581
G01 X46.3015 Y78.5439
G01 X46.3008 Y78.5292
G01 X46.3029 Y78.5146
G00 Z1.0000
G00 X48.1601 Y76.5146
G01 F76.20
G01 Z-0.2836
G01 F120.00
G01 X48.1650 Y76.5008
G01 X48.1705 Y76.4912
G01 X48.1773 Y76.4825
G01 X48.1853 Y76.4749
G01 X48.1943 Y76.4685
G01 X48.2076 Y76.4622
G01 X48.2182 Y76.4593
G01 X48.2329 Y76.4578
G01 X50.0900 Y76.4578
G01 X50.0974 Y76.4582
G01 X50.1082 Y76.4601
G01 X50.1187 Y76.4635
G01 X50.1286 Y76.4685
G01 X50.1376 Y76.4749
G01 X50.1431 Y76.4798
G01 X50.1480 Y76.4853
G01 X50.1544 Y76.4943
G01 X50.1593 Y76.5041
G01 X50.1628 Y76.5146
G01 X50.1647 Y76.5255
G01 X50.1650 Y76.5329
G01 X50.1647 Y76.5402
G01 X50.1628 Y76.5511
G01 X50.1593 Y76.5616
G01 X50.1562 Y76.5682
G01 X50.1524 Y76.5745
G01 X50.1456 Y76.5833
G01 X50.1404 Y76.5885
G01 X50.1317 Y76.5952
G01 X50.1221 Y76.6007
G01 X50.1118 Y76.6047
G01 X50.1046 Y76.6065
G01 X50.0937 Y76.6078
G01 X48.4140 Y76.6079
G01 X50.0002 Y78.1941
G01 X50.0077 Y78.2029
G01 X50.0138 Y78.2127
G01 X50.0183 Y78.2234
G01 X50.1612 Y78.6520
G01 X50.1638 Y78.6620
G01 X50.1650 Y78.6757
G01 X50.1650 Y78.9614
G01 X50.1641 Y78.9730
G01 X50.1615 Y78.9843
G01 X50.1571 Y78.9950
G01 X50.0143 Y79.2807
G01 X50.0090 Y79.2896
G01 X50.0002 Y79.3002
G01 X49.8573 Y79.4431
G01 X49.8495 Y79.4498
G01 X49.8409 Y79.4555
G01 X49.5521 Y79.6000
G01 X49.5414 Y79.6043
G01 X49.5301 Y79.6070
G01 X49.5186 Y79.6079
G01 X48.7966 Y79.6075
G01 X48.7815 Y79.6043
G01 X48.7707 Y79.6000
G01 X48.4850 Y79.4571
G01 X48.4761 Y79.4519
G01 X48.4655 Y79.4431
G01 X48.3227 Y79.3002
G01 X48.3177 Y79.2947
G01 X48.3114 Y79.2857
G01 X48.3064 Y79.2759
G01 X48.3029 Y79.2654
G01 X48.3010 Y79.2545
G01 X48.3008 Y79.2435
G01 X48.3021 Y79.2325
G01 X48.3039 Y79.2254
G01 X48.3079 Y79.2151
G01 X48.3133 Y79.2055
G01 X48.3201 Y79.1968
G01 X48.3253 Y79.1915
G01 X48.3340 Y79.1848
G01 X48.3436 Y79.1793
G01 X48.3539 Y79.1753
G01 X48.3647 Y79.1729
G01 X48.3757 Y79.1721
G01 X48.3867 Y79.1729
G01 X48.3975 Y79.1753
G01 X48.4078 Y79.1793
G01 X48.4174 Y79.1848
G01 X48.4261 Y79.1915
G01 X48.5630 Y79.3283
G01 X48.8220 Y79.4578
G01 X49.5009 Y79.4578
G01 X49.7598 Y79.3283
G01 X49.8855 Y79.2027
G01 X50.0150 Y78.9437
G01 X50.0150 Y78.6879
G01 X49.8816 Y78.2877
G01 X48.1798 Y76.5859
G01 X48.1749 Y76.5805
G01 X48.1685 Y76.5714
G01 X48.1635 Y76.5616
G01 X48.1601 Y76.5511
G01 X48.1582 Y76.5402
G01 X48.1578 Y76.5329
G01 X48.1582 Y76.5255
G01 X48.1601 Y76.5146
G00 Z1.0000
G00 X46.1150 Y74.0980
G01 F76.20
G01 Z-0.2836
G01 F120.00
G01 X57.6858 Y74.0980
G01 X57.6858 Y74.0980
G01 X57.2440 Y73.6480
G01 X46.1150 Y73.6480
G01 X46.1150 Y74.0980
G00 Z1.0000
G00 X41.5150 Y73.6480
G01 F76.20
G01 Z-0.2836
G01 F120.00
G01 X30.4055 Y73.6480
G01 X29.9473 Y74.0980
G01 X41.5150 Y74.0980
G01 X41.5150 Y73.6480
G00 Z1.0000
G00 X41.3029 Y75.5146
G01 F76.20
G01 Z-0.2836
G01 F120.00
G01 X41.3079 Y75.5008
G01 X41.3133 Y75.4912
G01 X41.3201 Y75.4825
G01 X41.3310 Y75.4726
G01 X41.3436 Y75.4650
G01 X41.3539 Y75.4611
G01 X41.3684 Y75.4582
G01 X41.3794 Y75.4579
G01 X41.3904 Y75.4593
G01 X41.4044 Y75.4635
G01 X41.4143 Y75.4685
G01 X41.4261 Y75.4773
G01 X41.4337 Y75.4853
G01 X41.4419 Y75.4975
G01 X41.4475 Y75.5111
G01 X41.4499 Y75.5218
G01 X41.4508 Y75.5329
G01 X41.4508 Y76.5543
G01 X41.6279 Y76.4657
G01 X41.6423 Y76.4603
G01 X41.6537 Y76.4582
G01 X42.2329 Y76.4578
G01 X42.2482 Y76.4594
G01 X42.2593 Y76.4626
G01 X42.5521 Y76.6086
G01 X42.5610 Y76.6138
G01 X42.5716 Y76.6227
G01 X42.7145 Y76.7655
G01 X42.7233 Y76.7761
G01 X42.7285 Y76.7850
G01 X42.8714 Y77.0707
G01 X42.8758 Y77.0815
G01 X42.8784 Y77.0927
G01 X42.8793 Y77.1043
G01 X42.8793 Y77.9614
G01 X42.8777 Y77.9768
G01 X42.8730 Y77.9915
G01 X42.7285 Y78.2807
G01 X42.7233 Y78.2896
G01 X42.7145 Y78.3002
G01 X42.5716 Y78.4431
G01 X42.5638 Y78.4498
G01 X42.5521 Y78.4571
G01 X42.2664 Y78.6000
G01 X42.2557 Y78.6043
G01 X42.2444 Y78.6070
G01 X42.2329 Y78.6079
G01 X41.6537 Y78.6075
G01 X41.6386 Y78.6043
G01 X41.6279 Y78.6000
G01 X41.4508 Y78.5114
G01 X41.4507 Y78.5365
G01 X41.4493 Y78.5475
G01 X41.4450 Y78.5616
G01 X41.4401 Y78.5714
G01 X41.4313 Y78.5833
G01 X41.4233 Y78.5909
G01 X41.4111 Y78.5990
G01 X41.3975 Y78.6047
G01 X41.3831 Y78.6075
G01 X41.3684 Y78.6075
G01 X41.3539 Y78.6047
G01 X41.3403 Y78.5990
G01 X41.3281 Y78.5909
G01 X41.3177 Y78.5805
G01 X41.3095 Y78.5682
G01 X41.3039 Y78.5546
G01 X41.3015 Y78.5439
G01 X41.3007 Y78.5329
G01 X41.3007 Y75.5329
G01 X41.3010 Y75.5255
G01 X41.3029 Y75.5146
G00 Z1.0000
G00 X43.1948 Y69.9420
G01 F76.20
G01 Z-0.2836
G01 F120.00
G01 X43.2003 Y69.9275
G01 X43.2479 Y69.8323
G01 X43.2531 Y69.8234
G01 X43.2619 Y69.8128
G01 X43.3096 Y69.7652
G01 X43.3179 Y69.7580
G01 X43.3305 Y69.7504
G01 X43.3444 Y69.7455
G01 X43.3553 Y69.7436
G01 X43.3700 Y69.7436
G01 X43.3809 Y69.7455
G01 X43.3947 Y69.7504
G01 X43.4073 Y69.7580
G01 X43.4182 Y69.7678
G01 X43.4250 Y69.7766
G01 X43.4305 Y69.7862
G01 X43.4344 Y69.7965
G01 X43.4362 Y69.8036
G01 X43.4376 Y69.8146
G01 X43.4373 Y69.8256
G01 X43.4362 Y69.8329
G01 X43.4333 Y69.8435
G01 X43.4270 Y69.8568
G01 X43.4206 Y69.8658
G01 X43.3767 Y69.9103
G01 X43.3424 Y69.9788
G01 X43.3424 Y70.1815
G01 X43.3767 Y70.2500
G01 X43.4071 Y70.2804
G01 X43.4756 Y70.3146
G01 X43.5409 Y70.3146
G01 X43.6554 Y70.2765
G01 X44.2170 Y69.7150
G01 X44.2257 Y69.7082
G01 X44.2353 Y69.7028
G01 X44.2456 Y69.6988
G01 X44.2564 Y69.6964
G01 X44.2637 Y69.6957
G01 X44.2747 Y69.6959
G01 X44.2856 Y69.6978
G01 X44.2961 Y69.7013
G01 X44.3060 Y69.7063
G01 X44.3150 Y69.7126
G01 X44.3230 Y69.7202
G01 X44.3298 Y69.7289
G01 X44.3352 Y69.7385
G01 X44.3392 Y69.7488
G01 X44.3410 Y69.7560
G01 X44.3423 Y69.7669
G01 X44.3424 Y70.3897
G01 X44.3410 Y70.4043
G01 X44.3367 Y70.4184
G01 X44.3317 Y70.4282
G01 X44.3254 Y70.4373
G01 X44.3178 Y70.4453
G01 X44.3091 Y70.4521
G01 X44.2995 Y70.4575
G01 X44.2856 Y70.4625
G01 X44.2747 Y70.4643
G01 X44.2637 Y70.4646
G01 X44.2527 Y70.4633
G01 X44.2387 Y70.4590
G01 X44.2288 Y70.4540
G01 X44.2198 Y70.4477
G01 X44.2118 Y70.4401
G01 X44.2050 Y70.4314
G01 X44.1995 Y70.4217
G01 X44.1956 Y70.4114
G01 X44.1932 Y70.4007
G01 X44.1923 Y70.3897
G01 X44.1923 Y69.9518
G01 X43.7490 Y70.3951
G01 X43.7370 Y70.4048
G01 X43.7304 Y70.4087
G01 X43.7197 Y70.4132
G01 X43.5768 Y70.4609
G01 X43.5668 Y70.4634
G01 X43.5531 Y70.4647
G01 X43.4540 Y70.4646
G01 X43.4387 Y70.4622
G01 X43.4278 Y70.4584
G01 X43.3260 Y70.4076
G01 X43.3174 Y70.4019
G01 X43.3096 Y70.3951
G01 X43.2619 Y70.3475
G01 X43.2531 Y70.3369
G01 X43.2479 Y70.3280
G01 X43.1986 Y70.2292
G01 X43.1939 Y70.2145
G01 X43.1923 Y70.1992
G01 X43.1923 Y69.9611
G01 X43.1932 Y69.9495
G01 X43.1948 Y69.9420
G00 Z1.0000
G00 X43.1946 Y69.3714
G01 F76.20
G01 Z-0.2836
G01 F120.00
G01 X43.1981 Y69.3610
G01 X43.2030 Y69.3511
G01 X43.2094 Y69.3421
G01 X43.2170 Y69.3341
G01 X43.2257 Y69.3273
G01 X43.2353 Y69.3218
G01 X43.2491 Y69.3169
G01 X43.2600 Y69.3150
G01 X43.9695 Y69.3146
G01 X44.0840 Y69.2765
G01 X44.1542 Y69.2063
G01 X44.1923 Y69.0918
G01 X44.1923 Y69.0087
G01 X44.1932 Y68.9977
G01 X44.1956 Y68.9869
G01 X44.1995 Y68.9766
G01 X44.2050 Y68.9670
G01 X44.2118 Y68.9583
G01 X44.2198 Y68.9507
G01 X44.2288 Y68.9444
G01 X44.2387 Y68.9394
G01 X44.2456 Y68.9369
G01 X44.2527 Y68.9351
G01 X44.2637 Y68.9338
G01 X44.2747 Y68.9340
G01 X44.2820 Y68.9351
G01 X44.2892 Y68.9369
G01 X44.2995 Y68.9409
G01 X44.3091 Y68.9463
G01 X44.3178 Y68.9531
G01 X44.3230 Y68.9583
G01 X44.3298 Y68.9670
G01 X44.3352 Y68.9766
G01 X44.3380 Y68.9834
G01 X44.3410 Y68.9941
G01 X44.3424 Y69.0087
G01 X44.3424 Y69.1040
G01 X44.3412 Y69.1177
G01 X44.3386 Y69.1277
G01 X44.2881 Y69.2777
G01 X44.2826 Y69.2879
G01 X44.2755 Y69.2971
G01 X44.1776 Y69.3951
G01 X44.1656 Y69.4048
G01 X44.1589 Y69.4087
G01 X44.1483 Y69.4132
G01 X44.0054 Y69.4609
G01 X43.9954 Y69.4634
G01 X43.9851 Y69.4646
G01 X43.2637 Y69.4646
G01 X43.2527 Y69.4633
G01 X43.2456 Y69.4615
G01 X43.2320 Y69.4558
G01 X43.2257 Y69.4521
G01 X43.2170 Y69.4453
G01 X43.2071 Y69.4344
G01 X43.1995 Y69.4217
G01 X43.1956 Y69.4114
G01 X43.1938 Y69.4043
G01 X43.1927 Y69.3970
G01 X43.1924 Y69.3860
G01 X43.1946 Y69.3714
G00 Z1.0000
G00 X57.7550 Y74.0256
G01 F76.20
G01 Z-0.2836
G01 F120.00
G01 X57.7550 Y65.4204
G01 X57.7550 Y65.4204
G01 X57.3150 Y65.8685
G01 X57.3150 Y73.5775
G01 X57.7550 Y74.0256
G00 Z1.0000
G00 X63.6416 Y73.5624
G01 F76.20
G01 Z-0.2836
G01 F120.00
G01 X63.6451 Y73.5520
G01 X63.6500 Y73.5421
G01 X63.6564 Y73.5331
G01 X63.6640 Y73.5251
G01 X63.6727 Y73.5183
G01 X63.6823 Y73.5128
G01 X63.6961 Y73.5079
G01 X63.7070 Y73.5060
G01 X64.4165 Y73.5056
G01 X64.5310 Y73.4675
G01 X64.6012 Y73.3973
G01 X64.6393 Y73.2828
G01 X64.6393 Y73.1997
G01 X64.6402 Y73.1887
G01 X64.6426 Y73.1779
G01 X64.6465 Y73.1676
G01 X64.6520 Y73.1580
G01 X64.6588 Y73.1493
G01 X64.6668 Y73.1417
G01 X64.6758 Y73.1354
G01 X64.6857 Y73.1304
G01 X64.6926 Y73.1279
G01 X64.6997 Y73.1261
G01 X64.7107 Y73.1248
G01 X64.7217 Y73.1250
G01 X64.7290 Y73.1261
G01 X64.7362 Y73.1279
G01 X64.7465 Y73.1319
G01 X64.7561 Y73.1373
G01 X64.7648 Y73.1441
G01 X64.7700 Y73.1493
G01 X64.7768 Y73.1580
G01 X64.7822 Y73.1676
G01 X64.7850 Y73.1744
G01 X64.7880 Y73.1851
G01 X64.7894 Y73.1997
G01 X64.7894 Y73.2950
G01 X64.7882 Y73.3087
G01 X64.7856 Y73.3187
G01 X64.7351 Y73.4687
G01 X64.7296 Y73.4789
G01 X64.7225 Y73.4881
G01 X64.6246 Y73.5861
G01 X64.6126 Y73.5958
G01 X64.6059 Y73.5997
G01 X64.5953 Y73.6042
G01 X64.4524 Y73.6519
G01 X64.4424 Y73.6544
G01 X64.4321 Y73.6556
G01 X63.7107 Y73.6556
G01 X63.6997 Y73.6543
G01 X63.6926 Y73.6525
G01 X63.6790 Y73.6468
G01 X63.6727 Y73.6431
G01 X63.6640 Y73.6363
G01 X63.6541 Y73.6254
G01 X63.6465 Y73.6127
G01 X63.6426 Y73.6024
G01 X63.6408 Y73.5953
G01 X63.6397 Y73.5880
G01 X63.6394 Y73.5770
G01 X63.6416 Y73.5624
G00 Z1.0000
G00 X63.6393 Y74.5807
G01 F76.20
G01 Z-0.2836
G01 F120.00
G01 X63.6394 Y73.9579
G01 X63.6408 Y73.9470
G01 X63.6426 Y73.9398
G01 X63.6465 Y73.9295
G01 X63.6520 Y73.9199
G01 X63.6588 Y73.9112
G01 X63.6668 Y73.9036
G01 X63.6758 Y73.8973
G01 X63.6857 Y73.8923
G01 X63.6997 Y73.8880
G01 X63.7070 Y73.8869
G01 X63.7181 Y73.8867
G01 X63.7290 Y73.8880
G01 X63.7362 Y73.8898
G01 X63.7498 Y73.8954
G01 X63.7561 Y73.8992
G01 X63.7648 Y73.9060
G01 X63.7747 Y73.9169
G01 X63.7822 Y73.9295
G01 X63.7862 Y73.9398
G01 X63.7880 Y73.9470
G01 X63.7894 Y73.9616
G01 X63.7894 Y74.4153
G01 X64.0487 Y74.1885
G01 X64.0610 Y74.1806
G01 X64.0711 Y74.1763
G01 X64.0781 Y74.1743
G01 X64.0926 Y74.1723
G01 X64.1071 Y74.1732
G01 X64.1178 Y74.1757
G01 X64.1280 Y74.1798
G01 X64.1344 Y74.1833
G01 X64.1433 Y74.1896
G01 X64.1512 Y74.1973
G01 X64.1579 Y74.2059
G01 X64.1616 Y74.2122
G01 X64.1660 Y74.2222
G01 X64.1690 Y74.2328
G01 X64.1703 Y74.2437
G01 X64.1704 Y74.3725
G01 X64.2046 Y74.4410
G01 X64.2350 Y74.4714
G01 X64.3035 Y74.5056
G01 X64.5062 Y74.5056
G01 X64.5747 Y74.4714
G01 X64.6051 Y74.4410
G01 X64.6393 Y74.3725
G01 X64.6393 Y74.1222
G01 X64.6051 Y74.0537
G01 X64.5611 Y74.0092
G01 X64.5530 Y73.9970
G01 X64.5473 Y73.9834
G01 X64.5449 Y73.9726
G01 X64.5441 Y73.9616
G01 X64.5449 Y73.9506
G01 X64.5473 Y73.9398
G01 X64.5498 Y73.9329
G01 X64.5548 Y73.9230
G01 X64.5611 Y73.9140
G01 X64.5687 Y73.9060
G01 X64.5806 Y73.8973
G01 X64.5904 Y73.8923
G01 X64.6045 Y73.8880
G01 X64.6191 Y73.8866
G01 X64.6338 Y73.8880
G01 X64.6444 Y73.8910
G01 X64.6577 Y73.8973
G01 X64.6667 Y73.9036
G01 X64.7198 Y73.9562
G01 X64.7286 Y73.9668
G01 X64.7339 Y73.9757
G01 X64.7831 Y74.0744
G01 X64.7878 Y74.0891
G01 X64.7894 Y74.1045
G01 X64.7894 Y74.3902
G01 X64.7878 Y74.4055
G01 X64.7846 Y74.4167
G01 X64.7323 Y74.5220
G01 X64.7266 Y74.5307
G01 X64.7198 Y74.5385
G01 X64.6722 Y74.5861
G01 X64.6616 Y74.5949
G01 X64.6527 Y74.6002
G01 X64.5540 Y74.6494
G01 X64.5393 Y74.6541
G01 X64.5239 Y74.6557
G01 X64.2858 Y74.6557
G01 X64.2705 Y74.6541
G01 X64.2558 Y74.6494
G01 X64.1570 Y74.6002
G01 X64.1481 Y74.5949
G01 X64.1375 Y74.5861
G01 X64.0899 Y74.5385
G01 X64.0811 Y74.5279
G01 X64.0758 Y74.5190
G01 X64.0282 Y74.4237
G01 X64.0231 Y74.4103
G01 X63.7638 Y74.6371
G01 X63.7550 Y74.6437
G01 X63.7454 Y74.6490
G01 X63.7386 Y74.6517
G01 X63.7280 Y74.6545
G01 X63.7208 Y74.6554
G01 X63.7098 Y74.6556
G01 X63.7026 Y74.6548
G01 X63.6919 Y74.6523
G01 X63.6850 Y74.6497
G01 X63.6753 Y74.6447
G01 X63.6664 Y74.6384
G01 X63.6610 Y74.6334
G01 X63.6561 Y74.6280
G01 X63.6499 Y74.6190
G01 X63.6450 Y74.6092
G01 X63.6425 Y74.6023
G01 X63.6401 Y74.5916
G01 X63.6393 Y74.5807
G00 Z1.0000
G00 X67.8746 Y74.9423
G01 F76.20
G01 Z-0.2836
G01 F120.00
G01 X67.8800 Y74.9279
G01 X68.0229 Y74.6422
G01 X68.0281 Y74.6333
G01 X68.0346 Y74.6251
G01 X68.1798 Y74.4798
G01 X68.1853 Y74.4749
G01 X68.1943 Y74.4685
G01 X68.2041 Y74.4635
G01 X68.2182 Y74.4593
G01 X68.2292 Y74.4579
G01 X68.2402 Y74.4582
G01 X68.2511 Y74.4601
G01 X68.2649 Y74.4650
G01 X68.2745 Y74.4705
G01 X68.2832 Y74.4773
G01 X68.2909 Y74.4853
G01 X68.2972 Y74.4943
G01 X68.3022 Y74.5041
G01 X68.3065 Y74.5182
G01 X68.3079 Y74.5329
G01 X68.3071 Y74.5439
G01 X68.3047 Y74.5546
G01 X68.2990 Y74.5682
G01 X68.2931 Y74.5776
G01 X68.2859 Y74.5859
G01 X68.1517 Y74.7202
G01 X68.0222 Y74.9791
G01 X68.0222 Y75.6580
G01 X68.1517 Y75.9170
G01 X68.2773 Y76.0426
G01 X68.5363 Y76.1721
G01 X68.7921 Y76.1721
G01 X69.1923 Y76.0387
G01 X70.8941 Y74.3369
G01 X70.9024 Y74.3297
G01 X70.9118 Y74.3238
G01 X70.9219 Y74.3193
G01 X70.9325 Y74.3164
G01 X70.9435 Y74.3151
