(G-CODE GENERATED BY FLATCAM v8.93 - www.flatcam.org - Version Date: 2019/08/10)

(Name: cuivre_cutout_cnc)
(Type: G-code from Geometry)
(Units: MM)

(Created on Monday, 28 October 2019 at 21:32)

(TOOL DIAMETER: 1.0 mm)
(Feedrate: 120.0 mm/min)
(Feedrate_Z: 76.2 mm/min)
(Feedrate rapids 76.2 mm/min)

(Z_Cut: -1.6 mm)
(DepthPerCut: 0.4 mm <=>4 passes)
(Z_Move: 1.0 mm)
(Z Toolchange: 12.7 mm)
(X,Y Toolchange: 0.0000, 0.0000 mm)
(Z Start: None mm)
(Z End: 12.7 mm)
(Steps per circle: 128)
(Postprocessor Geometry: default)

(X range: -129.2501 ...    0.7002  mm)
(Y range:   -0.2501 ...  100.6132  mm)

(Spindle Speed: 12000 RPM)

G21
G90
G94

G01 F120.00
G00 Z1.0000

M03 S12000
G00 X-0.2998 Y-0.2501
G01 F76.20
G01 Z-0.4000
G01 F120.00
G01 X-30.5374 Y-0.2501
G00 X-30.5374 Y-0.2501
G01 F76.20
G01 Z-0.8000
G01 F120.00
G01 X-0.2998 Y-0.2501
G00 X-0.2998 Y-0.2501
G01 F76.20
G01 Z-1.2000
G01 F120.00
G01 X-30.5374 Y-0.2501
G00 X-30.5374 Y-0.2501
G01 F76.20
G01 Z-1.6000
G01 F120.00
G01 X-0.2998 Y-0.2501
G00 Z1.0000
G00 X-0.2998 Y-0.2501
G01 F76.20
G01 Z-0.4000
G01 F120.00
G01 X-0.2018 Y-0.2452
G01 X-0.1047 Y-0.2308
G01 X-0.0096 Y-0.2070
G01 X0.0828 Y-0.1739
G01 X0.1716 Y-0.1320
G01 X0.2557 Y-0.0815
G01 X0.3346 Y-0.0231
G01 X0.4073 Y0.0428
G01 X0.4732 Y0.1155
G01 X0.5316 Y0.1944
G01 X0.5821 Y0.2785
G01 X0.6240 Y0.3673
G01 X0.6571 Y0.4597
G01 X0.6809 Y0.5548
G01 X0.6953 Y0.6519
G01 X0.7002 Y0.7499
G01 X0.7002 Y24.7158
G00 X0.7002 Y24.7158
G01 F76.20
G01 Z-0.8000
G01 F120.00
G01 X0.7002 Y0.7499
G01 X0.6953 Y0.6519
G01 X0.6809 Y0.5548
G01 X0.6571 Y0.4597
G01 X0.6240 Y0.3673
G01 X0.5821 Y0.2785
G01 X0.5316 Y0.1944
G01 X0.4732 Y0.1155
G01 X0.4073 Y0.0428
G01 X0.3346 Y-0.0231
G01 X0.2557 Y-0.0815
G01 X0.1716 Y-0.1320
G01 X0.0828 Y-0.1739
G01 X-0.0096 Y-0.2070
G01 X-0.1047 Y-0.2308
G01 X-0.2018 Y-0.2452
G01 X-0.2998 Y-0.2501
G00 X-0.2998 Y-0.2501
G01 F76.20
G01 Z-1.2000
G01 F120.00
G01 X-0.2018 Y-0.2452
G01 X-0.1047 Y-0.2308
G01 X-0.0096 Y-0.2070
G01 X0.0828 Y-0.1739
G01 X0.1716 Y-0.1320
G01 X0.2557 Y-0.0815
G01 X0.3346 Y-0.0231
G01 X0.4073 Y0.0428
G01 X0.4732 Y0.1155
G01 X0.5316 Y0.1944
G01 X0.5821 Y0.2785
G01 X0.6240 Y0.3673
G01 X0.6571 Y0.4597
G01 X0.6809 Y0.5548
G01 X0.6953 Y0.6519
G01 X0.7002 Y0.7499
G01 X0.7002 Y24.7158
G00 X0.7002 Y24.7158
G01 F76.20
G01 Z-1.6000
G01 F120.00
G01 X0.7002 Y0.7499
G01 X0.6953 Y0.6519
G01 X0.6809 Y0.5548
G01 X0.6571 Y0.4597
G01 X0.6240 Y0.3673
G01 X0.5821 Y0.2785
G01 X0.5316 Y0.1944
G01 X0.4732 Y0.1155
G01 X0.4073 Y0.0428
G01 X0.3346 Y-0.0231
G01 X0.2557 Y-0.0815
G01 X0.1716 Y-0.1320
G01 X0.0828 Y-0.1739
G01 X-0.0096 Y-0.2070
G01 X-0.1047 Y-0.2308
G01 X-0.2018 Y-0.2452
G01 X-0.2998 Y-0.2501
G00 Z1.0000
G00 X0.7002 Y26.7158
G01 F76.20
G01 Z-0.4000
G01 F120.00
G01 X0.7002 Y74.6474
G00 X0.7002 Y74.6474
G01 F76.20
G01 Z-0.8000
G01 F120.00
G01 X0.7002 Y26.7158
G00 X0.7002 Y26.7158
G01 F76.20
G01 Z-1.2000
G01 F120.00
G01 X0.7002 Y74.6474
G00 X0.7002 Y74.6474
G01 F76.20
G01 Z-1.6000
G01 F120.00
G01 X0.7002 Y26.7158
G00 Z1.0000
G00 X-32.5374 Y-0.2501
G01 F76.20
G01 Z-0.4000
G01 F120.00
G01 X-95.0125 Y-0.2501
G00 X-95.0125 Y-0.2501
G01 F76.20
G01 Z-0.8000
G01 F120.00
G01 X-32.5374 Y-0.2501
G00 X-32.5374 Y-0.2501
G01 F76.20
G01 Z-1.2000
G01 F120.00
G01 X-95.0125 Y-0.2501
G00 X-95.0125 Y-0.2501
G01 F76.20
G01 Z-1.6000
G01 F120.00
G01 X-32.5374 Y-0.2501
G00 Z1.0000
G00 X-97.0125 Y-0.2501
G01 F76.20
G01 Z-0.4000
G01 F120.00
G01 X-128.2501 Y-0.2501
G01 X-128.3481 Y-0.2452
G01 X-128.4452 Y-0.2308
G01 X-128.5403 Y-0.2070
G01 X-128.6327 Y-0.1739
G01 X-128.7215 Y-0.1320
G01 X-128.8056 Y-0.0815
G01 X-128.8845 Y-0.0231
G01 X-128.9572 Y0.0428
G01 X-129.0231 Y0.1155
G01 X-129.0815 Y0.1944
G01 X-129.1320 Y0.2785
G01 X-129.1739 Y0.3673
G01 X-129.2070 Y0.4597
G01 X-129.2308 Y0.5548
G01 X-129.2452 Y0.6519
G01 X-129.2501 Y0.7499
G01 X-129.2501 Y24.7158
G00 X-129.2501 Y24.7158
G01 F76.20
G01 Z-0.8000
G01 F120.00
G01 X-129.2501 Y0.7499
G01 X-129.2452 Y0.6519
G01 X-129.2308 Y0.5548
G01 X-129.2070 Y0.4597
G01 X-129.1739 Y0.3673
G01 X-129.1320 Y0.2785
G01 X-129.0815 Y0.1944
G01 X-129.0231 Y0.1155
G01 X-128.9572 Y0.0428
G01 X-128.8845 Y-0.0231
G01 X-128.8056 Y-0.0815
G01 X-128.7215 Y-0.1320
G01 X-128.6327 Y-0.1739
G01 X-128.5403 Y-0.2070
G01 X-128.4452 Y-0.2308
G01 X-128.3481 Y-0.2452
G01 X-128.2501 Y-0.2501
G01 X-97.0125 Y-0.2501
G00 X-97.0125 Y-0.2501
G01 F76.20
G01 Z-1.2000
G01 F120.00
G01 X-128.2501 Y-0.2501
G01 X-128.3481 Y-0.2452
G01 X-128.4452 Y-0.2308
G01 X-128.5403 Y-0.2070
G01 X-128.6327 Y-0.1739
G01 X-128.7215 Y-0.1320
G01 X-128.8056 Y-0.0815
G01 X-128.8845 Y-0.0231
G01 X-128.9572 Y0.0428
G01 X-129.0231 Y0.1155
G01 X-129.0815 Y0.1944
G01 X-129.1320 Y0.2785
G01 X-129.1739 Y0.3673
G01 X-129.2070 Y0.4597
G01 X-129.2308 Y0.5548
G01 X-129.2452 Y0.6519
G01 X-129.2501 Y0.7499
G01 X-129.2501 Y24.7158
G00 X-129.2501 Y24.7158
G01 F76.20
G01 Z-1.6000
G01 F120.00
G01 X-129.2501 Y0.7499
G01 X-129.2452 Y0.6519
G01 X-129.2308 Y0.5548
G01 X-129.2070 Y0.4597
G01 X-129.1739 Y0.3673
G01 X-129.1320 Y0.2785
G01 X-129.0815 Y0.1944
G01 X-129.0231 Y0.1155
G01 X-128.9572 Y0.0428
G01 X-128.8845 Y-0.0231
G01 X-128.8056 Y-0.0815
G01 X-128.7215 Y-0.1320
G01 X-128.6327 Y-0.1739
G01 X-128.5403 Y-0.2070
G01 X-128.4452 Y-0.2308
G01 X-128.3481 Y-0.2452
G01 X-128.2501 Y-0.2501
G01 X-97.0125 Y-0.2501
G00 Z1.0000
G00 X-129.2501 Y26.7158
G01 F76.20
G01 Z-0.4000
G01 F120.00
G01 X-129.2501 Y74.6474
G00 X-129.2501 Y74.6474
G01 F76.20
G01 Z-0.8000
G01 F120.00
G01 X-129.2501 Y26.7158
G00 X-129.2501 Y26.7158
G01 F76.20
G01 Z-1.2000
G01 F120.00
G01 X-129.2501 Y74.6474
G00 X-129.2501 Y74.6474
G01 F76.20
G01 Z-1.6000
G01 F120.00
G01 X-129.2501 Y26.7158
G00 Z1.0000
G00 X-129.2501 Y76.6474
G01 F76.20
G01 Z-0.4000
G01 F120.00
G01 X-129.2501 Y99.6132
G01 X-129.2452 Y99.7112
G01 X-129.2308 Y99.8083
G01 X-129.2070 Y99.9035
G01 X-129.1739 Y99.9959
G01 X-129.1320 Y100.0846
G01 X-129.0815 Y100.1688
G01 X-129.0231 Y100.2476
G01 X-128.9572 Y100.3203
G01 X-128.8845 Y100.3862
G01 X-128.8056 Y100.4447
G01 X-128.7215 Y100.4952
G01 X-128.6327 Y100.5371
G01 X-128.5403 Y100.5702
G01 X-128.4452 Y100.5940
G01 X-128.3481 Y100.6084
G01 X-128.2501 Y100.6132
G01 X-97.0125 Y100.6132
G00 X-97.0125 Y100.6132
G01 F76.20
G01 Z-0.8000
G01 F120.00
G01 X-128.2501 Y100.6132
G01 X-128.3481 Y100.6084
G01 X-128.4452 Y100.5940
G01 X-128.5403 Y100.5702
G01 X-128.6327 Y100.5371
G01 X-128.7215 Y100.4952
G01 X-128.8056 Y100.4447
G01 X-128.8845 Y100.3862
G01 X-128.9572 Y100.3203
G01 X-129.0231 Y100.2476
G01 X-129.0815 Y100.1688
G01 X-129.1320 Y100.0846
G01 X-129.1739 Y99.9959
G01 X-129.2070 Y99.9035
G01 X-129.2308 Y99.8083
G01 X-129.2452 Y99.7112
G01 X-129.2501 Y99.6132
G01 X-129.2501 Y76.6474
G00 X-129.2501 Y76.6474
G01 F76.20
G01 Z-1.2000
G01 F120.00
G01 X-129.2501 Y99.6132
G01 X-129.2452 Y99.7112
G01 X-129.2308 Y99.8083
G01 X-129.2070 Y99.9035
G01 X-129.1739 Y99.9959
G01 X-129.1320 Y100.0846
G01 X-129.0815 Y100.1688
G01 X-129.0231 Y100.2476
G01 X-128.9572 Y100.3203
G01 X-128.8845 Y100.3862
G01 X-128.8056 Y100.4447
G01 X-128.7215 Y100.4952
G01 X-128.6327 Y100.5371
G01 X-128.5403 Y100.5702
G01 X-128.4452 Y100.5940
G01 X-128.3481 Y100.6084
G01 X-128.2501 Y100.6132
G01 X-97.0125 Y100.6132
G00 X-97.0125 Y100.6132
G01 F76.20
G01 Z-1.6000
G01 F120.00
G01 X-128.2501 Y100.6132
G01 X-128.3481 Y100.6084
G01 X-128.4452 Y100.5940
G01 X-128.5403 Y100.5702
G01 X-128.6327 Y100.5371
G01 X-128.7215 Y100.4952
G01 X-128.8056 Y100.4447
G01 X-128.8845 Y100.3862
G01 X-128.9572 Y100.3203
G01 X-129.0231 Y100.2476
G01 X-129.0815 Y100.1688
G01 X-129.1320 Y100.0846
G01 X-129.1739 Y99.9959
G01 X-129.2070 Y99.9035
G01 X-129.2308 Y99.8083
G01 X-129.2452 Y99.7112
G01 X-129.2501 Y99.6132
G01 X-129.2501 Y76.6474
G00 Z1.0000
G00 X-95.0125 Y100.6132
G01 F76.20
G01 Z-0.4000
G01 F120.00
G01 X-32.5374 Y100.6132
G00 X-32.5374 Y100.6132
G01 F76.20
G01 Z-0.8000
G01 F120.00
G01 X-95.0125 Y100.6132
G00 X-95.0125 Y100.6132
G01 F76.20
G01 Z-1.2000
G01 F120.00
G01 X-32.5374 Y100.6132
G00 X-32.5374 Y100.6132
G01 F76.20
G01 Z-1.6000
G01 F120.00
G01 X-95.0125 Y100.6132
G00 Z1.0000
G00 X-30.5374 Y100.6132
G01 F76.20
G01 Z-0.4000
G01 F120.00
G01 X-0.2998 Y100.6132
G01 X-0.2018 Y100.6084
G01 X-0.1047 Y100.5940
G01 X-0.0096 Y100.5702
G01 X0.0828 Y100.5371
G01 X0.1716 Y100.4952
G01 X0.2557 Y100.4447
G01 X0.3346 Y100.3862
G01 X0.4073 Y100.3203
G01 X0.4732 Y100.2476
G01 X0.5316 Y100.1688
G01 X0.5821 Y100.0846
G01 X0.6240 Y99.9959
G01 X0.6571 Y99.9035
G01 X0.6809 Y99.8083
G01 X0.6953 Y99.7112
G01 X0.7002 Y99.6132
G01 X0.7002 Y76.6474
G00 X0.7002 Y76.6474
G01 F76.20
G01 Z-0.8000
G01 F120.00
G01 X0.7002 Y99.6132
G01 X0.6953 Y99.7112
G01 X0.6809 Y99.8083
G01 X0.6571 Y99.9035
G01 X0.6240 Y99.9959
G01 X0.5821 Y100.0846
G01 X0.5316 Y100.1688
G01 X0.4732 Y100.2476
G01 X0.4073 Y100.3203
G01 X0.3346 Y100.3862
G01 X0.2557 Y100.4447
G01 X0.1716 Y100.4952
G01 X0.0828 Y100.5371
G01 X-0.0096 Y100.5702
G01 X-0.1047 Y100.5940
G01 X-0.2018 Y100.6084
G01 X-0.2998 Y100.6132
G01 X-30.5374 Y100.6132
G00 X-30.5374 Y100.6132
G01 F76.20
G01 Z-1.2000
G01 F120.00
G01 X-0.2998 Y100.6132
G01 X-0.2018 Y100.6084
G01 X-0.1047 Y100.5940
G01 X-0.0096 Y100.5702
G01 X0.0828 Y100.5371
G01 X0.1716 Y100.4952
G01 X0.2557 Y100.4447
G01 X0.3346 Y100.3862
G01 X0.4073 Y100.3203
G01 X0.4732 Y100.2476
G01 X0.5316 Y100.1688
G01 X0.5821 Y100.0846
G01 X0.6240 Y99.9959
G01 X0.6571 Y99.9035
G01 X0.6809 Y99.8083
G01 X0.6953 Y99.7112
G01 X0.7002 Y99.6132
G01 X0.7002 Y76.6474
G00 X0.7002 Y76.6474
G01 F76.20
G01 Z-1.6000
G01 F120.00
G01 X0.7002 Y99.6132
G01 X0.6953 Y99.7112
G01 X0.6809 Y99.8083
G01 X0.6571 Y99.9035
G01 X0.6240 Y99.9959
G01 X0.5821 Y100.0846
G01 X0.5316 Y100.1688
G01 X0.4732 Y100.2476
G01 X0.4073 Y100.3203
G01 X0.3346 Y100.3862
G01 X0.2557 Y100.4447
G01 X0.1716 Y100.4952
G01 X0.0828 Y100.5371
G01 X-0.0096 Y100.5702
G01 X-0.1047 Y100.5940
G01 X-0.2018 Y100.6084
G01 X-0.2998 Y100.6132
G01 X-30.5374 Y100.6132
G00 Z1.0000
M05
G00 Z1.0000
G00 Z12.70
G00 X0.0 Y0.0

M02