(G-CODE GENERATED BY FLATCAM v8.93 - www.flatcam.org - Version Date: 2019/08/10)

(Name: percage_greenhouse_cnc)
(Type: G-code from Excellon)
(Units: MM)

(Created on Saturday, 02 November 2019 at 19:19)

(Feedrate: 120.0 mm/min)
(Feedrate rapids 76.2 mm/min)

(Z_Cut: -2.0 mm)
(Z_Move: 1.0 mm)
(Z Toolchange: 12.7 mm)
(X,Y Toolchange: 0.0000, 0.0000 mm)
(Z Start: None mm)
(Z End: 12.7 mm)
(Steps per circle: 128)
(Postprocessor Excellon: default)

(X range:    5.1200 ...   68.0450  mm)
(Y range:    1.1600 ...   91.8900  mm)

(Spindle Speed: 12000.0 RPM)

G21
G90
G94

G01 F120.00
G00 Z1.0000

M03 S12000.0
G00 X-10.2150 Y83.6200
G01 Z-2.0000
G01 Z0
G00 Z1.0000
G00 X-21.6450 Y84.2550
G01 Z-2.0000
G01 Z0
G00 Z1.0000
G00 X-24.8200 Y82.3500
G01 Z-2.0000
G01 Z0
G00 Z1.0000
G00 X-21.6450 Y77.2700
G01 Z-2.0000
G01 Z0
G00 Z1.0000
G00 X-21.6450 Y72.1900
G01 Z-2.0000
G01 Z0
G00 Z1.0000
G00 X-24.8200 Y68.3800
G01 Z-2.0000
G01 Z0
G00 Z1.0000
G00 X-41.3300 Y59.4900
G01 Z-2.0000
G01 Z0
G00 Z1.0000
G00 X-41.3300 Y62.6650
G01 Z-2.0000
G01 Z0
G00 Z1.0000
G00 X-43.2350 Y72.8250
G01 Z-2.0000
G01 Z0
G00 Z1.0000
G00 X-43.2350 Y80.4450
G01 Z-2.0000
G01 Z0
G00 Z1.0000
G00 X-46.4100 Y80.4450
G01 Z-2.0000
G01 Z0
G00 Z1.0000
G00 X-49.5850 Y80.4450
G01 Z-2.0000
G01 Z0
G00 Z1.0000
G00 X-49.5850 Y72.8250
G01 Z-2.0000
G01 Z0
G00 Z1.0000
G00 X-46.4100 Y72.8250
G01 Z-2.0000
G01 Z0
G00 Z1.0000
G00 X-50.2200 Y62.6650
G01 Z-2.0000
G01 Z0
G00 Z1.0000
G00 X-57.2050 Y59.4900
G01 Z-2.0000
G01 Z0
G00 Z1.0000
G00 X-50.2200 Y57.5850
G01 Z-2.0000
G01 Z0
G00 Z1.0000
G00 X-50.2200 Y52.5050
G01 Z-2.0000
G01 Z0
G00 Z1.0000
G00 X-40.0600 Y53.1400
G01 Z-2.0000
G01 Z0
G00 Z1.0000
G00 X-40.0600 Y44.1140
G01 Z-2.0000
G01 Z0
G00 Z1.0000
G00 X-48.1100 Y34.0900
G01 Z-2.0000
G01 Z0
G00 Z1.0000
G00 X-57.8400 Y34.0900
G01 Z-2.0000
G01 Z0
G00 Z1.0000
G00 X-67.6950 Y11.2300
G01 Z-2.0000
G01 Z0
G00 Z1.0000
G00 X-62.9200 Y11.2300
G01 Z-2.0000
G01 Z0
G00 Z1.0000
G00 X-55.9350 Y6.1500
G01 Z-2.0000
G01 Z0
G00 Z1.0000
G00 X-55.9350 Y1.6650
G01 Z-2.0000
G01 Z0
G00 Z1.0000
G00 X-37.5200 Y1.5100
G01 Z-2.0000
G01 Z0
G00 Z1.0000
G00 X-37.5200 Y6.1500
G01 Z-2.0000
G01 Z0
G00 Z1.0000
G00 X-39.9740 Y18.7640
G01 Z-2.0000
G01 Z0
G00 Z1.0000
G00 X-40.2280 Y27.9960
G01 Z-2.0000
G01 Z0
G00 Z1.0000
G00 X-21.0100 Y16.3100
G01 Z-2.0000
G01 Z0
G00 Z1.0000
G00 X-21.0100 Y23.2950
G01 Z-2.0000
G01 Z0
G00 Z1.0000
G00 X-21.6450 Y27.1050
G01 Z-2.0000
G01 Z0
G00 Z1.0000
G00 X-21.6450 Y34.0900
G01 Z-2.0000
G01 Z0
G00 Z1.0000
G00 X-21.6450 Y41.0750
G01 Z-2.0000
G01 Z0
G00 Z1.0000
G00 X-28.6300 Y49.3300
G01 Z-2.0000
G01 Z0
G00 Z1.0000
G00 X-23.5500 Y48.6950
G01 Z-2.0000
G01 Z0
G00 Z1.0000
G00 X-21.6450 Y52.5050
G01 Z-2.0000
G01 Z0
G00 Z1.0000
G00 X-21.6450 Y55.0450
G01 Z-2.0000
G01 Z0
G00 Z1.0000
G00 X-21.6450 Y60.7600
G01 Z-2.0000
G01 Z0
G00 Z1.0000
G00 X-21.6450 Y66.4750
G01 Z-2.0000
G01 Z0
G00 Z1.0000
G00 X-10.2150 Y73.4000
G01 Z-2.0000
G01 Z0
G00 Z1.0000
M03 S12000.0
G00 X-18.4700 Y51.8700
G01 Z-2.0000
G01 Z0
G00 Z1.0000
G00 X-18.4700 Y56.9500
G01 Z-2.0000
G01 Z0
G00 Z1.0000
G00 X-18.4700 Y64.5700
G01 Z-2.0000
G01 Z0
G00 Z1.0000
G00 X-18.4700 Y69.6500
G01 Z-2.0000
G01 Z0
G00 Z1.0000
G00 X-18.4700 Y77.2700
G01 Z-2.0000
G01 Z0
G00 Z1.0000
G00 X-55.9350 Y80.4450
G01 Z-2.0000
G01 Z0
G00 Z1.0000
G00 X-63.5550 Y80.4450
G01 Z-2.0000
G01 Z0
G00 Z1.0000
G00 X-46.4100 Y51.8700
G01 Z-2.0000
G01 Z0
G00 Z1.0000
G00 X-43.2350 Y51.2350
G01 Z-2.0000
G01 Z0
G00 Z1.0000
G00 X-43.2350 Y43.6150
G01 Z-2.0000
G01 Z0
G00 Z1.0000
G00 X-46.4100 Y41.4560
G01 Z-2.0000
G01 Z0
G00 Z1.0000
G00 X-50.2200 Y40.4400
G01 Z-2.0000
G01 Z0
G00 Z1.0000
G00 X-50.2200 Y37.2650
G01 Z-2.0000
G01 Z0
G00 Z1.0000
G00 X-57.8400 Y40.4400
G01 Z-2.0000
G01 Z0
G00 Z1.0000
G00 X-57.8400 Y37.2650
G01 Z-2.0000
G01 Z0
G00 Z1.0000
G00 X-57.8400 Y29.0100
G01 Z-2.0000
G01 Z0
G00 Z1.0000
G00 X-57.8400 Y23.9300
G01 Z-2.0000
G01 Z0
G00 Z1.0000
G00 X-57.8400 Y20.1200
G01 Z-2.0000
G01 Z0
G00 Z1.0000
G00 X-50.2200 Y16.3100
G01 Z-2.0000
G01 Z0
G00 Z1.0000
G00 X-50.2200 Y20.1200
G01 Z-2.0000
G01 Z0
G00 Z1.0000
G00 X-50.2200 Y23.9300
G01 Z-2.0000
G01 Z0
G00 Z1.0000
G00 X-50.2200 Y29.0100
G01 Z-2.0000
G01 Z0
G00 Z1.0000
G00 X-46.4100 Y29.0100
G01 Z-2.0000
G01 Z0
G00 Z1.0000
G00 X-46.4100 Y21.3900
G01 Z-2.0000
G01 Z0
G00 Z1.0000
G00 X-42.6000 Y16.3100
G01 Z-2.0000
G01 Z0
G00 Z1.0000
G00 X-44.5050 Y11.8650
G01 Z-2.0000
G01 Z0
G00 Z1.0000
G00 X-36.8850 Y11.8650
G01 Z-2.0000
G01 Z0
G00 Z1.0000
G00 X-33.0750 Y10.5950
G01 Z-2.0000
G01 Z0
G00 Z1.0000
G00 X-34.9800 Y13.7700
G01 Z-2.0000
G01 Z0
G00 Z1.0000
G00 X-33.7100 Y16.9450
G01 Z-2.0000
G01 Z0
G00 Z1.0000
G00 X-35.6150 Y20.1200
G01 Z-2.0000
G01 Z0
G00 Z1.0000
G00 X-27.9950 Y20.1200
G01 Z-2.0000
G01 Z0
G00 Z1.0000
G00 X-26.0900 Y16.9450
G01 Z-2.0000
G01 Z0
G00 Z1.0000
G00 X-27.3600 Y13.7700
G01 Z-2.0000
G01 Z0
G00 Z1.0000
G00 X-25.4550 Y10.5950
G01 Z-2.0000
G01 Z0
G00 Z1.0000
G00 X-18.4700 Y4.8800
G01 Z-2.0000
G01 Z0
G00 Z1.0000
G00 X-18.4700 Y12.5000
G01 Z-2.0000
G01 Z0
G00 Z1.0000
G00 X-18.4700 Y18.8500
G01 Z-2.0000
G01 Z0
G00 Z1.0000
G00 X-18.4700 Y26.4700
G01 Z-2.0000
G01 Z0
G00 Z1.0000
G00 X-18.4700 Y31.5500
G01 Z-2.0000
G01 Z0
G00 Z1.0000
G00 X-18.4700 Y39.1700
G01 Z-2.0000
G01 Z0
G00 Z1.0000
G00 X-18.4700 Y44.2500
G01 Z-2.0000
G01 Z0
G00 Z1.0000
M03 S12000.0
G00 X-57.8300 Y86.1600
G01 Z-2.0000
G01 Z0
G00 Z1.0000
G00 X-57.8400 Y91.2400
G01 Z-2.0000
G01 Z0
G00 Z1.0000
M03 S12000.0
G00 X-31.8050 Y77.2700
G01 Z-2.0000
G01 Z0
G00 Z1.0000
G00 X-34.3450 Y77.2700
G01 Z-2.0000
G01 Z0
G00 Z1.0000
G00 X-34.3450 Y74.7300
G01 Z-2.0000
G01 Z0
G00 Z1.0000
G00 X-34.3450 Y72.1900
G01 Z-2.0000
G01 Z0
G00 Z1.0000
G00 X-34.3450 Y69.6500
G01 Z-2.0000
G01 Z0
G00 Z1.0000
G00 X-34.3450 Y67.1100
G01 Z-2.0000
G01 Z0
G00 Z1.0000
G00 X-34.3450 Y64.5700
G01 Z-2.0000
G01 Z0
G00 Z1.0000
G00 X-34.3450 Y62.0300
G01 Z-2.0000
G01 Z0
G00 Z1.0000
G00 X-34.3450 Y59.4900
G01 Z-2.0000
G01 Z0
G00 Z1.0000
G00 X-32.4400 Y44.2500
G01 Z-2.0000
G01 Z0
G00 Z1.0000
G00 X-32.4400 Y41.7100
G01 Z-2.0000
G01 Z0
G00 Z1.0000
G00 X-32.4400 Y39.1700
G01 Z-2.0000
G01 Z0
G00 Z1.0000
G00 X-32.4400 Y36.6300
G01 Z-2.0000
G01 Z0
G00 Z1.0000
G00 X-32.4400 Y34.0900
G01 Z-2.0000
G01 Z0
G00 Z1.0000
G00 X-32.4400 Y31.5500
G01 Z-2.0000
G01 Z0
G00 Z1.0000
G00 X-32.4400 Y29.0100
G01 Z-2.0000
G01 Z0
G00 Z1.0000
G00 X-32.4400 Y26.4700
G01 Z-2.0000
G01 Z0
G00 Z1.0000
G00 X-34.9800 Y26.4700
G01 Z-2.0000
G01 Z0
G00 Z1.0000
G00 X-34.9800 Y29.0100
G01 Z-2.0000
G01 Z0
G00 Z1.0000
G00 X-34.9800 Y31.5500
G01 Z-2.0000
G01 Z0
G00 Z1.0000
G00 X-34.9800 Y34.0900
G01 Z-2.0000
G01 Z0
G00 Z1.0000
G00 X-34.9800 Y36.6300
G01 Z-2.0000
G01 Z0
G00 Z1.0000
G00 X-34.9800 Y39.1700
G01 Z-2.0000
G01 Z0
G00 Z1.0000
G00 X-34.9800 Y41.7100
G01 Z-2.0000
G01 Z0
G00 Z1.0000
G00 X-34.9800 Y44.2500
G01 Z-2.0000
G01 Z0
G00 Z1.0000
G00 X-31.8050 Y59.4900
G01 Z-2.0000
G01 Z0
G00 Z1.0000
G00 X-31.8050 Y62.0300
G01 Z-2.0000
G01 Z0
G00 Z1.0000
G00 X-31.8050 Y64.5700
G01 Z-2.0000
G01 Z0
G00 Z1.0000
G00 X-31.8050 Y67.1100
G01 Z-2.0000
G01 Z0
G00 Z1.0000
G00 X-31.8050 Y69.6500
G01 Z-2.0000
G01 Z0
G00 Z1.0000
G00 X-31.8050 Y72.1900
G01 Z-2.0000
G01 Z0
G00 Z1.0000
G00 X-31.8050 Y74.7300
G01 Z-2.0000
G01 Z0
G00 Z1.0000
M03 S12000.0
G00 X-14.6600 Y12.5000
G01 Z-2.0000
G01 Z0
G00 Z1.0000
G00 X-14.6600 Y9.9600
G01 Z-2.0000
G01 Z0
G00 Z1.0000
G00 X-14.6600 Y7.4200
G01 Z-2.0000
G01 Z0
G00 Z1.0000
G00 X-14.6600 Y20.1200
G01 Z-2.0000
G01 Z0
G00 Z1.0000
G00 X-14.6600 Y22.6600
G01 Z-2.0000
G01 Z0
G00 Z1.0000
G00 X-14.6600 Y25.2000
G01 Z-2.0000
G01 Z0
G00 Z1.0000
G00 X-14.6600 Y32.8200
G01 Z-2.0000
G01 Z0
G00 Z1.0000
G00 X-14.6600 Y35.3600
G01 Z-2.0000
G01 Z0
G00 Z1.0000
G00 X-14.6600 Y37.9000
G01 Z-2.0000
G01 Z0
G00 Z1.0000
G00 X-14.6600 Y45.5200
G01 Z-2.0000
G01 Z0
G00 Z1.0000
G00 X-14.6600 Y48.0600
G01 Z-2.0000
G01 Z0
G00 Z1.0000
G00 X-14.6600 Y50.6000
G01 Z-2.0000
G01 Z0
G00 Z1.0000
G00 X-14.6600 Y58.2200
G01 Z-2.0000
G01 Z0
G00 Z1.0000
G00 X-14.6600 Y60.7600
G01 Z-2.0000
G01 Z0
G00 Z1.0000
G00 X-14.6600 Y63.3000
G01 Z-2.0000
G01 Z0
G00 Z1.0000
G00 X-14.6600 Y70.9200
G01 Z-2.0000
G01 Z0
G00 Z1.0000
G00 X-14.6600 Y73.4600
G01 Z-2.0000
G01 Z0
G00 Z1.0000
G00 X-14.6600 Y76.0000
G01 Z-2.0000
G01 Z0
G00 Z1.0000
M03 S12000.0
G00 X-24.1850 Y6.1500
G01 Z-2.0000
G01 Z0
G00 Z1.0000
G00 X-27.6850 Y6.1500
G01 Z-2.0000
G01 Z0
G00 Z1.0000
G00 X-31.1850 Y6.1500
G01 Z-2.0000
G01 Z0
G00 Z1.0000
G00 X-34.6850 Y6.1500
G01 Z-2.0000
G01 Z0
G00 Z1.0000
G00 X-40.6950 Y6.1500
G01 Z-2.0000
G01 Z0
G00 Z1.0000
G00 X-44.1950 Y6.1500
G01 Z-2.0000
G01 Z0
G00 Z1.0000
G00 X-47.6950 Y6.1500
G01 Z-2.0000
G01 Z0
G00 Z1.0000
G00 X-51.1950 Y6.1500
G01 Z-2.0000
G01 Z0
G00 Z1.0000
G00 X-62.9200 Y15.6750
G01 Z-2.0000
G01 Z0
G00 Z1.0000
G00 X-62.9200 Y19.1750
G01 Z-2.0000
G01 Z0
G00 Z1.0000
G00 X-62.9200 Y22.6750
G01 Z-2.0000
G01 Z0
G00 Z1.0000
G00 X-62.9200 Y26.1750
G01 Z-2.0000
G01 Z0
G00 Z1.0000
G00 X-62.9200 Y29.6750
G01 Z-2.0000
G01 Z0
G00 Z1.0000
G00 X-62.9200 Y33.1750
G01 Z-2.0000
G01 Z0
G00 Z1.0000
G00 X-62.9200 Y36.9100
G01 Z-2.0000
G01 Z0
G00 Z1.0000
G00 X-62.9200 Y40.4100
G01 Z-2.0000
G01 Z0
G00 Z1.0000
G00 X-62.9200 Y43.9100
G01 Z-2.0000
G01 Z0
G00 Z1.0000
G00 X-62.9200 Y47.4100
G01 Z-2.0000
G01 Z0
G00 Z1.0000
G00 X-62.9200 Y50.9100
G01 Z-2.0000
G01 Z0
G00 Z1.0000
G00 X-62.9200 Y54.4100
G01 Z-2.0000
G01 Z0
G00 Z1.0000
G00 X-62.9200 Y58.2200
G01 Z-2.0000
G01 Z0
G00 Z1.0000
G00 X-62.9200 Y61.7200
G01 Z-2.0000
G01 Z0
G00 Z1.0000
G00 X-62.9200 Y65.2200
G01 Z-2.0000
G01 Z0
G00 Z1.0000
G00 X-62.9200 Y68.7200
G01 Z-2.0000
G01 Z0
G00 Z1.0000
G00 X-62.9200 Y72.2200
G01 Z-2.0000
G01 Z0
G00 Z1.0000
G00 X-62.9200 Y75.7200
G01 Z-2.0000
G01 Z0
G00 Z1.0000
M03 S12000.0
G00 X-5.7700 Y60.7600
G01 Z-2.0000
G01 Z0
G00 Z1.0000
G00 X-5.7700 Y65.8400
G01 Z-2.0000
G01 Z0
G00 Z1.0000
G00 X-5.7700 Y70.9200
G01 Z-2.0000
G01 Z0
G00 Z1.0000
G00 X-5.7700 Y76.0000
G01 Z-2.0000
G01 Z0
G00 Z1.0000
G00 X-5.7700 Y81.0800
G01 Z-2.0000
G01 Z0
G00 Z1.0000
G00 X-5.7700 Y86.1600
G01 Z-2.0000
G01 Z0
G00 Z1.0000
G00 X-5.7700 Y91.2400
G01 Z-2.0000
G01 Z0
G00 Z1.0000
G00 X-14.6600 Y89.9700
G01 Z-2.0000
G01 Z0
G00 Z1.0000
G00 X-19.7400 Y89.9700
G01 Z-2.0000
G01 Z0
G00 Z1.0000
G00 X-24.8200 Y89.9700
G01 Z-2.0000
G01 Z0
G00 Z1.0000
G00 X-29.9000 Y89.9700
G01 Z-2.0000
G01 Z0
G00 Z1.0000
G00 X-34.9800 Y89.9700
G01 Z-2.0000
G01 Z0
G00 Z1.0000
G00 X-40.0600 Y89.9700
G01 Z-2.0000
G01 Z0
G00 Z1.0000
G00 X-5.7700 Y4.8800
G01 Z-2.0000
G01 Z0
G00 Z1.0000
G00 X-5.7700 Y9.9600
G01 Z-2.0000
G01 Z0
G00 Z1.0000
G00 X-5.7700 Y15.0400
G01 Z-2.0000
G01 Z0
G00 Z1.0000
G00 X-5.7700 Y20.1200
G01 Z-2.0000
G01 Z0
G00 Z1.0000
G00 X-5.7700 Y25.2000
G01 Z-2.0000
G01 Z0
G00 Z1.0000
G00 X-5.7700 Y30.2800
G01 Z-2.0000
G01 Z0
G00 Z1.0000
G00 X-5.7700 Y35.3600
G01 Z-2.0000
G01 Z0
G00 Z1.0000
G00 X-5.7700 Y40.4400
G01 Z-2.0000
G01 Z0
G00 Z1.0000
G00 X-5.7700 Y45.5200
G01 Z-2.0000
G01 Z0
G00 Z1.0000
G00 X-5.7700 Y50.6000
G01 Z-2.0000
G01 Z0
G00 Z1.0000
G00 X-5.7700 Y55.6800
G01 Z-2.0000
G01 Z0
G00 Z1.0000
M03 S12000.0
G00 X-62.9200 Y89.9700
G01 Z-2.0000
G01 Z0
G00 Z1.0000
G00 X-62.9200 Y84.8900
G01 Z-2.0000
G01 Z0
G00 Z1.0000
G00 X-52.7600 Y89.9700
G01 Z-2.0000
G01 Z0
G00 Z1.0000
G00 X-47.6800 Y89.9700
G01 Z-2.0000
G01 Z0
G00 Z1.0000
M05
G00 Z12.70
G00 X0.0 Y0.0

M02