(G-CODE GENERATED BY FLATCAM v8.93 - www.flatcam.org - Version Date: 2019/08/10)

(Name: percage_cnc)
(Type: G-code from Excellon)
(Units: MM)

(Created on Monday, 28 October 2019 at 18:13)

(Feedrate: 76.2 mm/min)
(Feedrate rapids 76.2 mm/min)

(Z_Cut: -2.0 mm)
(Z_Move: 1.0 mm)
(Z Toolchange: 12.7 mm)
(X,Y Toolchange: 0.0000, 0.0000 mm)
(Z Start: None mm)
(Z End: 12.7 mm)
(Steps per circle: 128)
(Postprocessor Excellon: default)

(X range:    5.3100 ...  124.2200  mm)
(Y range:    8.5890 ...   94.5200  mm)

(Spindle Speed: 12000.0 RPM)

G21
G90
G94

G01 F76.20
G00 Z1.0000

M03 S12000.0
G00 X-5.7100 Y42.0500
G01 Z-2.0000
G01 Z0
G00 Z1.0000
G00 X-5.7100 Y35.7000
G01 Z-2.0000
G01 Z0
G00 Z1.0000
G00 X-18.4100 Y42.0500
G01 Z-2.0000
G01 Z0
G00 Z1.0000
G00 X-18.4100 Y35.7000
G01 Z-2.0000
G01 Z0
G00 Z1.0000
G00 X-18.4100 Y19.1900
G01 Z-2.0000
G01 Z0
G00 Z1.0000
G00 X-26.0300 Y19.1900
G01 Z-2.0000
G01 Z0
G00 Z1.0000
G00 X-31.5180 Y26.8100
G01 Z-2.0000
G01 Z0
G00 Z1.0000
G00 X-47.6200 Y33.1600
G01 Z-2.0000
G01 Z0
G00 Z1.0000
G00 X-51.4300 Y38.2400
G01 Z-2.0000
G01 Z0
G00 Z1.0000
G00 X-55.2400 Y33.1600
G01 Z-2.0000
G01 Z0
G00 Z1.0000
G00 X-59.0500 Y33.1600
G01 Z-2.0000
G01 Z0
G00 Z1.0000
G00 X-62.8600 Y33.1600
G01 Z-2.0000
G01 Z0
G00 Z1.0000
G00 X-47.6200 Y8.9890
G01 Z-2.0000
G01 Z0
G00 Z1.0000
G00 X-51.4300 Y9.0300
G01 Z-2.0000
G01 Z0
G00 Z1.0000
G00 X-55.2400 Y9.0300
G01 Z-2.0000
G01 Z0
G00 Z1.0000
G00 X-59.0500 Y9.0300
G01 Z-2.0000
G01 Z0
G00 Z1.0000
G00 X-62.8600 Y9.0300
G01 Z-2.0000
G01 Z0
G00 Z1.0000
G00 X-107.3100 Y17.9200
G01 Z-2.0000
G01 Z0
G00 Z1.0000
G00 X-104.7700 Y20.4600
G01 Z-2.0000
G01 Z0
G00 Z1.0000
G00 X-102.2300 Y23.0000
G01 Z-2.0000
G01 Z0
G00 Z1.0000
G00 X-102.7840 Y44.0360
G01 Z-2.0000
G01 Z0
G00 Z1.0000
G00 X-104.7700 Y48.4000
G01 Z-2.0000
G01 Z0
G00 Z1.0000
G00 X-107.3100 Y43.3200
G01 Z-2.0000
G01 Z0
G00 Z1.0000
G00 X-121.2800 Y33.1600
G01 Z-2.0000
G01 Z0
G00 Z1.0000
G00 X-121.5660 Y41.0660
G01 Z-2.0000
G01 Z0
G00 Z1.0000
G00 X-123.8200 Y48.4000
G01 Z-2.0000
G01 Z0
G00 Z1.0000
G00 X-123.8200 Y57.2900
G01 Z-2.0000
G01 Z0
G00 Z1.0000
G00 X-117.4700 Y78.8800
G01 Z-2.0000
G01 Z0
G00 Z1.0000
G00 X-117.2160 Y89.2940
G01 Z-2.0000
G01 Z0
G00 Z1.0000
G00 X-121.2800 Y94.1200
G01 Z-2.0000
G01 Z0
G00 Z1.0000
G00 X-113.6600 Y94.1200
G01 Z-2.0000
G01 Z0
G00 Z1.0000
G00 X-109.5960 Y91.8340
G01 Z-2.0000
G01 Z0
G00 Z1.0000
G00 X-109.8500 Y78.8800
G01 Z-2.0000
G01 Z0
G00 Z1.0000
G00 X-107.3100 Y64.9100
G01 Z-2.0000
G01 Z0
G00 Z1.0000
G00 X-78.1330 Y67.7860
G01 Z-2.0000
G01 Z0
G00 Z1.0000
G00 X-74.5440 Y66.6340
G01 Z-2.0000
G01 Z0
G00 Z1.0000
G00 X-31.2370 Y66.0530
G01 Z-2.0000
G01 Z0
G00 Z1.0000
G00 X-28.4430 Y68.8470
G01 Z-2.0000
G01 Z0
G00 Z1.0000
G00 X-16.8860 Y77.8640
G01 Z-2.0000
G01 Z0
G00 Z1.0000
G00 X-17.1400 Y62.3700
G01 Z-2.0000
G01 Z0
G00 Z1.0000
M03 S12000.0
G00 X-82.6720 Y91.8340
G01 Z-2.0000
G01 Z0
G00 Z1.0000
G00 X-82.6720 Y89.2940
G01 Z-2.0000
G01 Z0
G00 Z1.0000
G00 X-82.6720 Y86.7540
G01 Z-2.0000
G01 Z0
G00 Z1.0000
G00 X-82.6720 Y84.2140
G01 Z-2.0000
G01 Z0
G00 Z1.0000
M03 S12000.0
G00 X-16.8860 Y85.4840
G01 Z-2.0000
G01 Z0
G00 Z1.0000
G00 X-19.4260 Y85.4840
G01 Z-2.0000
G01 Z0
G00 Z1.0000
G00 X-21.9660 Y85.4840
G01 Z-2.0000
G01 Z0
G00 Z1.0000
G00 X-24.5060 Y85.4840
G01 Z-2.0000
G01 Z0
G00 Z1.0000
G00 X-24.5060 Y82.9440
G01 Z-2.0000
G01 Z0
G00 Z1.0000
G00 X-27.0460 Y82.9440
G01 Z-2.0000
G01 Z0
G00 Z1.0000
G00 X-27.0460 Y85.4840
G01 Z-2.0000
G01 Z0
G00 Z1.0000
G00 X-29.5860 Y85.4840
G01 Z-2.0000
G01 Z0
G00 Z1.0000
G00 X-29.5860 Y82.9440
G01 Z-2.0000
G01 Z0
G00 Z1.0000
G00 X-32.1260 Y82.9440
G01 Z-2.0000
G01 Z0
G00 Z1.0000
G00 X-32.1260 Y85.4840
G01 Z-2.0000
G01 Z0
G00 Z1.0000
G00 X-34.6660 Y85.4840
G01 Z-2.0000
G01 Z0
G00 Z1.0000
G00 X-34.6660 Y82.9440
G01 Z-2.0000
G01 Z0
G00 Z1.0000
G00 X-53.3350 Y85.1030
G01 Z-2.0000
G01 Z0
G00 Z1.0000
G00 X-53.3350 Y82.5630
G01 Z-2.0000
G01 Z0
G00 Z1.0000
G00 X-55.8750 Y82.5630
G01 Z-2.0000
G01 Z0
G00 Z1.0000
G00 X-55.8750 Y85.1030
G01 Z-2.0000
G01 Z0
G00 Z1.0000
G00 X-58.4150 Y85.1030
G01 Z-2.0000
G01 Z0
G00 Z1.0000
G00 X-60.9550 Y85.1030
G01 Z-2.0000
G01 Z0
G00 Z1.0000
G00 X-63.4950 Y85.1030
G01 Z-2.0000
G01 Z0
G00 Z1.0000
G00 X-66.0350 Y85.1030
G01 Z-2.0000
G01 Z0
G00 Z1.0000
G00 X-68.5750 Y85.1030
G01 Z-2.0000
G01 Z0
G00 Z1.0000
G00 X-71.1150 Y85.1030
G01 Z-2.0000
G01 Z0
G00 Z1.0000
G00 X-71.1150 Y82.5630
G01 Z-2.0000
G01 Z0
G00 Z1.0000
G00 X-68.5750 Y82.5630
G01 Z-2.0000
G01 Z0
G00 Z1.0000
G00 X-66.0350 Y82.5630
G01 Z-2.0000
G01 Z0
G00 Z1.0000
G00 X-63.4950 Y82.5630
G01 Z-2.0000
G01 Z0
G00 Z1.0000
G00 X-60.9550 Y82.5630
G01 Z-2.0000
G01 Z0
G00 Z1.0000
G00 X-58.4150 Y82.5630
G01 Z-2.0000
G01 Z0
G00 Z1.0000
G00 X-68.0050 Y71.3850
G01 Z-2.0000
G01 Z0
G00 Z1.0000
G00 X-70.5450 Y71.3850
G01 Z-2.0000
G01 Z0
G00 Z1.0000
G00 X-73.0850 Y71.3850
G01 Z-2.0000
G01 Z0
G00 Z1.0000
G00 X-75.6250 Y71.3850
G01 Z-2.0000
G01 Z0
G00 Z1.0000
G00 X-78.1650 Y71.3850
G01 Z-2.0000
G01 Z0
G00 Z1.0000
G00 X-80.7050 Y71.3850
G01 Z-2.0000
G01 Z0
G00 Z1.0000
G00 X-83.2450 Y71.3850
G01 Z-2.0000
G01 Z0
G00 Z1.0000
G00 X-85.7850 Y71.3850
G01 Z-2.0000
G01 Z0
G00 Z1.0000
G00 X-93.4050 Y71.3850
G01 Z-2.0000
G01 Z0
G00 Z1.0000
G00 X-93.4050 Y68.8450
G01 Z-2.0000
G01 Z0
G00 Z1.0000
G00 X-93.4050 Y66.3050
G01 Z-2.0000
G01 Z0
G00 Z1.0000
G00 X-93.4050 Y63.7650
G01 Z-2.0000
G01 Z0
G00 Z1.0000
G00 X-93.4050 Y61.2250
G01 Z-2.0000
G01 Z0
G00 Z1.0000
G00 X-93.4050 Y58.6850
G01 Z-2.0000
G01 Z0
G00 Z1.0000
G00 X-93.4050 Y56.1450
G01 Z-2.0000
G01 Z0
G00 Z1.0000
G00 X-93.4050 Y53.6050
G01 Z-2.0000
G01 Z0
G00 Z1.0000
G00 X-93.4050 Y51.0650
G01 Z-2.0000
G01 Z0
G00 Z1.0000
G00 X-93.4050 Y48.5250
G01 Z-2.0000
G01 Z0
G00 Z1.0000
G00 X-93.4050 Y45.9850
G01 Z-2.0000
G01 Z0
G00 Z1.0000
G00 X-93.4050 Y43.4450
G01 Z-2.0000
G01 Z0
G00 Z1.0000
G00 X-93.4050 Y40.9050
G01 Z-2.0000
G01 Z0
G00 Z1.0000
G00 X-93.4050 Y38.3650
G01 Z-2.0000
G01 Z0
G00 Z1.0000
G00 X-93.4050 Y35.8250
G01 Z-2.0000
G01 Z0
G00 Z1.0000
G00 X-93.4050 Y33.2850
G01 Z-2.0000
G01 Z0
G00 Z1.0000
G00 X-93.4050 Y30.7450
G01 Z-2.0000
G01 Z0
G00 Z1.0000
G00 X-95.9450 Y33.2850
G01 Z-2.0000
G01 Z0
G00 Z1.0000
G00 X-95.9450 Y35.8250
G01 Z-2.0000
G01 Z0
G00 Z1.0000
G00 X-95.9450 Y38.3650
G01 Z-2.0000
G01 Z0
G00 Z1.0000
G00 X-95.9450 Y40.9050
G01 Z-2.0000
G01 Z0
G00 Z1.0000
G00 X-95.9450 Y43.4450
G01 Z-2.0000
G01 Z0
G00 Z1.0000
G00 X-95.9450 Y45.9850
G01 Z-2.0000
G01 Z0
G00 Z1.0000
G00 X-95.9450 Y48.5250
G01 Z-2.0000
G01 Z0
G00 Z1.0000
G00 X-95.9450 Y51.0650
G01 Z-2.0000
G01 Z0
G00 Z1.0000
G00 X-95.9450 Y53.6050
G01 Z-2.0000
G01 Z0
G00 Z1.0000
G00 X-95.9450 Y56.1450
G01 Z-2.0000
G01 Z0
G00 Z1.0000
G00 X-95.9450 Y58.6850
G01 Z-2.0000
G01 Z0
G00 Z1.0000
G00 X-95.9450 Y61.2250
G01 Z-2.0000
G01 Z0
G00 Z1.0000
G00 X-95.9450 Y63.7650
G01 Z-2.0000
G01 Z0
G00 Z1.0000
G00 X-95.9450 Y66.3050
G01 Z-2.0000
G01 Z0
G00 Z1.0000
G00 X-95.9450 Y68.8450
G01 Z-2.0000
G01 Z0
G00 Z1.0000
G00 X-95.9450 Y71.3850
G01 Z-2.0000
G01 Z0
G00 Z1.0000
G00 X-112.3900 Y64.9100
G01 Z-2.0000
G01 Z0
G00 Z1.0000
G00 X-112.3900 Y67.4500
G01 Z-2.0000
G01 Z0
G00 Z1.0000
G00 X-114.9300 Y67.4500
G01 Z-2.0000
G01 Z0
G00 Z1.0000
G00 X-114.9300 Y64.9100
G01 Z-2.0000
G01 Z0
G00 Z1.0000
G00 X-114.9300 Y62.3700
G01 Z-2.0000
G01 Z0
G00 Z1.0000
G00 X-112.3900 Y62.3700
G01 Z-2.0000
G01 Z0
G00 Z1.0000
G00 X-112.3900 Y59.8300
G01 Z-2.0000
G01 Z0
G00 Z1.0000
G00 X-114.9300 Y59.8300
G01 Z-2.0000
G01 Z0
G00 Z1.0000
G00 X-114.9300 Y57.2900
G01 Z-2.0000
G01 Z0
G00 Z1.0000
G00 X-112.3900 Y57.2900
G01 Z-2.0000
G01 Z0
G00 Z1.0000
G00 X-112.3900 Y54.7500
G01 Z-2.0000
G01 Z0
G00 Z1.0000
G00 X-114.9300 Y54.7500
G01 Z-2.0000
G01 Z0
G00 Z1.0000
G00 X-114.9300 Y52.2100
G01 Z-2.0000
G01 Z0
G00 Z1.0000
G00 X-112.3900 Y52.2100
G01 Z-2.0000
G01 Z0
G00 Z1.0000
G00 X-112.3900 Y49.6700
G01 Z-2.0000
G01 Z0
G00 Z1.0000
G00 X-114.9300 Y49.6700
G01 Z-2.0000
G01 Z0
G00 Z1.0000
G00 X-114.9300 Y35.7000
G01 Z-2.0000
G01 Z0
G00 Z1.0000
G00 X-114.9300 Y33.1600
G01 Z-2.0000
G01 Z0
G00 Z1.0000
G00 X-114.9300 Y30.6200
G01 Z-2.0000
G01 Z0
G00 Z1.0000
G00 X-114.9300 Y28.0800
G01 Z-2.0000
G01 Z0
G00 Z1.0000
G00 X-114.9300 Y25.5400
G01 Z-2.0000
G01 Z0
G00 Z1.0000
G00 X-114.9300 Y23.0000
G01 Z-2.0000
G01 Z0
G00 Z1.0000
G00 X-114.9300 Y20.4600
G01 Z-2.0000
G01 Z0
G00 Z1.0000
G00 X-114.9300 Y17.9200
G01 Z-2.0000
G01 Z0
G00 Z1.0000
G00 X-112.3900 Y17.9200
G01 Z-2.0000
G01 Z0
G00 Z1.0000
G00 X-112.3900 Y20.4600
G01 Z-2.0000
G01 Z0
G00 Z1.0000
G00 X-112.3900 Y23.0000
G01 Z-2.0000
G01 Z0
G00 Z1.0000
G00 X-112.3900 Y25.5400
G01 Z-2.0000
G01 Z0
G00 Z1.0000
G00 X-112.3900 Y28.0800
G01 Z-2.0000
G01 Z0
G00 Z1.0000
G00 X-112.3900 Y30.6200
G01 Z-2.0000
G01 Z0
G00 Z1.0000
G00 X-112.3900 Y33.1600
G01 Z-2.0000
G01 Z0
G00 Z1.0000
G00 X-112.3900 Y35.7000
G01 Z-2.0000
G01 Z0
G00 Z1.0000
G00 X-95.9450 Y30.7450
G01 Z-2.0000
G01 Z0
G00 Z1.0000
G00 X-95.9450 Y28.2050
G01 Z-2.0000
G01 Z0
G00 Z1.0000
G00 X-93.4050 Y28.2050
G01 Z-2.0000
G01 Z0
G00 Z1.0000
G00 X-90.8650 Y23.1250
G01 Z-2.0000
G01 Z0
G00 Z1.0000
G00 X-88.3250 Y23.1250
G01 Z-2.0000
G01 Z0
G00 Z1.0000
G00 X-85.7850 Y23.1250
G01 Z-2.0000
G01 Z0
G00 Z1.0000
G00 X-83.2450 Y23.1250
G01 Z-2.0000
G01 Z0
G00 Z1.0000
G00 X-80.7050 Y23.1250
G01 Z-2.0000
G01 Z0
G00 Z1.0000
G00 X-78.1650 Y23.1250
G01 Z-2.0000
G01 Z0
G00 Z1.0000
G00 X-75.6250 Y23.1250
G01 Z-2.0000
G01 Z0
G00 Z1.0000
G00 X-73.0850 Y23.1250
G01 Z-2.0000
G01 Z0
G00 Z1.0000
G00 X-68.0050 Y23.1250
G01 Z-2.0000
G01 Z0
G00 Z1.0000
G00 X-65.4650 Y23.1250
G01 Z-2.0000
G01 Z0
G00 Z1.0000
G00 X-45.1450 Y23.1250
G01 Z-2.0000
G01 Z0
G00 Z1.0000
G00 X-42.6050 Y23.1250
G01 Z-2.0000
G01 Z0
G00 Z1.0000
G00 X-40.0650 Y23.1250
G01 Z-2.0000
G01 Z0
G00 Z1.0000
G00 X-37.5250 Y23.1250
G01 Z-2.0000
G01 Z0
G00 Z1.0000
G00 X-34.9850 Y23.1250
G01 Z-2.0000
G01 Z0
G00 Z1.0000
G00 X-32.4450 Y23.1250
G01 Z-2.0000
G01 Z0
G00 Z1.0000
G00 X-23.3010 Y71.3850
G01 Z-2.0000
G01 Z0
G00 Z1.0000
G00 X-20.7610 Y71.3850
G01 Z-2.0000
G01 Z0
G00 Z1.0000
G00 X-18.2210 Y71.3850
G01 Z-2.0000
G01 Z0
G00 Z1.0000
G00 X-21.9660 Y82.9440
G01 Z-2.0000
G01 Z0
G00 Z1.0000
G00 X-19.4260 Y82.9440
G01 Z-2.0000
G01 Z0
G00 Z1.0000
G00 X-16.8860 Y82.9440
G01 Z-2.0000
G01 Z0
G00 Z1.0000
M03 S12000.0
G00 X-31.1100 Y16.6500
G01 Z-2.0000
G01 Z0
G00 Z1.0000
G00 X-36.1900 Y16.6500
G01 Z-2.0000
G01 Z0
G00 Z1.0000
G00 X-23.4900 Y14.1100
G01 Z-2.0000
G01 Z0
G00 Z1.0000
G00 X-18.4100 Y14.1100
G01 Z-2.0000
G01 Z0
G00 Z1.0000
M05
G00 Z12.70
G00 X0.0 Y0.0

M02