(G-CODE GENERATED BY FLATCAM v8.93 - www.flatcam.org - Version Date: 2019/08/10)

(Name: percage_lombricomposter)
(Type: G-code from Excellon)
(Units: MM)

(Created on Saturday, 02 November 2019 at 19:20)

(Feedrate: 120.0 mm/min)
(Feedrate rapids 76.2 mm/min)

(Z_Cut: -2.0 mm)
(Z_Move: 1.0 mm)
(Z Toolchange: 12.7 mm)
(X,Y Toolchange: 0.0000, 0.0000 mm)
(Z Start: None mm)
(Z End: 12.7 mm)
(Steps per circle: 128)
(Postprocessor Excellon: default)

(X range:    5.1200 ...   68.0450  mm)
(Y range:    1.1600 ...   91.8900  mm)

(Spindle Speed: 12000.0 RPM)

G21
G90
G94

G01 F120.00
G00 Z1.0000

M03 S12000.0
G00 X60.7850 Y83.6200
G01 Z-2.0000
G01 Z0
G00 Z1.0000
G00 X49.3550 Y84.2550
G01 Z-2.0000
G01 Z0
G00 Z1.0000
G00 X46.1800 Y82.3500
G01 Z-2.0000
G01 Z0
G00 Z1.0000
G00 X49.3550 Y77.2700
G01 Z-2.0000
G01 Z0
G00 Z1.0000
G00 X49.3550 Y72.1900
G01 Z-2.0000
G01 Z0
G00 Z1.0000
G00 X46.1800 Y68.3800
G01 Z-2.0000
G01 Z0
G00 Z1.0000
G00 X29.6700 Y59.4900
G01 Z-2.0000
G01 Z0
G00 Z1.0000
G00 X29.6700 Y62.6650
G01 Z-2.0000
G01 Z0
G00 Z1.0000
G00 X27.7650 Y72.8250
G01 Z-2.0000
G01 Z0
G00 Z1.0000
G00 X27.7650 Y80.4450
G01 Z-2.0000
G01 Z0
G00 Z1.0000
G00 X24.5900 Y80.4450
G01 Z-2.0000
G01 Z0
G00 Z1.0000
G00 X21.4150 Y80.4450
G01 Z-2.0000
G01 Z0
G00 Z1.0000
G00 X21.4150 Y72.8250
G01 Z-2.0000
G01 Z0
G00 Z1.0000
G00 X24.5900 Y72.8250
G01 Z-2.0000
G01 Z0
G00 Z1.0000
G00 X20.7800 Y62.6650
G01 Z-2.0000
G01 Z0
G00 Z1.0000
G00 X13.7950 Y59.4900
G01 Z-2.0000
G01 Z0
G00 Z1.0000
G00 X20.7800 Y57.5850
G01 Z-2.0000
G01 Z0
G00 Z1.0000
G00 X20.7800 Y52.5050
G01 Z-2.0000
G01 Z0
G00 Z1.0000
G00 X30.9400 Y53.1400
G01 Z-2.0000
G01 Z0
G00 Z1.0000
G00 X30.9400 Y44.1140
G01 Z-2.0000
G01 Z0
G00 Z1.0000
G00 X22.8900 Y34.0900
G01 Z-2.0000
G01 Z0
G00 Z1.0000
G00 X13.1600 Y34.0900
G01 Z-2.0000
G01 Z0
G00 Z1.0000
G00 X3.3050 Y11.2300
G01 Z-2.0000
G01 Z0
G00 Z1.0000
G00 X8.0800 Y11.2300
G01 Z-2.0000
G01 Z0
G00 Z1.0000
G00 X15.0650 Y6.1500
G01 Z-2.0000
G01 Z0
G00 Z1.0000
G00 X15.0650 Y1.6650
G01 Z-2.0000
G01 Z0
G00 Z1.0000
G00 X33.4800 Y1.5100
G01 Z-2.0000
G01 Z0
G00 Z1.0000
G00 X33.4800 Y6.1500
G01 Z-2.0000
G01 Z0
G00 Z1.0000
G00 X31.0260 Y18.7640
G01 Z-2.0000
G01 Z0
G00 Z1.0000
G00 X30.7720 Y27.9960
G01 Z-2.0000
G01 Z0
G00 Z1.0000
G00 X49.9900 Y16.3100
G01 Z-2.0000
G01 Z0
G00 Z1.0000
G00 X49.9900 Y23.2950
G01 Z-2.0000
G01 Z0
G00 Z1.0000
G00 X49.3550 Y27.1050
G01 Z-2.0000
G01 Z0
G00 Z1.0000
G00 X49.3550 Y34.0900
G01 Z-2.0000
G01 Z0
G00 Z1.0000
G00 X49.3550 Y41.0750
G01 Z-2.0000
G01 Z0
G00 Z1.0000
G00 X42.3700 Y49.3300
G01 Z-2.0000
G01 Z0
G00 Z1.0000
G00 X47.4500 Y48.6950
G01 Z-2.0000
G01 Z0
G00 Z1.0000
G00 X49.3550 Y52.5050
G01 Z-2.0000
G01 Z0
G00 Z1.0000
G00 X49.3550 Y55.0450
G01 Z-2.0000
G01 Z0
G00 Z1.0000
G00 X49.3550 Y60.7600
G01 Z-2.0000
G01 Z0
G00 Z1.0000
G00 X49.3550 Y66.4750
G01 Z-2.0000
G01 Z0
G00 Z1.0000
G00 X60.7850 Y73.4000
G01 Z-2.0000
G01 Z0
G00 Z1.0000
M03 S12000.0
G00 X27.7650 Y51.2350
G01 Z-2.0000
G01 Z0
G00 Z1.0000
G00 X27.7650 Y43.6150
G01 Z-2.0000
G01 Z0
G00 Z1.0000
G00 X24.5900 Y41.4560
G01 Z-2.0000
G01 Z0
G00 Z1.0000
G00 X20.7800 Y40.4400
G01 Z-2.0000
G01 Z0
G00 Z1.0000
G00 X20.7800 Y37.2650
G01 Z-2.0000
G01 Z0
G00 Z1.0000
G00 X13.1600 Y40.4400
G01 Z-2.0000
G01 Z0
G00 Z1.0000
G00 X13.1600 Y37.2650
G01 Z-2.0000
G01 Z0
G00 Z1.0000
G00 X13.1600 Y29.0100
G01 Z-2.0000
G01 Z0
G00 Z1.0000
G00 X13.1600 Y23.9300
G01 Z-2.0000
G01 Z0
G00 Z1.0000
G00 X13.1600 Y20.1200
G01 Z-2.0000
G01 Z0
G00 Z1.0000
G00 X20.7800 Y16.3100
G01 Z-2.0000
G01 Z0
G00 Z1.0000
G00 X20.7800 Y20.1200
G01 Z-2.0000
G01 Z0
G00 Z1.0000
G00 X20.7800 Y23.9300
G01 Z-2.0000
G01 Z0
G00 Z1.0000
G00 X20.7800 Y29.0100
G01 Z-2.0000
G01 Z0
G00 Z1.0000
G00 X24.5900 Y29.0100
G01 Z-2.0000
G01 Z0
G00 Z1.0000
G00 X24.5900 Y21.3900
G01 Z-2.0000
G01 Z0
G00 Z1.0000
G00 X28.4000 Y16.3100
G01 Z-2.0000
G01 Z0
G00 Z1.0000
G00 X26.4950 Y11.8650
G01 Z-2.0000
G01 Z0
G00 Z1.0000
G00 X34.1150 Y11.8650
G01 Z-2.0000
G01 Z0
G00 Z1.0000
G00 X37.9250 Y10.5950
G01 Z-2.0000
G01 Z0
G00 Z1.0000
G00 X36.0200 Y13.7700
G01 Z-2.0000
G01 Z0
G00 Z1.0000
G00 X37.2900 Y16.9450
G01 Z-2.0000
G01 Z0
G00 Z1.0000
G00 X35.3850 Y20.1200
G01 Z-2.0000
G01 Z0
G00 Z1.0000
G00 X43.0050 Y20.1200
G01 Z-2.0000
G01 Z0
G00 Z1.0000
G00 X44.9100 Y16.9450
G01 Z-2.0000
G01 Z0
G00 Z1.0000
G00 X43.6400 Y13.7700
G01 Z-2.0000
G01 Z0
G00 Z1.0000
G00 X45.5450 Y10.5950
G01 Z-2.0000
G01 Z0
G00 Z1.0000
G00 X52.5300 Y4.8800
G01 Z-2.0000
G01 Z0
G00 Z1.0000
G00 X52.5300 Y12.5000
G01 Z-2.0000
G01 Z0
G00 Z1.0000
G00 X52.5300 Y18.8500
G01 Z-2.0000
G01 Z0
G00 Z1.0000
G00 X52.5300 Y26.4700
G01 Z-2.0000
G01 Z0
G00 Z1.0000
G00 X52.5300 Y31.5500
G01 Z-2.0000
G01 Z0
G00 Z1.0000
G00 X52.5300 Y39.1700
G01 Z-2.0000
G01 Z0
G00 Z1.0000
G00 X52.5300 Y44.2500
G01 Z-2.0000
G01 Z0
G00 Z1.0000
G00 X52.5300 Y51.8700
G01 Z-2.0000
G01 Z0
G00 Z1.0000
G00 X52.5300 Y56.9500
G01 Z-2.0000
G01 Z0
G00 Z1.0000
G00 X52.5300 Y64.5700
G01 Z-2.0000
G01 Z0
G00 Z1.0000
G00 X52.5300 Y69.6500
G01 Z-2.0000
G01 Z0
G00 Z1.0000
G00 X52.5300 Y77.2700
G01 Z-2.0000
G01 Z0
G00 Z1.0000
G00 X15.0650 Y80.4450
G01 Z-2.0000
G01 Z0
G00 Z1.0000
G00 X7.4450 Y80.4450
G01 Z-2.0000
G01 Z0
G00 Z1.0000
G00 X24.5900 Y51.8700
G01 Z-2.0000
G01 Z0
G00 Z1.0000
M03 S12000.0
G00 X13.1700 Y86.1600
G01 Z-2.0000
G01 Z0
G00 Z1.0000
G00 X13.1600 Y91.2400
G01 Z-2.0000
G01 Z0
G00 Z1.0000
M03 S12000.0
G00 X38.5600 Y44.2500
G01 Z-2.0000
G01 Z0
G00 Z1.0000
G00 X38.5600 Y41.7100
G01 Z-2.0000
G01 Z0
G00 Z1.0000
G00 X38.5600 Y39.1700
G01 Z-2.0000
G01 Z0
G00 Z1.0000
G00 X38.5600 Y36.6300
G01 Z-2.0000
G01 Z0
G00 Z1.0000
G00 X38.5600 Y34.0900
G01 Z-2.0000
G01 Z0
G00 Z1.0000
G00 X38.5600 Y31.5500
G01 Z-2.0000
G01 Z0
G00 Z1.0000
G00 X38.5600 Y29.0100
G01 Z-2.0000
G01 Z0
G00 Z1.0000
G00 X38.5600 Y26.4700
G01 Z-2.0000
G01 Z0
G00 Z1.0000
G00 X36.0200 Y26.4700
G01 Z-2.0000
G01 Z0
G00 Z1.0000
G00 X36.0200 Y29.0100
G01 Z-2.0000
G01 Z0
G00 Z1.0000
G00 X36.0200 Y31.5500
G01 Z-2.0000
G01 Z0
G00 Z1.0000
G00 X36.0200 Y34.0900
G01 Z-2.0000
G01 Z0
G00 Z1.0000
G00 X36.0200 Y36.6300
G01 Z-2.0000
G01 Z0
G00 Z1.0000
G00 X36.0200 Y39.1700
G01 Z-2.0000
G01 Z0
G00 Z1.0000
G00 X36.0200 Y41.7100
G01 Z-2.0000
G01 Z0
G00 Z1.0000
G00 X36.0200 Y44.2500
G01 Z-2.0000
G01 Z0
G00 Z1.0000
G00 X36.6550 Y59.4900
G01 Z-2.0000
G01 Z0
G00 Z1.0000
G00 X36.6550 Y62.0300
G01 Z-2.0000
G01 Z0
G00 Z1.0000
G00 X36.6550 Y64.5700
G01 Z-2.0000
G01 Z0
G00 Z1.0000
G00 X36.6550 Y67.1100
G01 Z-2.0000
G01 Z0
G00 Z1.0000
G00 X36.6550 Y69.6500
G01 Z-2.0000
G01 Z0
G00 Z1.0000
G00 X36.6550 Y72.1900
G01 Z-2.0000
G01 Z0
G00 Z1.0000
G00 X36.6550 Y74.7300
G01 Z-2.0000
G01 Z0
G00 Z1.0000
G00 X36.6550 Y77.2700
G01 Z-2.0000
G01 Z0
G00 Z1.0000
G00 X39.1950 Y77.2700
G01 Z-2.0000
G01 Z0
G00 Z1.0000
G00 X39.1950 Y74.7300
G01 Z-2.0000
G01 Z0
G00 Z1.0000
G00 X39.1950 Y72.1900
G01 Z-2.0000
G01 Z0
G00 Z1.0000
G00 X39.1950 Y69.6500
G01 Z-2.0000
G01 Z0
G00 Z1.0000
G00 X39.1950 Y67.1100
G01 Z-2.0000
G01 Z0
G00 Z1.0000
G00 X39.1950 Y64.5700
G01 Z-2.0000
G01 Z0
G00 Z1.0000
G00 X39.1950 Y62.0300
G01 Z-2.0000
G01 Z0
G00 Z1.0000
G00 X39.1950 Y59.4900
G01 Z-2.0000
G01 Z0
G00 Z1.0000
M03 S12000.0
G00 X56.3400 Y25.2000
G01 Z-2.0000
G01 Z0
G00 Z1.0000
G00 X56.3400 Y22.6600
G01 Z-2.0000
G01 Z0
G00 Z1.0000
G00 X56.3400 Y20.1200
G01 Z-2.0000
G01 Z0
G00 Z1.0000
G00 X56.3400 Y12.5000
G01 Z-2.0000
G01 Z0
G00 Z1.0000
G00 X56.3400 Y9.9600
G01 Z-2.0000
G01 Z0
G00 Z1.0000
G00 X56.3400 Y7.4200
G01 Z-2.0000
G01 Z0
G00 Z1.0000
G00 X56.3400 Y32.8200
G01 Z-2.0000
G01 Z0
G00 Z1.0000
G00 X56.3400 Y35.3600
G01 Z-2.0000
G01 Z0
G00 Z1.0000
G00 X56.3400 Y37.9000
G01 Z-2.0000
G01 Z0
G00 Z1.0000
G00 X56.3400 Y45.5200
G01 Z-2.0000
G01 Z0
G00 Z1.0000
G00 X56.3400 Y48.0600
G01 Z-2.0000
G01 Z0
G00 Z1.0000
G00 X56.3400 Y50.6000
G01 Z-2.0000
G01 Z0
G00 Z1.0000
G00 X56.3400 Y58.2200
G01 Z-2.0000
G01 Z0
G00 Z1.0000
G00 X56.3400 Y60.7600
G01 Z-2.0000
G01 Z0
G00 Z1.0000
G00 X56.3400 Y63.3000
G01 Z-2.0000
G01 Z0
G00 Z1.0000
G00 X56.3400 Y70.9200
G01 Z-2.0000
G01 Z0
G00 Z1.0000
G00 X56.3400 Y73.4600
G01 Z-2.0000
G01 Z0
G00 Z1.0000
G00 X56.3400 Y76.0000
G01 Z-2.0000
G01 Z0
G00 Z1.0000
M03 S12000.0
G00 X8.0800 Y33.1750
G01 Z-2.0000
G01 Z0
G00 Z1.0000
G00 X8.0800 Y36.9100
G01 Z-2.0000
G01 Z0
G00 Z1.0000
G00 X8.0800 Y40.4100
G01 Z-2.0000
G01 Z0
G00 Z1.0000
G00 X8.0800 Y43.9100
G01 Z-2.0000
G01 Z0
G00 Z1.0000
G00 X8.0800 Y47.4100
G01 Z-2.0000
G01 Z0
G00 Z1.0000
G00 X8.0800 Y50.9100
G01 Z-2.0000
G01 Z0
G00 Z1.0000
G00 X8.0800 Y54.4100
G01 Z-2.0000
G01 Z0
G00 Z1.0000
G00 X8.0800 Y58.2200
G01 Z-2.0000
G01 Z0
G00 Z1.0000
G00 X8.0800 Y61.7200
G01 Z-2.0000
G01 Z0
G00 Z1.0000
G00 X8.0800 Y65.2200
G01 Z-2.0000
G01 Z0
G00 Z1.0000
G00 X8.0800 Y68.7200
G01 Z-2.0000
G01 Z0
G00 Z1.0000
G00 X8.0800 Y72.2200
G01 Z-2.0000
G01 Z0
G00 Z1.0000
G00 X8.0800 Y75.7200
G01 Z-2.0000
G01 Z0
G00 Z1.0000
G00 X46.8150 Y6.1500
G01 Z-2.0000
G01 Z0
G00 Z1.0000
G00 X43.3150 Y6.1500
G01 Z-2.0000
G01 Z0
G00 Z1.0000
G00 X39.8150 Y6.1500
G01 Z-2.0000
G01 Z0
G00 Z1.0000
G00 X36.3150 Y6.1500
G01 Z-2.0000
G01 Z0
G00 Z1.0000
G00 X30.3050 Y6.1500
G01 Z-2.0000
G01 Z0
G00 Z1.0000
G00 X26.8050 Y6.1500
G01 Z-2.0000
G01 Z0
G00 Z1.0000
G00 X23.3050 Y6.1500
G01 Z-2.0000
G01 Z0
G00 Z1.0000
G00 X19.8050 Y6.1500
G01 Z-2.0000
G01 Z0
G00 Z1.0000
G00 X8.0800 Y15.6750
G01 Z-2.0000
G01 Z0
G00 Z1.0000
G00 X8.0800 Y19.1750
G01 Z-2.0000
G01 Z0
G00 Z1.0000
G00 X8.0800 Y22.6750
G01 Z-2.0000
G01 Z0
G00 Z1.0000
G00 X8.0800 Y26.1750
G01 Z-2.0000
G01 Z0
G00 Z1.0000
G00 X8.0800 Y29.6750
G01 Z-2.0000
G01 Z0
G00 Z1.0000
M03 S12000.0
G00 X56.3400 Y89.9700
G01 Z-2.0000
G01 Z0
G00 Z1.0000
G00 X51.2600 Y89.9700
G01 Z-2.0000
G01 Z0
G00 Z1.0000
G00 X46.1800 Y89.9700
G01 Z-2.0000
G01 Z0
G00 Z1.0000
G00 X41.1000 Y89.9700
G01 Z-2.0000
G01 Z0
G00 Z1.0000
G00 X36.0200 Y89.9700
G01 Z-2.0000
G01 Z0
G00 Z1.0000
G00 X30.9400 Y89.9700
G01 Z-2.0000
G01 Z0
G00 Z1.0000
G00 X65.2300 Y4.8800
G01 Z-2.0000
G01 Z0
G00 Z1.0000
G00 X65.2300 Y9.9600
G01 Z-2.0000
G01 Z0
G00 Z1.0000
G00 X65.2300 Y15.0400
G01 Z-2.0000
G01 Z0
G00 Z1.0000
G00 X65.2300 Y20.1200
G01 Z-2.0000
G01 Z0
G00 Z1.0000
G00 X65.2300 Y25.2000
G01 Z-2.0000
G01 Z0
G00 Z1.0000
G00 X65.2300 Y30.2800
G01 Z-2.0000
G01 Z0
G00 Z1.0000
G00 X65.2300 Y35.3600
G01 Z-2.0000
G01 Z0
G00 Z1.0000
G00 X65.2300 Y40.4400
G01 Z-2.0000
G01 Z0
G00 Z1.0000
G00 X65.2300 Y45.5200
G01 Z-2.0000
G01 Z0
G00 Z1.0000
G00 X65.2300 Y50.6000
G01 Z-2.0000
G01 Z0
G00 Z1.0000
G00 X65.2300 Y55.6800
G01 Z-2.0000
G01 Z0
G00 Z1.0000
G00 X65.2300 Y60.7600
G01 Z-2.0000
G01 Z0
G00 Z1.0000
G00 X65.2300 Y65.8400
G01 Z-2.0000
G01 Z0
G00 Z1.0000
G00 X65.2300 Y70.9200
G01 Z-2.0000
G01 Z0
G00 Z1.0000
G00 X65.2300 Y76.0000
G01 Z-2.0000
G01 Z0
G00 Z1.0000
G00 X65.2300 Y81.0800
G01 Z-2.0000
G01 Z0
G00 Z1.0000
G00 X65.2300 Y86.1600
G01 Z-2.0000
G01 Z0
G00 Z1.0000
G00 X65.2300 Y91.2400
G01 Z-2.0000
G01 Z0
G00 Z1.0000
M03 S12000.0
G00 X23.3200 Y89.9700
G01 Z-2.0000
G01 Z0
G00 Z1.0000
G00 X18.2400 Y89.9700
G01 Z-2.0000
G01 Z0
G00 Z1.0000
G00 X8.0800 Y89.9700
G01 Z-2.0000
G01 Z0
G00 Z1.0000
G00 X8.0800 Y84.8900
G01 Z-2.0000
G01 Z0
G00 Z1.0000
M05
G00 Z12.70
G00 X0.0 Y0.0

M02