(G-CODE GENERATED BY FLATCAM v8.93 - www.flatcam.org - Version Date: 2019/08/10)

(Name: remote_module_front)
(Type: G-code from Geometry)
(Units: MM)

(Created on Monday, 11 November 2019 at 20:23)

(TOOL DIAMETER: 0.6 mm)
(Feedrate: 400.0 mm/min)
(Feedrate_Z: 76.2 mm/min)
(Feedrate rapids 76.2 mm/min)

(Z_Cut: -0.3732 mm)
(Z_Move: 1.0 mm)
(Z Toolchange: 12.7 mm)
(X,Y Toolchange: 0.0000, 0.0000 mm)
(Z Start: None mm)
(Z End: 12.7 mm)
(Steps per circle: 128)
(Postprocessor Geometry: default)

(X range:   -4.1200 ...   61.2100  mm)
(Y range:   -2.9000 ...   89.2100  mm)

(Spindle Speed: 12000 RPM)

G21
G90
G94

G01 F400.00
G00 Z1.0000

M03 S12000
G00 X0.7622 Y-1.4303
G01 F76.20
G01 Z-0.3732
G01 F400.00
G01 X0.6901 Y-1.4664
G01 X0.6176 Y-1.4984
G01 X0.5437 Y-1.5267
G01 X0.4685 Y-1.5515
G01 X0.3921 Y-1.5725
G01 X0.3148 Y-1.5898
G01 X0.2368 Y-1.6033
G01 X0.1582 Y-1.6129
G01 X0.0792 Y-1.6187
G01 X0.0000 Y-1.6207
G01 X-0.0791 Y-1.6187
G01 X-0.1581 Y-1.6129
G01 X-0.2367 Y-1.6033
G01 X-0.3147 Y-1.5898
G01 X-0.3920 Y-1.5725
G01 X-0.4684 Y-1.5515
G01 X-0.5436 Y-1.5268
G01 X-0.6175 Y-1.4984
G01 X-0.6900 Y-1.4664
G01 X-0.7648 Y-1.4291
G01 X-0.7731 Y-1.4261
G01 X-0.7818 Y-1.4244
G01 X-0.7935 Y-1.4241
G01 X-0.8080 Y-1.4270
G01 X-0.8187 Y-1.4318
G01 X-0.8305 Y-1.4406
G01 X-0.8382 Y-1.4495
G01 X-0.8451 Y-1.4625
G01 X-0.8482 Y-1.4739
G01 X-0.8490 Y-1.4856
G01 X-0.8468 Y-1.5001
G01 X-0.8426 Y-1.5111
G01 X-0.8362 Y-1.5210
G01 X-0.8281 Y-1.5295
G01 X-0.8159 Y-1.5377
G01 X-0.7424 Y-1.5744
G01 X-0.6646 Y-1.6088
G01 X-0.5853 Y-1.6394
G01 X-0.5045 Y-1.6660
G01 X-0.4225 Y-1.6887
G01 X-0.3366 Y-1.7079
G01 X-0.2528 Y-1.7223
G01 X-0.1713 Y-1.7323
G01 X-0.0835 Y-1.7387
G01 X0.0015 Y-1.7407
G01 X0.0836 Y-1.7387
G01 X0.1685 Y-1.7325
G01 X0.2529 Y-1.7223
G01 X0.3367 Y-1.7078
G01 X0.4197 Y-1.6894
G01 X0.5018 Y-1.6668
G01 X0.5826 Y-1.6403
G01 X0.6620 Y-1.6099
G01 X0.7399 Y-1.5757
G01 X0.8160 Y-1.5376
G01 X0.8259 Y-1.5314
G01 X0.8345 Y-1.5233
G01 X0.8413 Y-1.5137
G01 X0.8450 Y-1.5057
G01 X0.8482 Y-1.4944
G01 X0.8491 Y-1.4856
G01 X0.8487 Y-1.4768
G01 X0.8470 Y-1.4681
G01 X0.8440 Y-1.4598
G01 X0.8399 Y-1.4520
G01 X0.8346 Y-1.4449
G01 X0.8238 Y-1.4350
G01 X0.8162 Y-1.4304
G01 X0.8081 Y-1.4270
G01 X0.7937 Y-1.4241
G01 X0.7848 Y-1.4241
G01 X0.7761 Y-1.4253
G01 X0.7622 Y-1.4303
G00 Z1.0000
G00 X1.9400 Y-2.5400
G01 F76.20
G01 Z-0.3732
G01 F400.00
G01 X-1.9400 Y-2.5400
G01 X-1.9400 Y27.8200
G01 X1.9400 Y27.8200
G01 X1.9400 Y-2.5400
G00 Z1.0000
G00 X4.0000 Y-2.5400
G01 F76.20
G01 Z-0.3732
G01 F400.00
G01 X2.0600 Y-2.5400
G01 X2.0600 Y27.5800
G01 X4.0000 Y27.5800
G01 X4.0000 Y-2.5400
G00 Z1.0000
G00 X4.2400 Y-2.7800
G01 F76.20
G01 Z-0.3732
G01 F400.00
G01 X2.0571 Y-2.7800
G01 X2.0454 Y-2.7818
G01 X2.0343 Y-2.7857
G01 X2.0242 Y-2.7918
G01 X2.0155 Y-2.7997
G01 X2.0085 Y-2.8091
G01 X2.0035 Y-2.8198
G01 X2.0006 Y-2.8312
G01 X2.0000 Y-2.8429
G01 X2.0018 Y-2.8546
G01 X2.0057 Y-2.8657
G01 X2.0118 Y-2.8758
G01 X2.0176 Y-2.8824
G01 X2.0266 Y-2.8899
G01 X2.0370 Y-2.8955
G01 X2.0483 Y-2.8989
G01 X2.0600 Y-2.9000
G01 X4.3000 Y-2.9000
G01 X4.3117 Y-2.8989
G01 X4.3202 Y-2.8965
G01 X4.3309 Y-2.8915
G01 X4.3403 Y-2.8845
G01 X4.3482 Y-2.8758
G01 X4.3543 Y-2.8657
G01 X4.3589 Y-2.8517
G01 X4.3600 Y-2.8400
G01 X4.3600 Y-0.8400
G01 X4.3589 Y-0.8283
G01 X4.3555 Y-0.8170
G01 X4.3499 Y-0.8066
G01 X4.3424 Y-0.7976
G01 X4.3334 Y-0.7901
G01 X4.3230 Y-0.7845
G01 X4.3117 Y-0.7811
G01 X4.3029 Y-0.7800
G01 X4.2912 Y-0.7806
G01 X4.2798 Y-0.7835
G01 X4.2691 Y-0.7885
G01 X4.2597 Y-0.7955
G01 X4.2518 Y-0.8042
G01 X4.2457 Y-0.8143
G01 X4.2418 Y-0.8254
G01 X4.2400 Y-0.8371
G01 X4.2400 Y-2.7800
G00 Z1.0000
G00 X5.7786 Y-1.5957
G01 F76.20
G01 Z-0.3732
G01 F400.00
G01 X5.6888 Y-1.6855
G01 X5.6800 Y-1.6961
G01 X5.6748 Y-1.7050
G01 X5.6255 Y-1.8038
G01 X5.6217 Y-1.8147
G01 X5.6193 Y-1.8299
G01 X5.6196 Y-1.9364
G01 X5.6225 Y-1.9508
G01 X5.6265 Y-1.9611
G01 X5.6299 Y-1.9676
G01 X5.6387 Y-1.9794
G01 X5.6496 Y-1.9893
G01 X5.6589 Y-1.9952
G01 X5.6725 Y-2.0009
G01 X5.6869 Y-2.0037
G01 X5.6980 Y-2.0040
G01 X5.7125 Y-2.0018
G01 X5.7230 Y-1.9984
G01 X5.7329 Y-1.9934
G01 X5.7390 Y-1.9893
G01 X5.7499 Y-1.9794
G01 X5.7586 Y-1.9676
G01 X5.7636 Y-1.9578
G01 X5.7661 Y-1.9508
G01 X5.7685 Y-1.9401
G01 X5.7692 Y-1.9327
G01 X5.7693 Y-1.8515
G01 X5.8036 Y-1.7830
G01 X5.8573 Y-1.7293
G01 X5.8573 Y-1.8637
G01 X5.8231 Y-1.9322
G01 X5.7512 Y-2.0041
G01 X5.5898 Y-2.0445
G01 X5.2750 Y-2.0445
G01 X5.1136 Y-2.0041
G01 X5.0417 Y-1.9322
G01 X5.0074 Y-1.8637
G01 X5.0074 Y-1.7087
G01 X5.0417 Y-1.6402
G01 X5.1136 Y-1.5682
G01 X5.2750 Y-1.5279
G01 X5.5898 Y-1.5279
G01 X5.7512 Y-1.5682
G01 X5.7786 Y-1.5957
G00 Z1.0000
G00 X5.9761 Y-1.6105
G01 F76.20
G01 Z-0.3732
G01 F400.00
G01 X6.0331 Y-1.5535
G01 X6.0419 Y-1.5429
G01 X6.0471 Y-1.5340
G01 X6.0947 Y-1.4388
G01 X6.1000 Y-1.4251
G01 X6.1025 Y-1.4106
G01 X6.1021 Y-1.3959
G01 X6.0988 Y-1.3815
G01 X6.0928 Y-1.3681
G01 X6.0843 Y-1.3561
G01 X6.0736 Y-1.3460
G01 X6.0612 Y-1.3381
G01 X6.0474 Y-1.3329
G01 X6.0366 Y-1.3307
G01 X6.0256 Y-1.3302
G01 X6.0182 Y-1.3308
G01 X6.0074 Y-1.3330
G01 X6.0004 Y-1.3353
G01 X5.9905 Y-1.3400
G01 X5.9842 Y-1.3440
G01 X5.9757 Y-1.3510
G01 X5.9683 Y-1.3592
G01 X5.9622 Y-1.3684
G01 X5.9183 Y-1.4560
G01 X5.8848 Y-1.4896
G01 X5.8399 Y-1.4449
G01 X5.8281 Y-1.4361
G01 X5.8182 Y-1.4311
G01 X5.8077 Y-1.4277
G01 X5.6172 Y-1.3801
G01 X5.6064 Y-1.3782
G01 X5.2584 Y-1.3782
G01 X5.2475 Y-1.3801
G01 X5.0570 Y-1.4277
G01 X5.0500 Y-1.4298
G01 X5.0399 Y-1.4343
G01 X5.0336 Y-1.4381
G01 X5.0248 Y-1.4449
G01 X4.9223 Y-1.5477
G01 X4.9129 Y-1.5622
G01 X4.8636 Y-1.6609
G01 X4.8589 Y-1.6756
G01 X4.8573 Y-1.6910
G01 X4.8573 Y-1.8814
G01 X4.8577 Y-1.8891
G01 X4.8598 Y-1.9005
G01 X4.8653 Y-1.9150
G01 X4.9129 Y-2.0102
G01 X4.9223 Y-2.0246
G01 X5.0248 Y-2.1275
G01 X5.0336 Y-2.1343
G01 X5.0399 Y-2.1381
G01 X5.0500 Y-2.1426
G01 X5.0570 Y-2.1447
G01 X5.2475 Y-2.1923
G01 X5.2584 Y-2.1942
G01 X5.2657 Y-2.1946
G01 X5.6064 Y-2.1942
G01 X5.6172 Y-2.1923
G01 X5.8077 Y-2.1447
G01 X5.8148 Y-2.1426
G01 X5.8249 Y-2.1381
G01 X5.8312 Y-2.1343
G01 X5.8399 Y-2.1275
G01 X5.9425 Y-2.0246
G01 X5.9519 Y-2.0102
G01 X5.9995 Y-1.9150
G01 X6.0042 Y-1.9032
G01 X6.0063 Y-1.8941
G01 X6.0074 Y-1.8831
G01 X6.0070 Y-1.6832
G01 X6.0049 Y-1.6718
G01 X6.0011 Y-1.6609
G01 X5.9761 Y-1.6105
G00 Z1.0000
G00 X5.1612 Y-0.8612
G01 F76.20
G01 Z-0.3732
G01 F400.00
G01 X5.8573 Y-0.8612
G01 X5.8573 Y-1.0719
G01 X5.8588 Y-1.0865
G01 X5.8617 Y-1.0972
G01 X5.8680 Y-1.1105
G01 X5.8721 Y-1.1166
G01 X5.8793 Y-1.1250
G01 X5.8907 Y-1.1343
G01 X5.9037 Y-1.1412
G01 X5.9177 Y-1.1455
G01 X5.9324 Y-1.1469
G01 X5.9470 Y-1.1455
G01 X5.9542 Y-1.1437
G01 X5.9645 Y-1.1397
G01 X5.9741 Y-1.1343
G01 X5.9800 Y-1.1299
G01 X5.9880 Y-1.1223
G01 X5.9948 Y-1.1136
G01 X5.9986 Y-1.1073
G01 X6.0030 Y-1.0972
G01 X6.0060 Y-1.0865
G01 X6.0073 Y-1.0756
G01 X6.0074 Y-0.5005
G01 X6.0060 Y-0.4858
G01 X6.0030 Y-0.4752
G01 X6.0002 Y-0.4684
G01 X5.9948 Y-0.4588
G01 X5.9904 Y-0.4529
G01 X5.9828 Y-0.4449
G01 X5.9741 Y-0.4381
G01 X5.9645 Y-0.4326
G01 X5.9577 Y-0.4298
G01 X5.9470 Y-0.4269
G01 X5.9361 Y-0.4255
G01 X5.9250 Y-0.4258
G01 X5.9141 Y-0.4277
G01 X5.9071 Y-0.4298
G01 X5.8970 Y-0.4343
G01 X5.8877 Y-0.4402
G01 X5.8793 Y-0.4474
G01 X5.8744 Y-0.4529
G01 X5.8680 Y-0.4619
G01 X5.8631 Y-0.4718
G01 X5.8606 Y-0.4787
G01 X5.8582 Y-0.4895
G01 X5.8574 Y-0.4968
G01 X5.8573 Y-0.7112
G01 X4.9287 Y-0.7112
G01 X4.9141 Y-0.7134
G01 X4.9037 Y-0.7169
G01 X4.8938 Y-0.7218
G01 X4.8848 Y-0.7282
G01 X4.8768 Y-0.7358
G01 X4.8700 Y-0.7445
G01 X4.8645 Y-0.7541
G01 X4.8606 Y-0.7644
G01 X4.8581 Y-0.7752
G01 X4.8574 Y-0.7826
G01 X4.8577 Y-0.7936
G01 X4.8596 Y-0.8045
G01 X4.8631 Y-0.8150
G01 X4.8662 Y-0.8216
G01 X4.8721 Y-0.8309
G01 X4.8794 Y-0.8393
G01 X4.8908 Y-0.8486
G01 X5.0274 Y-0.9397
G01 X5.1088 Y-1.0211
G01 X5.1527 Y-1.1087
G01 X5.1588 Y-1.1179
G01 X5.1689 Y-1.1286
G01 X5.1747 Y-1.1331
G01 X5.1842 Y-1.1388
G01 X5.1909 Y-1.1418
G01 X5.2015 Y-1.1451
G01 X5.2087 Y-1.1464
G01 X5.2197 Y-1.1469
G01 X5.2271 Y-1.1464
G01 X5.2379 Y-1.1443
G01 X5.2517 Y-1.1390
G01 X5.2641 Y-1.1312
G01 X5.2748 Y-1.1211
G01 X5.2833 Y-1.1091
G01 X5.2893 Y-1.0956
G01 X5.2925 Y-1.0813
G01 X5.2929 Y-1.0666
G01 X5.2905 Y-1.0521
G01 X5.2852 Y-1.0383
G01 X5.2376 Y-0.9431
G01 X5.2323 Y-0.9342
G01 X5.2235 Y-0.9236
G01 X5.1612 Y-0.8612
G00 Z1.0000
G00 X7.0700 Y0.0200
G01 F76.20
G01 Z-0.3732
G01 F400.00
G01 X5.6800 Y0.0200
G01 X5.6800 Y3.1700
G01 X7.0700 Y3.1700
G01 X7.0700 Y0.0200
G00 Z1.0000
G00 X10.2010 Y0.0200
G01 F76.20
G01 Z-0.3732
G01 F400.00
G01 X7.1900 Y0.0200
G01 X7.1900 Y10.1400
G01 X10.2010 Y10.1400
G01 X10.2010 Y0.0200
G00 Z1.0000
G00 X12.0444 Y2.9569
G01 F76.20
G01 Z-0.3732
G01 F400.00
G01 X13.0444 Y2.9569
G01 X13.0554 Y2.9577
G01 X13.0662 Y2.9601
G01 X13.0765 Y2.9641
G01 X13.0861 Y2.9695
G01 X13.0920 Y2.9739
G01 X13.1000 Y2.9815
G01 X13.1047 Y2.9872
G01 X13.1106 Y2.9965
G01 X13.1137 Y3.0032
G01 X13.1172 Y3.0137
G01 X13.1191 Y3.0246
G01 X13.1194 Y3.0319
G01 X13.1186 Y3.0429
G01 X13.1162 Y3.0537
G01 X13.1137 Y3.0606
G01 X13.1087 Y3.0705
G01 X13.1047 Y3.0766
G01 X13.0974 Y3.0850
G01 X13.0891 Y3.0922
G01 X13.0830 Y3.0963
G01 X13.0731 Y3.1012
G01 X13.0626 Y3.1047
G01 X13.0554 Y3.1061
G01 X13.0444 Y3.1069
G01 X12.6432 Y3.1069
G01 X12.6432 Y3.2309
G01 X13.0932 Y3.5464
G01 X13.1034 Y3.5570
G01 X13.1113 Y3.5694
G01 X13.1156 Y3.5796
G01 X13.1188 Y3.5939
G01 X13.1194 Y3.6050
G01 X13.1176 Y3.6196
G01 X13.1145 Y3.6301
G01 X13.1079 Y3.6433
G01 X13.0989 Y3.6549
G01 X13.0907 Y3.6624
G01 X13.0783 Y3.6703
G01 X13.0646 Y3.6756
G01 X13.0538 Y3.6778
G01 X13.0391 Y3.6782
G01 X13.0246 Y3.6757
G01 X13.0108 Y3.6705
G01 X13.0013 Y3.6648
G01 X12.6432 Y3.4141
G01 X12.6416 Y3.4282
G01 X12.6369 Y3.4429
G01 X12.5877 Y3.5417
G01 X12.5824 Y3.5506
G01 X12.5760 Y3.5587
G01 X12.5260 Y3.6088
G01 X12.5154 Y3.6176
G01 X12.5065 Y3.6228
G01 X12.4042 Y3.6735
G01 X12.3931 Y3.6768
G01 X12.3777 Y3.6784
G01 X12.2349 Y3.6784
G01 X12.2233 Y3.6775
G01 X12.2120 Y3.6748
G01 X12.2013 Y3.6704
G01 X12.1000 Y3.6195
G01 X12.0866 Y3.6088
G01 X12.0389 Y3.5612
G01 X12.0301 Y3.5506
G01 X12.0249 Y3.5417
G01 X11.9756 Y3.4429
G01 X11.9718 Y3.4320
G01 X11.9697 Y3.4206
G01 X11.9693 Y3.0319
G01 X11.9702 Y3.0209
G01 X11.9737 Y3.0066
G01 X11.9800 Y2.9933
G01 X11.9864 Y2.9843
G01 X11.9968 Y2.9739
G01 X12.0058 Y2.9675
G01 X12.0191 Y2.9613
G01 X12.0297 Y2.9583
G01 X12.0444 Y2.9569
G00 Z1.0000
G00 X12.4932 Y3.1069
G01 F76.20
G01 Z-0.3732
G01 F400.00
G01 X12.1194 Y3.1069
G01 X12.1194 Y3.3951
G01 X12.1537 Y3.4636
G01 X12.1841 Y3.4940
G01 X12.2526 Y3.5283
G01 X12.3600 Y3.5283
G01 X12.4285 Y3.4940
G01 X12.4589 Y3.4636
G01 X12.4932 Y3.3951
G01 X12.4932 Y3.1069
G00 Z1.0000
G00 X12.2732 Y4.1950
G01 F76.20
G01 Z-0.3732
G01 F400.00
G01 X12.9693 Y4.1950
G01 X12.9693 Y3.9843
G01 X12.9708 Y3.9696
G01 X12.9737 Y3.9590
G01 X12.9782 Y3.9489
G01 X12.9820 Y3.9426
G01 X12.9913 Y3.9312
G01 X13.0027 Y3.9219
G01 X13.0157 Y3.9150
G01 X13.0297 Y3.9107
G01 X13.0444 Y3.9092
G01 X13.0554 Y3.9101
G01 X13.0626 Y3.9115
G01 X13.0765 Y3.9165
G01 X13.0861 Y3.9219
G01 X13.0920 Y3.9263
G01 X13.1000 Y3.9339
G01 X13.1068 Y3.9426
G01 X13.1122 Y3.9522
G01 X13.1162 Y3.9625
G01 X13.1180 Y3.9696
G01 X13.1193 Y3.9806
G01 X13.1194 Y4.5557
G01 X13.1180 Y4.5704
G01 X13.1150 Y4.5810
G01 X13.1122 Y4.5878
G01 X13.1068 Y4.5974
G01 X13.1024 Y4.6033
G01 X13.0948 Y4.6113
G01 X13.0861 Y4.6181
G01 X13.0765 Y4.6235
G01 X13.0697 Y4.6264
G01 X13.0590 Y4.6293
G01 X13.0481 Y4.6307
G01 X13.0370 Y4.6304
G01 X13.0297 Y4.6293
G01 X13.0191 Y4.6264
G01 X13.0090 Y4.6219
G01 X12.9997 Y4.6160
G01 X12.9913 Y4.6088
G01 X12.9841 Y4.6004
G01 X12.9800 Y4.5943
G01 X12.9751 Y4.5844
G01 X12.9726 Y4.5775
G01 X12.9702 Y4.5667
G01 X12.9694 Y4.5594
G01 X12.9693 Y4.3450
G01 X12.0407 Y4.3449
G01 X12.0297 Y4.3436
G01 X12.0191 Y4.3406
G01 X12.0090 Y4.3362
G01 X11.9997 Y4.3303
G01 X11.9888 Y4.3204
G01 X11.9820 Y4.3117
G01 X11.9765 Y4.3021
G01 X11.9726 Y4.2917
G01 X11.9708 Y4.2846
G01 X11.9694 Y4.2736
G01 X11.9697 Y4.2626
G01 X11.9716 Y4.2517
G01 X11.9751 Y4.2412
G01 X11.9782 Y4.2346
G01 X11.9841 Y4.2252
G01 X11.9914 Y4.2169
G01 X12.0028 Y4.2076
G01 X12.1394 Y4.1164
G01 X12.2208 Y4.0351
G01 X12.2647 Y3.9475
G01 X12.2731 Y3.9354
G01 X12.2809 Y3.9276
G01 X12.2898 Y3.9210
G01 X12.2962 Y3.9174
G01 X12.3029 Y3.9143
G01 X12.3135 Y3.9111
G01 X12.3207 Y3.9098
G01 X12.3317 Y3.9093
G01 X12.3391 Y3.9098
G01 X12.3499 Y3.9119
G01 X12.3637 Y3.9172
G01 X12.3761 Y3.9250
G01 X12.3868 Y3.9351
G01 X12.3953 Y3.9471
G01 X12.4013 Y3.9606
G01 X12.4045 Y3.9749
G01 X12.4049 Y3.9896
G01 X12.4025 Y4.0041
G01 X12.3972 Y4.0178
G01 X12.3496 Y4.1131
G01 X12.3443 Y4.1220
G01 X12.3355 Y4.1326
G01 X12.2732 Y4.1950
G00 Z1.0000
G00 X11.2700 Y7.0800
G01 F76.20
G01 Z-0.3732
G01 F400.00
G01 X11.2700 Y0.5371
G01 X11.2718 Y0.5254
G01 X11.2745 Y0.5170
G01 X11.2785 Y0.5091
G01 X11.2855 Y0.4997
G01 X11.2942 Y0.4918
G01 X11.3017 Y0.4871
G01 X11.3126 Y0.4826
G01 X11.3212 Y0.4806
G01 X11.3300 Y0.4800
G01 X11.6629 Y0.4800
G01 X11.6717 Y0.4811
G01 X11.6830 Y0.4845
G01 X11.6909 Y0.4885
G01 X11.7003 Y0.4955
G01 X11.7082 Y0.5042
G01 X11.7129 Y0.5117
G01 X11.7165 Y0.5198
G01 X11.7194 Y0.5312
G01 X11.7200 Y0.5400
G01 X11.7194 Y0.5488
G01 X11.7165 Y0.5602
G01 X11.7129 Y0.5683
G01 X11.7064 Y0.5781
G01 X11.7003 Y0.5845
G01 X11.6909 Y0.5915
G01 X11.6830 Y0.5955
G01 X11.6717 Y0.5989
G01 X11.6600 Y0.6000
G01 X11.3900 Y0.6000
G01 X11.3900 Y7.0200
G01 X11.6600 Y7.0200
G01 X11.6717 Y7.0211
G01 X11.6802 Y7.0235
G01 X11.6909 Y7.0285
G01 X11.7003 Y7.0355
G01 X11.7064 Y7.0419
G01 X11.7129 Y7.0517
G01 X11.7174 Y7.0626
G01 X11.7194 Y7.0712
G01 X11.7200 Y7.0829
G01 X11.7182 Y7.0946
G01 X11.7155 Y7.1030
G01 X11.7099 Y7.1134
G01 X11.7045 Y7.1203
G01 X11.6958 Y7.1282
G01 X11.6883 Y7.1329
G01 X11.6774 Y7.1374
G01 X11.6688 Y7.1394
G01 X11.6600 Y7.1400
G01 X11.3300 Y7.1400
G01 X11.3183 Y7.1389
G01 X11.3070 Y7.1355
G01 X11.2966 Y7.1299
G01 X11.2876 Y7.1224
G01 X11.2801 Y7.1134
G01 X11.2745 Y7.1030
G01 X11.2711 Y7.0917
G01 X11.2700 Y7.0800
G00 Z1.0000
G00 X13.7400 Y7.0200
G01 F76.20
G01 Z-0.3732
G01 F400.00
G01 X14.0100 Y7.0200
G01 X14.0100 Y0.6000
G01 X13.7400 Y0.6000
G01 X13.7283 Y0.5989
G01 X13.7170 Y0.5955
G01 X13.7091 Y0.5915
G01 X13.6997 Y0.5845
G01 X13.6936 Y0.5781
G01 X13.6871 Y0.5683
G01 X13.6826 Y0.5574
G01 X13.6806 Y0.5488
G01 X13.6800 Y0.5371
G01 X13.6818 Y0.5254
G01 X13.6845 Y0.5170
G01 X13.6885 Y0.5091
G01 X13.6955 Y0.4997
G01 X13.7042 Y0.4918
G01 X13.7117 Y0.4871
G01 X13.7226 Y0.4826
G01 X13.7312 Y0.4806
G01 X13.7400 Y0.4800
G01 X14.0729 Y0.4800
G01 X14.0846 Y0.4818
G01 X14.0957 Y0.4857
G01 X14.1058 Y0.4918
G01 X14.1145 Y0.4997
G01 X14.1215 Y0.5091
G01 X14.1255 Y0.5170
G01 X14.1289 Y0.5283
G01 X14.1300 Y0.5400
G01 X14.1300 Y7.0800
G01 X14.1289 Y7.0917
G01 X14.1265 Y7.1002
G01 X14.1229 Y7.1083
G01 X14.1182 Y7.1158
G01 X14.1103 Y7.1245
G01 X14.1034 Y7.1299
G01 X14.0957 Y7.1343
G01 X14.0874 Y7.1374
G01 X14.0759 Y7.1397
G01 X13.7400 Y7.1400
G01 X13.7283 Y7.1389
G01 X13.7198 Y7.1365
G01 X13.7091 Y7.1315
G01 X13.6997 Y7.1245
G01 X13.6918 Y7.1158
G01 X13.6857 Y7.1057
G01 X13.6826 Y7.0974
G01 X13.6803 Y7.0859
G01 X13.6803 Y7.0741
G01 X13.6818 Y7.0654
G01 X13.6857 Y7.0543
G01 X13.6918 Y7.0442
G01 X13.6997 Y7.0355
G01 X13.7091 Y7.0285
G01 X13.7170 Y7.0245
G01 X13.7283 Y7.0211
G01 X13.7400 Y7.0200
G00 Z1.0000
G00 X17.1597 Y5.3813
G01 F76.20
G01 Z-0.3732
G01 F400.00
G01 X17.1593 Y6.1030
G01 X17.1565 Y6.1174
G01 X17.1508 Y6.1310
G01 X17.1427 Y6.1432
G01 X17.1323 Y6.1536
G01 X17.1200 Y6.1618
G01 X17.1064 Y6.1674
G01 X17.0920 Y6.1703
G01 X17.0773 Y6.1703
G01 X17.0664 Y6.1684
G01 X17.0526 Y6.1635
G01 X17.0400 Y6.1559
G01 X17.0316 Y6.1487
G01 X17.0223 Y6.1373
G01 X17.0168 Y6.1277
G01 X17.0129 Y6.1174
G01 X17.0100 Y6.1030
G01 X17.0096 Y5.3935
G01 X16.9715 Y5.2790
G01 X16.9013 Y5.2088
G01 X16.7868 Y5.1707
G01 X16.6964 Y5.1703
G01 X16.6855 Y5.1684
G01 X16.6784 Y5.1663
G01 X16.6683 Y5.1618
G01 X16.6620 Y5.1580
G01 X16.6507 Y5.1487
G01 X16.6413 Y5.1373
G01 X16.6344 Y5.1243
G01 X16.6301 Y5.1103
G01 X16.6288 Y5.0993
G01 X16.6295 Y5.0846
G01 X16.6331 Y5.0703
G01 X16.6394 Y5.0570
G01 X16.6481 Y5.0452
G01 X16.6590 Y5.0353
G01 X16.6716 Y5.0278
G01 X16.6784 Y5.0250
G01 X16.6891 Y5.0220
G01 X16.7037 Y5.0206
G01 X16.8024 Y5.0207
G01 X16.8127 Y5.0218
G01 X16.8227 Y5.0244
G01 X16.9655 Y5.0721
G01 X16.9727 Y5.0749
G01 X16.9829 Y5.0804
G01 X16.9949 Y5.0902
G01 X17.0901 Y5.1854
G01 X17.0953 Y5.1912
G01 X17.1019 Y5.2007
G01 X17.1082 Y5.2147
G01 X17.1559 Y5.3576
G01 X17.1590 Y5.3710
G01 X17.1597 Y5.3813
G00 Z1.0000
G00 X18.1323 Y6.1707
G01 F76.20
G01 Z-0.3732
G01 F400.00
G01 X17.4619 Y6.1706
G01 X17.4510 Y6.1692
G01 X17.4403 Y6.1663
G01 X17.4302 Y6.1618
G01 X17.4209 Y6.1559
G01 X17.4126 Y6.1487
G01 X17.4053 Y6.1403
G01 X17.3994 Y6.1310
G01 X17.3963 Y6.1243
G01 X17.3938 Y6.1174
G01 X17.3914 Y6.1066
G01 X17.3907 Y6.0919
G01 X17.3914 Y6.0846
G01 X17.3938 Y6.0738
G01 X17.3994 Y6.0602
G01 X17.4053 Y6.0509
G01 X17.4100 Y6.0452
G01 X17.4152 Y6.0400
G01 X17.4239 Y6.0332
G01 X17.4369 Y6.0263
G01 X17.4474 Y6.0228
G01 X17.4546 Y6.0214
G01 X17.4656 Y6.0206
G01 X18.0185 Y6.0206
G01 X17.6322 Y5.1183
G01 X17.6291 Y5.1039
G01 X17.6287 Y5.0929
G01 X17.6307 Y5.0783
G01 X17.6355 Y5.0644
G01 X17.6429 Y5.0517
G01 X17.6526 Y5.0406
G01 X17.6644 Y5.0317
G01 X17.6776 Y5.0253
G01 X17.6882 Y5.0222
G01 X17.7028 Y5.0206
G01 X17.7175 Y5.0219
G01 X17.7316 Y5.0259
G01 X17.7446 Y5.0327
G01 X17.7534 Y5.0394
G01 X17.7634 Y5.0502
G01 X17.7712 Y5.0627
G01 X18.2026 Y6.0695
G01 X18.2049 Y6.0766
G01 X18.2069 Y6.0875
G01 X18.2073 Y6.0949
G01 X18.2066 Y6.1060
G01 X18.2052 Y6.1133
G01 X18.2018 Y6.1238
G01 X18.1949 Y6.1369
G01 X18.1906 Y6.1429
G01 X18.1829 Y6.1510
G01 X18.1772 Y6.1557
G01 X18.1679 Y6.1617
G01 X18.1612 Y6.1649
G01 X18.1506 Y6.1684
G01 X18.1434 Y6.1698
G01 X18.1323 Y6.1707
G00 Z1.0000
G00 X20.1650 Y7.0850
G01 F76.20
G01 Z-0.3732
G01 F400.00
G01 X20.1650 Y6.7550
G01 X20.1656 Y6.7462
G01 X20.1676 Y6.7376
G01 X20.1721 Y6.7267
G01 X20.1768 Y6.7192
G01 X20.1847 Y6.7105
G01 X20.1941 Y6.7035
G01 X20.2020 Y6.6995
G01 X20.2133 Y6.6961
G01 X20.2221 Y6.6950
G01 X20.2309 Y6.6953
G01 X20.2424 Y6.6976
G01 X20.2533 Y6.7021
G01 X20.2631 Y6.7086
G01 X20.2695 Y6.7147
G01 X20.2765 Y6.7241
G01 X20.2815 Y6.7348
G01 X20.2839 Y6.7433
G01 X20.2850 Y6.7550
G01 X20.2850 Y7.0250
G01 X26.7050 Y7.0250
G01 X26.7050 Y6.7550
G01 X26.7061 Y6.7433
G01 X26.7095 Y6.7320
G01 X26.7151 Y6.7216
G01 X26.7205 Y6.7147
G01 X26.7292 Y6.7068
G01 X26.7367 Y6.7021
G01 X26.7448 Y6.6985
G01 X26.7562 Y6.6956
G01 X26.7650 Y6.6950
G01 X26.7767 Y6.6961
G01 X26.7852 Y6.6985
G01 X26.7933 Y6.7021
G01 X26.8031 Y6.7086
G01 X26.8095 Y6.7147
G01 X26.8165 Y6.7241
G01 X26.8205 Y6.7320
G01 X26.8239 Y6.7433
G01 X26.8250 Y6.7521
G01 X26.8250 Y7.0850
G01 X26.8244 Y7.0938
G01 X26.8224 Y7.1024
G01 X26.8179 Y7.1133
G01 X26.8132 Y7.1208
G01 X26.8053 Y7.1295
G01 X26.7959 Y7.1365
G01 X26.7880 Y7.1405
G01 X26.7767 Y7.1439
G01 X26.7679 Y7.1450
G01 X20.2250 Y7.1450
G01 X20.2133 Y7.1439
G01 X20.2020 Y7.1405
G01 X20.1916 Y7.1349
G01 X20.1826 Y7.1274
G01 X20.1751 Y7.1184
G01 X20.1695 Y7.1080
G01 X20.1661 Y7.0967
G01 X20.1650 Y7.0850
G00 Z1.0000
G00 X22.0700 Y7.8500
G01 F76.20
G01 Z-0.3732
G01 F400.00
G01 X22.0700 Y7.5200
G01 X22.0706 Y7.5112
G01 X22.0726 Y7.5026
G01 X22.0771 Y7.4917
G01 X22.0818 Y7.4842
G01 X22.0897 Y7.4755
G01 X22.0991 Y7.4685
G01 X22.1070 Y7.4645
G01 X22.1183 Y7.4611
G01 X22.1271 Y7.4600
G01 X28.6700 Y7.4600
G01 X28.6817 Y7.4611
G01 X28.6930 Y7.4645
G01 X28.7034 Y7.4701
G01 X28.7103 Y7.4755
G01 X28.7182 Y7.4842
G01 X28.7243 Y7.4943
G01 X28.7282 Y7.5054
G01 X28.7300 Y7.5171
G01 X28.7300 Y7.8500
G01 X28.7294 Y7.8588
G01 X28.7274 Y7.8674
G01 X28.7229 Y7.8783
G01 X28.7182 Y7.8858
G01 X28.7103 Y7.8945
G01 X28.7009 Y7.9015
G01 X28.6930 Y7.9055
G01 X28.6817 Y7.9089
G01 X28.6729 Y7.9100
G01 X28.6641 Y7.9097
G01 X28.6526 Y7.9074
G01 X28.6417 Y7.9029
G01 X28.6319 Y7.8964
G01 X28.6255 Y7.8903
G01 X28.6185 Y7.8809
G01 X28.6135 Y7.8702
G01 X28.6111 Y7.8617
G01 X28.6100 Y7.8500
G01 X28.6100 Y7.5800
G01 X22.1900 Y7.5800
G01 X22.1900 Y7.8500
G01 X22.1889 Y7.8617
G01 X22.1843 Y7.8757
G01 X22.1799 Y7.8834
G01 X22.1724 Y7.8924
G01 X22.1658 Y7.8982
G01 X22.1557 Y7.9043
G01 X22.1474 Y7.9074
G01 X22.1388 Y7.9094
G01 X22.1271 Y7.9100
G01 X22.1183 Y7.9089
G01 X22.1070 Y7.9055
G01 X22.0991 Y7.9015
G01 X22.0919 Y7.8964
G01 X22.0836 Y7.8881
G01 X22.0771 Y7.8783
G01 X22.0735 Y7.8702
G01 X22.0706 Y7.8588
G01 X22.0700 Y7.8500
G00 Z1.0000
G00 X22.2247 Y6.3496
G01 F76.20
G01 Z-0.3732
G01 F400.00
G01 X22.2247 Y5.3496
G01 X22.2255 Y5.3386
G01 X22.2279 Y5.3278
G01 X22.2319 Y5.3175
G01 X22.2373 Y5.3079
G01 X22.2417 Y5.3020
G01 X22.2493 Y5.2940
G01 X22.2580 Y5.2872
G01 X22.2643 Y5.2834
G01 X22.2744 Y5.2790
G01 X22.2815 Y5.2768
G01 X22.2924 Y5.2749
G01 X22.3034 Y5.2747
G01 X22.3107 Y5.2754
G01 X22.3215 Y5.2778
G01 X22.3284 Y5.2803
G01 X22.3383 Y5.2853
G01 X22.3444 Y5.2893
G01 X22.3528 Y5.2966
G01 X22.3600 Y5.3049
G01 X22.3641 Y5.3110
G01 X22.3690 Y5.3209
G01 X22.3725 Y5.3314
G01 X22.3739 Y5.3386
G01 X22.3748 Y5.3496
G01 X22.3748 Y5.7508
G01 X22.4987 Y5.7508
G01 X22.8142 Y5.3008
G01 X22.8248 Y5.2906
G01 X22.8372 Y5.2827
G01 X22.8474 Y5.2784
G01 X22.8617 Y5.2752
G01 X22.8764 Y5.2748
G01 X22.8874 Y5.2764
G01 X22.9014 Y5.2809
G01 X22.9111 Y5.2861
G01 X22.9227 Y5.2951
G01 X22.9324 Y5.3062
G01 X22.9381 Y5.3157
G01 X22.9434 Y5.3294
G01 X22.9460 Y5.3439
G01 X22.9460 Y5.3549
G01 X22.9435 Y5.3694
G01 X22.9383 Y5.3832
G01 X22.9326 Y5.3927
G01 X22.6819 Y5.7508
G01 X22.6960 Y5.7524
G01 X22.7107 Y5.7571
G01 X22.8095 Y5.8063
G01 X22.8184 Y5.8116
G01 X22.8265 Y5.8180
G01 X22.8766 Y5.8680
G01 X22.8854 Y5.8786
G01 X22.8906 Y5.8875
G01 X22.9414 Y5.9898
G01 X22.9446 Y6.0009
G01 X22.9462 Y6.0163
G01 X22.9462 Y6.1591
G01 X22.9453 Y6.1707
G01 X22.9426 Y6.1820
G01 X22.9383 Y6.1927
G01 X22.8873 Y6.2940
G01 X22.8766 Y6.3074
G01 X22.8290 Y6.3551
G01 X22.8184 Y6.3639
G01 X22.8095 Y6.3691
G01 X22.7107 Y6.4184
G01 X22.6998 Y6.4222
G01 X22.6884 Y6.4243
G01 X22.2997 Y6.4247
G01 X22.2887 Y6.4238
G01 X22.2744 Y6.4203
G01 X22.2643 Y6.4158
G01 X22.2521 Y6.4076
G01 X22.2417 Y6.3972
G01 X22.2335 Y6.3850
G01 X22.2291 Y6.3749
G01 X22.2255 Y6.3606
G01 X22.2247 Y6.3496
G00 Z1.0000
G00 X22.3748 Y5.9008
G01 F76.20
G01 Z-0.3732
G01 F400.00
G01 X22.3748 Y6.2746
G01 X22.6630 Y6.2746
G01 X22.7315 Y6.2403
G01 X22.7619 Y6.2099
G01 X22.7961 Y6.1414
G01 X22.7961 Y6.0340
G01 X22.7619 Y5.9655
G01 X22.7315 Y5.9351
G01 X22.6630 Y5.9008
G01 X22.3748 Y5.9008
G00 Z1.0000
G00 X23.2521 Y5.2746
G01 F76.20
G01 Z-0.3732
G01 F400.00
G01 X23.8309 Y5.2749
G01 X23.8418 Y5.2768
G01 X23.8522 Y5.2803
G01 X23.8621 Y5.2853
G01 X23.8711 Y5.2916
G01 X23.8791 Y5.2992
G01 X23.8859 Y5.3079
G01 X23.8914 Y5.3175
G01 X23.8963 Y5.3314
G01 X23.8982 Y5.3423
G01 X23.8982 Y5.3570
G01 X23.8953 Y5.3714
G01 X23.8897 Y5.3850
G01 X23.8815 Y5.3972
G01 X23.8711 Y5.4076
G01 X23.8589 Y5.4158
G01 X23.8453 Y5.4214
G01 X23.8345 Y5.4238
G01 X23.8235 Y5.4247
G01 X23.6128 Y5.4247
G01 X23.6128 Y6.3533
G01 X23.6114 Y6.3643
G01 X23.6071 Y6.3783
G01 X23.6022 Y6.3882
G01 X23.5958 Y6.3972
G01 X23.5882 Y6.4052
G01 X23.5795 Y6.4120
G01 X23.5665 Y6.4190
G01 X23.5560 Y6.4224
G01 X23.5488 Y6.4239
G01 X23.5378 Y6.4247
G01 X23.5304 Y6.4243
G01 X23.5195 Y6.4224
G01 X23.5090 Y6.4189
G01 X23.5024 Y6.4158
G01 X23.4931 Y6.4099
G01 X23.4874 Y6.4052
G01 X23.4822 Y6.4000
G01 X23.4754 Y6.3912
G01 X23.3843 Y6.2546
G01 X23.3029 Y6.1732
G01 X23.2185 Y6.1310
G01 X23.2121 Y6.1274
G01 X23.2032 Y6.1209
G01 X23.1954 Y6.1131
G01 X23.1888 Y6.1042
G01 X23.1836 Y6.0945
G01 X23.1798 Y6.0841
G01 X23.1776 Y6.0733
G01 X23.1771 Y6.0659
G01 X23.1776 Y6.0549
G01 X23.1788 Y6.0477
G01 X23.1820 Y6.0371
G01 X23.1850 Y6.0303
G01 X23.1886 Y6.0239
G01 X23.1951 Y6.0150
G01 X23.2002 Y6.0097
G01 X23.2087 Y6.0027
G01 X23.2182 Y5.9970
G01 X23.2249 Y5.9940
G01 X23.2355 Y5.9907
G01 X23.2427 Y5.9895
G01 X23.2501 Y5.9889
G01 X23.2611 Y5.9894
G01 X23.2719 Y5.9915
G01 X23.2823 Y5.9952
G01 X23.3869 Y6.0478
G01 X23.4004 Y6.0585
G01 X23.4628 Y6.1208
G01 X23.4628 Y5.4247
G01 X23.2484 Y5.4246
G01 X23.2375 Y5.4232
G01 X23.2268 Y5.4203
G01 X23.2167 Y5.4158
G01 X23.2074 Y5.4099
G01 X23.1990 Y5.4027
G01 X23.1918 Y5.3943
G01 X23.1859 Y5.3850
G01 X23.1803 Y5.3714
G01 X23.1779 Y5.3606
G01 X23.1771 Y5.3496
G01 X23.1779 Y5.3386
G01 X23.1803 Y5.3278
G01 X23.1859 Y5.3142
G01 X23.1918 Y5.3049
G01 X23.1990 Y5.2966
G01 X23.2074 Y5.2893
G01 X23.2167 Y5.2834
G01 X23.2268 Y5.2790
G01 X23.2411 Y5.2754
G01 X23.2521 Y5.2746
G00 Z1.0000
G00 X24.4725 Y5.4247
G01 F76.20
G01 Z-0.3732
G01 F400.00
G01 X24.2960 Y5.4246
G01 X24.2815 Y5.4224
G01 X24.2710 Y5.4189
G01 X24.2580 Y5.4120
G01 X24.2467 Y5.4027
G01 X24.2373 Y5.3913
G01 X24.2304 Y5.3783
G01 X24.2261 Y5.3643
G01 X24.2247 Y5.3496
G01 X24.2261 Y5.3350
G01 X24.2304 Y5.3209
G01 X24.2335 Y5.3142
G01 X24.2394 Y5.3049
G01 X24.2467 Y5.2966
G01 X24.2521 Y5.2916
G01 X24.2611 Y5.2853
G01 X24.2676 Y5.2818
G01 X24.2779 Y5.2778
G01 X24.2851 Y5.2760
G01 X24.2997 Y5.2746
G01 X24.4941 Y5.2747
G01 X24.5093 Y5.2771
G01 X24.5202 Y5.2809
G01 X24.6190 Y5.3301
G01 X24.6307 Y5.3374
G01 X24.6385 Y5.3442
G01 X24.6861 Y5.3918
G01 X24.6934 Y5.4002
G01 X24.7945 Y5.5524
G01 X24.7990 Y5.5625
G01 X24.8011 Y5.5695
G01 X24.8487 Y5.7600
G01 X24.8506 Y5.7708
G01 X24.8509 Y6.1591
G01 X24.8494 Y6.1745
G01 X24.8461 Y6.1856
G01 X24.7954 Y6.2879
G01 X24.7902 Y6.2968
G01 X24.7813 Y6.3074
G01 X24.7312 Y6.3574
G01 X24.7231 Y6.3639
G01 X24.7142 Y6.3691
G01 X24.6190 Y6.4167
G01 X24.6083 Y6.4211
G01 X24.5931 Y6.4243
G01 X24.3950 Y6.4247
G01 X24.3834 Y6.4238
G01 X24.3721 Y6.4211
G01 X24.3649 Y6.4184
G01 X24.2631 Y6.3675
G01 X24.2545 Y6.3618
G01 X24.2467 Y6.3551
G01 X24.1990 Y6.3074
G01 X24.1902 Y6.2968
G01 X24.1850 Y6.2879
G01 X24.1357 Y6.1892
G01 X24.1319 Y6.1783
G01 X24.1298 Y6.1669
G01 X24.1294 Y5.9210
G01 X24.1303 Y5.9095
G01 X24.1319 Y5.9019
G01 X24.1374 Y5.8875
G01 X24.1850 Y5.7923
G01 X24.1902 Y5.7833
G01 X24.1990 Y5.7728
G01 X24.2517 Y5.7205
G01 X24.2662 Y5.7111
G01 X24.3649 Y5.6618
G01 X24.3758 Y5.6580
G01 X24.3911 Y5.6556
G01 X24.5931 Y5.6559
G01 X24.6045 Y5.6580
G01 X24.6155 Y5.6618
G01 X24.6771 Y5.6925
G01 X24.6586 Y5.6185
G01 X24.5747 Y5.4927
G01 X24.5410 Y5.4589
G01 X24.4725 Y5.4247
G00 Z1.0000
G00 X24.7009 Y5.9388
G01 F76.20
G01 Z-0.3732
G01 F400.00
G01 X24.6666 Y5.8703
G01 X24.6362 Y5.8399
G01 X24.5677 Y5.8056
G01 X24.4127 Y5.8056
G01 X24.3442 Y5.8399
G01 X24.3138 Y5.8703
G01 X24.2795 Y5.9388
G01 X24.2795 Y6.1414
G01 X24.3138 Y6.2099
G01 X24.3442 Y6.2403
G01 X24.4127 Y6.2746
G01 X24.5677 Y6.2746
G01 X24.6362 Y6.2403
G01 X24.6666 Y6.2099
G01 X24.7009 Y6.1414
G01 X24.7009 Y5.9388
G00 Z1.0000
G00 X24.1528 Y9.2028
G01 F76.20
G01 Z-0.3732
G01 F400.00
G01 X24.1528 Y9.5766
G01 X24.4410 Y9.5766
G01 X24.5095 Y9.5423
G01 X24.5399 Y9.5119
G01 X24.5741 Y9.4434
G01 X24.5741 Y9.3360
G01 X24.5399 Y9.2675
G01 X24.5095 Y9.2371
G01 X24.4410 Y9.2028
G01 X24.1528 Y9.2028
G00 Z1.0000
G00 X24.0027 Y9.6516
G01 F76.20
G01 Z-0.3732
G01 F400.00
G01 X24.0027 Y8.6516
G01 X24.0035 Y8.6406
G01 X24.0059 Y8.6298
G01 X24.0099 Y8.6195
G01 X24.0153 Y8.6099
G01 X24.0197 Y8.6040
G01 X24.0273 Y8.5960
G01 X24.0360 Y8.5892
G01 X24.0423 Y8.5854
G01 X24.0490 Y8.5823
G01 X24.0595 Y8.5788
G01 X24.0704 Y8.5769
G01 X24.0777 Y8.5766
G01 X24.0887 Y8.5774
G01 X24.0959 Y8.5788
G01 X24.1064 Y8.5823
G01 X24.1163 Y8.5873
G01 X24.1224 Y8.5913
G01 X24.1308 Y8.5986
G01 X24.1357 Y8.6040
G01 X24.1421 Y8.6130
G01 X24.1470 Y8.6229
G01 X24.1505 Y8.6334
G01 X24.1519 Y8.6406
G01 X24.1528 Y8.6516
G01 X24.1528 Y9.0528
G01 X24.2767 Y9.0528
G01 X24.5922 Y8.6028
G01 X24.6028 Y8.5926
G01 X24.6152 Y8.5847
G01 X24.6254 Y8.5804
G01 X24.6397 Y8.5772
G01 X24.6508 Y8.5766
G01 X24.6654 Y8.5784
G01 X24.6794 Y8.5829
G01 X24.6891 Y8.5881
G01 X24.7007 Y8.5971
G01 X24.7104 Y8.6082
G01 X24.7177 Y8.6210
G01 X24.7214 Y8.6314
G01 X24.7240 Y8.6459
G01 X24.7240 Y8.6569
G01 X24.7215 Y8.6714
G01 X24.7163 Y8.6852
G01 X24.7106 Y8.6947
G01 X24.4599 Y9.0528
G01 X24.4740 Y9.0544
G01 X24.4887 Y9.0591
G01 X24.5875 Y9.1083
G01 X24.5964 Y9.1136
G01 X24.6045 Y9.1200
G01 X24.6546 Y9.1700
G01 X24.6634 Y9.1806
G01 X24.6686 Y9.1895
G01 X24.7194 Y9.2918
G01 X24.7226 Y9.3029
G01 X24.7242 Y9.3183
G01 X24.7242 Y9.4611
G01 X24.7233 Y9.4727
G01 X24.7206 Y9.4840
G01 X24.7163 Y9.4947
G01 X24.6653 Y9.5960
G01 X24.6546 Y9.6094
G01 X24.6070 Y9.6571
G01 X24.5964 Y9.6659
G01 X24.5875 Y9.6711
G01 X24.4887 Y9.7204
G01 X24.4778 Y9.7242
G01 X24.4664 Y9.7263
G01 X24.0777 Y9.7267
G01 X24.0667 Y9.7258
G01 X24.0524 Y9.7223
G01 X24.0423 Y9.7178
G01 X24.0301 Y9.7096
G01 X24.0197 Y9.6992
G01 X24.0134 Y9.6902
G01 X24.0071 Y9.6769
G01 X24.0041 Y9.6663
G01 X24.0027 Y9.6516
G00 Z1.0000
G00 X25.0247 Y9.6571
G01 F76.20
G01 Z-0.3732
G01 F400.00
G01 X24.9721 Y9.6040
G01 X24.9657 Y9.5950
G01 X24.9623 Y9.5885
G01 X24.9583 Y9.5782
G01 X24.9565 Y9.5710
G01 X24.9551 Y9.5564
G01 X24.9559 Y9.5454
G01 X24.9583 Y9.5346
G01 X24.9623 Y9.5243
G01 X24.9677 Y9.5147
G01 X24.9745 Y9.5060
G01 X24.9854 Y9.4961
G01 X24.9947 Y9.4902
G01 X25.0083 Y9.4846
G01 X25.0155 Y9.4828
G01 X25.0264 Y9.4814
G01 X25.0338 Y9.4814
G01 X25.0447 Y9.4828
G01 X25.0588 Y9.4871
G01 X25.0718 Y9.4940
G01 X25.0805 Y9.5008
G01 X25.1222 Y9.5423
G01 X25.1907 Y9.5766
G01 X25.3933 Y9.5766
G01 X25.4618 Y9.5423
G01 X25.4922 Y9.5119
G01 X25.5265 Y9.4434
G01 X25.5265 Y9.3781
G01 X25.4883 Y9.2636
G01 X24.9245 Y8.6992
G01 X24.9181 Y8.6902
G01 X24.9118 Y8.6769
G01 X24.9089 Y8.6663
G01 X24.9075 Y8.6553
G01 X24.9078 Y8.6443
G01 X24.9097 Y8.6334
G01 X24.9132 Y8.6229
G01 X24.9181 Y8.6130
G01 X24.9222 Y8.6069
G01 X24.9294 Y8.5986
G01 X24.9378 Y8.5913
G01 X24.9439 Y8.5873
G01 X24.9538 Y8.5823
G01 X24.9607 Y8.5798
G01 X24.9715 Y8.5774
G01 X24.9788 Y8.5767
G01 X25.6015 Y8.5766
G01 X25.6125 Y8.5774
G01 X25.6198 Y8.5788
G01 X25.6302 Y8.5823
G01 X25.6401 Y8.5873
G01 X25.6491 Y8.5936
G01 X25.6571 Y8.6012
G01 X25.6639 Y8.6099
G01 X25.6677 Y8.6162
G01 X25.6722 Y8.6263
G01 X25.6751 Y8.6370
G01 X25.6765 Y8.6479
G01 X25.6762 Y8.6590
G01 X25.6743 Y8.6699
G01 X25.6708 Y8.6803
G01 X25.6659 Y8.6902
G01 X25.6595 Y8.6992
G01 X25.6519 Y8.7072
G01 X25.6432 Y8.7140
G01 X25.6336 Y8.7195
G01 X25.6233 Y8.7234
G01 X25.6125 Y8.7258
G01 X25.6015 Y8.7267
G01 X25.1636 Y8.7267
G01 X25.6070 Y9.1700
G01 X25.6145 Y9.1788
G01 X25.6206 Y9.1886
G01 X25.6251 Y9.1993
G01 X25.6727 Y9.3422
G01 X25.6753 Y9.3522
G01 X25.6766 Y9.3659
G01 X25.6766 Y9.4611
G01 X25.6750 Y9.4765
G01 X25.6703 Y9.4912
G01 X25.6194 Y9.5930
G01 X25.6138 Y9.6016
G01 X25.6070 Y9.6094
G01 X25.5593 Y9.6571
G01 X25.5488 Y9.6659
G01 X25.5398 Y9.6711
G01 X25.4411 Y9.7204
G01 X25.4302 Y9.7242
G01 X25.4188 Y9.7263
G01 X25.1730 Y9.7267
G01 X25.1614 Y9.7258
G01 X25.1501 Y9.7231
G01 X25.1429 Y9.7204
G01 X25.0442 Y9.6711
G01 X25.0325 Y9.6638
G01 X25.0247 Y9.6571
G00 Z1.0000
G00 X26.1878 Y9.7191
G01 F76.20
G01 Z-0.3732
G01 F400.00
G01 X26.0918 Y9.6711
G01 X26.0829 Y9.6659
G01 X26.0723 Y9.6571
G01 X26.0247 Y9.6094
G01 X26.0179 Y9.6016
G01 X26.0122 Y9.5930
G01 X25.9612 Y9.4910
G01 X25.9573 Y9.4793
G01 X25.9097 Y9.2889
G01 X25.9078 Y9.2780
G01 X25.9078 Y9.0252
G01 X25.9097 Y9.0144
G01 X25.9597 Y8.8161
G01 X26.0106 Y8.7133
G01 X26.0158 Y8.7044
G01 X26.0223 Y8.6963
G01 X26.0723 Y8.6462
G01 X26.0829 Y8.6374
G01 X26.0918 Y8.6321
G01 X26.1941 Y8.5814
G01 X26.2052 Y8.5782
G01 X26.2167 Y8.5767
G01 X26.3235 Y8.5770
G01 X26.3386 Y8.5801
G01 X26.3494 Y8.5845
G01 X26.4446 Y8.6321
G01 X26.4535 Y8.6374
G01 X26.4616 Y8.6438
G01 X26.5117 Y8.6938
G01 X26.5205 Y8.7044
G01 X26.5258 Y8.7133
G01 X26.5751 Y8.8123
G01 X26.5791 Y8.8239
G01 X26.6267 Y9.0144
G01 X26.6286 Y9.0252
G01 X26.6286 Y9.2780
G01 X26.6267 Y9.2889
G01 X26.5767 Y9.4872
G01 X26.5242 Y9.5930
G01 X26.5185 Y9.6016
G01 X26.5117 Y9.6094
G01 X26.4641 Y9.6571
G01 X26.4535 Y9.6659
G01 X26.4446 Y9.6711
G01 X26.3494 Y9.7187
G01 X26.3386 Y9.7231
G01 X26.3312 Y9.7251
G01 X26.3197 Y9.7266
G01 X26.2189 Y9.7266
G01 X26.2023 Y9.7244
G01 X26.1878 Y9.7191
G00 Z1.0000
G00 X26.2383 Y9.5766
G01 F76.20
G01 Z-0.3732
G01 F400.00
G01 X26.2981 Y9.5766
G01 X26.3666 Y9.5423
G01 X26.3970 Y9.5119
G01 X26.4355 Y9.4350
G01 X26.4789 Y9.2614
G01 X26.4789 Y9.0418
G01 X26.4355 Y8.8683
G01 X26.3970 Y8.7913
G01 X26.3666 Y8.7609
G01 X26.2981 Y8.7267
G01 X26.2383 Y8.7267
G01 X26.1698 Y8.7609
G01 X26.1394 Y8.7913
G01 X26.1009 Y8.8683
G01 X26.0575 Y9.0418
G01 X26.0575 Y9.2614
G01 X26.1009 Y9.4350
G01 X26.1394 Y9.5119
G01 X26.1698 Y9.5423
G01 X26.2383 Y9.5766
G00 Z1.0000
G00 X24.0141 Y11.3706
G01 F76.20
G01 Z-0.3732
G01 F400.00
G01 X24.5929 Y11.3709
G01 X24.6038 Y11.3728
G01 X24.6142 Y11.3763
G01 X24.6241 Y11.3813
G01 X24.6331 Y11.3876
G01 X24.6411 Y11.3952
G01 X24.6479 Y11.4039
G01 X24.6534 Y11.4135
G01 X24.6583 Y11.4274
G01 X24.6605 Y11.4419
G01 X24.6597 Y11.4566
G01 X24.6562 Y11.4709
G01 X24.6517 Y11.4810
G01 X24.6435 Y11.4932
G01 X24.6331 Y11.5036
G01 X24.6209 Y11.5118
G01 X24.6073 Y11.5174
G01 X24.5965 Y11.5198
G01 X24.5855 Y11.5207
G01 X24.3748 Y11.5207
G01 X24.3748 Y12.4493
G01 X24.3726 Y12.4639
G01 X24.3691 Y12.4743
G01 X24.3642 Y12.4842
G01 X24.3578 Y12.4932
G01 X24.3502 Y12.5012
G01 X24.3415 Y12.5080
G01 X24.3319 Y12.5135
G01 X24.3180 Y12.5184
G01 X24.3071 Y12.5203
G01 X24.2998 Y12.5207
G01 X24.2887 Y12.5198
G01 X24.2815 Y12.5184
G01 X24.2710 Y12.5149
G01 X24.2644 Y12.5118
G01 X24.2581 Y12.5080
G01 X24.2494 Y12.5012
G01 X24.2442 Y12.4960
G01 X24.2374 Y12.4872
G01 X24.1463 Y12.3506
G01 X24.0649 Y12.2692
G01 X23.9805 Y12.2270
G01 X23.9741 Y12.2234
G01 X23.9652 Y12.2169
G01 X23.9574 Y12.2091
G01 X23.9508 Y12.2002
G01 X23.9456 Y12.1905
G01 X23.9418 Y12.1801
G01 X23.9396 Y12.1693
G01 X23.9391 Y12.1619
G01 X23.9396 Y12.1509
G01 X23.9408 Y12.1437
G01 X23.9428 Y12.1366
G01 X23.9470 Y12.1263
G01 X23.9506 Y12.1199
G01 X23.9571 Y12.1110
G01 X23.9649 Y12.1032
G01 X23.9707 Y12.0987
G01 X23.9769 Y12.0947
G01 X23.9869 Y12.0900
G01 X23.9939 Y12.0876
G01 X24.0047 Y12.0855
G01 X24.0157 Y12.0849
G01 X24.0231 Y12.0854
G01 X24.0339 Y12.0875
G01 X24.0443 Y12.0912
G01 X24.1489 Y12.1438
G01 X24.1624 Y12.1545
G01 X24.2248 Y12.2168
G01 X24.2248 Y11.5207
G01 X24.0104 Y11.5206
G01 X23.9995 Y11.5192
G01 X23.9888 Y11.5163
G01 X23.9787 Y11.5118
G01 X23.9694 Y11.5059
G01 X23.9610 Y11.4987
G01 X23.9538 Y11.4903
G01 X23.9479 Y11.4810
G01 X23.9423 Y11.4674
G01 X23.9399 Y11.4566
G01 X23.9391 Y11.4456
G01 X23.9399 Y11.4346
G01 X23.9423 Y11.4238
G01 X23.9479 Y11.4102
G01 X23.9538 Y11.4009
G01 X23.9610 Y11.3926
G01 X23.9694 Y11.3853
G01 X23.9787 Y11.3794
G01 X23.9888 Y11.3750
G01 X24.0031 Y11.3714
G01 X24.0141 Y11.3706
G00 Z1.0000
G00 X23.1368 Y11.9968
G01 F76.20
G01 Z-0.3732
G01 F400.00
G01 X23.1368 Y12.3706
G01 X23.4250 Y12.3706
G01 X23.4935 Y12.3363
G01 X23.5239 Y12.3059
G01 X23.5581 Y12.2374
G01 X23.5581 Y12.1300
G01 X23.5239 Y12.0615
G01 X23.4935 Y12.0311
G01 X23.4250 Y11.9968
G01 X23.1368 Y11.9968
G00 Z1.0000
G00 X22.9867 Y12.4456
G01 F76.20
G01 Z-0.3732
G01 F400.00
G01 X22.9867 Y11.4456
G01 X22.9875 Y11.4346
G01 X22.9899 Y11.4238
G01 X22.9939 Y11.4135
G01 X22.9993 Y11.4039
G01 X23.0037 Y11.3980
G01 X23.0113 Y11.3900
G01 X23.0200 Y11.3832
G01 X23.0263 Y11.3794
G01 X23.0330 Y11.3763
G01 X23.0435 Y11.3728
G01 X23.0544 Y11.3709
G01 X23.0617 Y11.3706
G01 X23.0727 Y11.3714
G01 X23.0799 Y11.3728
G01 X23.0904 Y11.3763
G01 X23.1003 Y11.3813
G01 X23.1064 Y11.3853
G01 X23.1148 Y11.3926
G01 X23.1197 Y11.3980
G01 X23.1261 Y11.4070
G01 X23.1310 Y11.4169
G01 X23.1345 Y11.4274
G01 X23.1359 Y11.4346
G01 X23.1368 Y11.4456
G01 X23.1368 Y11.8468
G01 X23.2607 Y11.8468
G01 X23.5762 Y11.3968
G01 X23.5868 Y11.3866
G01 X23.5992 Y11.3787
G01 X23.6094 Y11.3744
G01 X23.6237 Y11.3712
G01 X23.6348 Y11.3706
G01 X23.6494 Y11.3724
G01 X23.6634 Y11.3769
G01 X23.6731 Y11.3821
G01 X23.6847 Y11.3911
G01 X23.6944 Y11.4022
G01 X23.7017 Y11.4150
G01 X23.7054 Y11.4254
G01 X23.7080 Y11.4399
G01 X23.7080 Y11.4509
G01 X23.7055 Y11.4654
G01 X23.7003 Y11.4792
G01 X23.6946 Y11.4887
G01 X23.4439 Y11.8468
G01 X23.4580 Y11.8484
G01 X23.4727 Y11.8531
G01 X23.5715 Y11.9023
G01 X23.5804 Y11.9076
G01 X23.5885 Y11.9140
G01 X23.6386 Y11.9640
G01 X23.6474 Y11.9746
G01 X23.6526 Y11.9835
G01 X23.7034 Y12.0858
G01 X23.7066 Y12.0969
G01 X23.7082 Y12.1123
G01 X23.7082 Y12.2551
G01 X23.7073 Y12.2667
G01 X23.7046 Y12.2780
G01 X23.7003 Y12.2887
G01 X23.6493 Y12.3900
G01 X23.6386 Y12.4034
G01 X23.5910 Y12.4511
G01 X23.5804 Y12.4599
G01 X23.5715 Y12.4651
G01 X23.4727 Y12.5144
G01 X23.4618 Y12.5182
G01 X23.4504 Y12.5203
G01 X23.0617 Y12.5207
G01 X23.0507 Y12.5198
G01 X23.0364 Y12.5163
G01 X23.0263 Y12.5118
G01 X23.0141 Y12.5036
G01 X23.0037 Y12.4932
G01 X22.9974 Y12.4842
G01 X22.9911 Y12.4709
G01 X22.9881 Y12.4603
G01 X22.9867 Y12.4456
G00 Z1.0000
G00 X22.7050 Y14.2000
G01 F76.20
G01 Z-0.3732
G01 F400.00
G01 X22.7050 Y13.8700
G01 X22.7056 Y13.8612
G01 X22.7076 Y13.8526
G01 X22.7121 Y13.8417
G01 X22.7168 Y13.8342
G01 X22.7247 Y13.8255
G01 X22.7316 Y13.8201
G01 X22.7420 Y13.8145
G01 X22.7504 Y13.8118
G01 X22.7621 Y13.8100
G01 X29.3050 Y13.8100
G01 X29.3167 Y13.8111
G01 X29.3280 Y13.8145
G01 X29.3384 Y13.8201
G01 X29.3453 Y13.8255
G01 X29.3532 Y13.8342
G01 X29.3593 Y13.8443
G01 X29.3632 Y13.8554
G01 X29.3650 Y13.8671
G01 X29.3650 Y14.2000
G01 X29.3644 Y14.2088
G01 X29.3624 Y14.2174
G01 X29.3579 Y14.2283
G01 X29.3532 Y14.2358
G01 X29.3453 Y14.2445
G01 X29.3384 Y14.2499
G01 X29.3280 Y14.2555
G01 X29.3196 Y14.2582
G01 X29.3079 Y14.2600
G01 X29.2962 Y14.2594
G01 X29.2876 Y14.2574
G01 X29.2767 Y14.2529
G01 X29.2669 Y14.2464
G01 X29.2586 Y14.2381
G01 X29.2535 Y14.2309
G01 X29.2485 Y14.2202
G01 X29.2461 Y14.2117
G01 X29.2450 Y14.2000
G01 X29.2450 Y13.9300
G01 X22.8250 Y13.9300
G01 X22.8250 Y14.2000
G01 X22.8239 Y14.2117
G01 X22.8193 Y14.2257
G01 X22.8149 Y14.2334
G01 X22.8074 Y14.2424
G01 X22.8008 Y14.2482
G01 X22.7907 Y14.2543
G01 X22.7824 Y14.2574
G01 X22.7738 Y14.2594
G01 X22.7621 Y14.2600
G01 X22.7533 Y14.2589
G01 X22.7448 Y14.2565
G01 X22.7341 Y14.2515
G01 X22.7269 Y14.2464
G01 X22.7186 Y14.2381
G01 X22.7135 Y14.2309
G01 X22.7085 Y14.2202
G01 X22.7061 Y14.2117
G01 X22.7050 Y14.2000
G00 Z1.0000
G00 X20.8000 Y13.4350
G01 F76.20
G01 Z-0.3732
G01 F400.00
G01 X20.8000 Y13.1050
G01 X20.8006 Y13.0962
G01 X20.8026 Y13.0876
G01 X20.8071 Y13.0767
G01 X20.8118 Y13.0692
G01 X20.8197 Y13.0605
G01 X20.8266 Y13.0551
G01 X20.8370 Y13.0495
G01 X20.8454 Y13.0468
G01 X20.8571 Y13.0450
G01 X20.8688 Y13.0456
G01 X20.8774 Y13.0476
G01 X20.8883 Y13.0521
G01 X20.8981 Y13.0586
G01 X20.9064 Y13.0669
G01 X20.9115 Y13.0741
G01 X20.9165 Y13.0848
G01 X20.9189 Y13.0933
G01 X20.9200 Y13.1050
G01 X20.9200 Y13.3750
G01 X27.3400 Y13.3750
G01 X27.3400 Y13.1050
G01 X27.3411 Y13.0933
G01 X27.3445 Y13.0820
G01 X27.3501 Y13.0716
G01 X27.3555 Y13.0647
G01 X27.3642 Y13.0568
G01 X27.3717 Y13.0521
G01 X27.3798 Y13.0485
G01 X27.3883 Y13.0461
G01 X27.4000 Y13.0450
G01 X27.4088 Y13.0456
G01 X27.4202 Y13.0485
G01 X27.4283 Y13.0521
G01 X27.4358 Y13.0568
G01 X27.4445 Y13.0647
G01 X27.4499 Y13.0716
G01 X27.4555 Y13.0820
G01 X27.4582 Y13.0904
G01 X27.4600 Y13.1021
G01 X27.4600 Y13.4350
G01 X27.4594 Y13.4438
G01 X27.4574 Y13.4524
G01 X27.4529 Y13.4633
G01 X27.4482 Y13.4708
G01 X27.4403 Y13.4795
G01 X27.4334 Y13.4849
G01 X27.4230 Y13.4905
G01 X27.4146 Y13.4932
G01 X27.4029 Y13.4950
G01 X20.8600 Y13.4950
G01 X20.8483 Y13.4939
G01 X20.8370 Y13.4905
G01 X20.8266 Y13.4849
G01 X20.8176 Y13.4774
G01 X20.8101 Y13.4684
G01 X20.8045 Y13.4580
G01 X20.8011 Y13.4467
G01 X20.8000 Y13.4350
G00 Z1.0000
G00 X20.8000 Y10.6950
G01 F76.20
G01 Z-0.3732
G01 F400.00
G01 X20.8011 Y10.6833
G01 X20.8045 Y10.6720
G01 X20.8101 Y10.6616
G01 X20.8176 Y10.6526
G01 X20.8266 Y10.6451
G01 X20.8370 Y10.6395
G01 X20.8483 Y10.6361
G01 X20.8600 Y10.6350
G01 X27.4029 Y10.6350
G01 X27.4146 Y10.6368
G01 X27.4230 Y10.6395
G01 X27.4334 Y10.6451
G01 X27.4403 Y10.6505
G01 X27.4482 Y10.6592
G01 X27.4529 Y10.6667
G01 X27.4574 Y10.6776
G01 X27.4594 Y10.6862
G01 X27.4600 Y10.6950
G01 X27.4600 Y11.0279
G01 X27.4582 Y11.0396
G01 X27.4555 Y11.0480
G01 X27.4515 Y11.0559
G01 X27.4445 Y11.0653
G01 X27.4381 Y11.0714
G01 X27.4309 Y11.0765
G01 X27.4202 Y11.0815
G01 X27.4117 Y11.0839
G01 X27.4029 Y11.0850
G01 X27.3912 Y11.0844
G01 X27.3826 Y11.0824
G01 X27.3717 Y11.0779
G01 X27.3642 Y11.0732
G01 X27.3555 Y11.0653
G01 X27.3501 Y11.0584
G01 X27.3445 Y11.0480
G01 X27.3411 Y11.0367
G01 X27.3400 Y11.0250
G01 X27.3400 Y10.7550
G01 X20.9200 Y10.7550
G01 X20.9200 Y11.0250
G01 X20.9189 Y11.0367
G01 X20.9165 Y11.0452
G01 X20.9115 Y11.0559
G01 X20.9045 Y11.0653
G01 X20.8981 Y11.0714
G01 X20.8883 Y11.0779
G01 X20.8774 Y11.0824
G01 X20.8688 Y11.0844
G01 X20.8571 Y11.0850
G01 X20.8454 Y11.0832
G01 X20.8370 Y11.0805
G01 X20.8266 Y11.0749
G01 X20.8197 Y11.0695
G01 X20.8118 Y11.0608
G01 X20.8071 Y11.0533
G01 X20.8026 Y11.0424
G01 X20.8006 Y11.0338
G01 X20.8000 Y11.0250
G01 X20.8000 Y10.6950
G00 Z1.0000
G00 X22.0700 Y10.2600
G01 F76.20
G01 Z-0.3732
G01 F400.00
G01 X22.0700 Y9.9300
G01 X22.0706 Y9.9212
G01 X22.0726 Y9.9126
G01 X22.0771 Y9.9017
G01 X22.0818 Y9.8942
G01 X22.0897 Y9.8855
G01 X22.0966 Y9.8801
G01 X22.1070 Y9.8745
G01 X22.1154 Y9.8718
G01 X22.1271 Y9.8700
G01 X22.1388 Y9.8706
G01 X22.1474 Y9.8726
G01 X22.1583 Y9.8771
G01 X22.1681 Y9.8836
G01 X22.1764 Y9.8919
G01 X22.1815 Y9.8991
G01 X22.1865 Y9.9098
G01 X22.1889 Y9.9183
G01 X22.1900 Y9.9300
G01 X22.1900 Y10.2000
G01 X28.6100 Y10.2000
G01 X28.6100 Y9.9300
G01 X28.6111 Y9.9183
G01 X28.6145 Y9.9070
G01 X28.6201 Y9.8966
G01 X28.6255 Y9.8897
G01 X28.6342 Y9.8818
G01 X28.6417 Y9.8771
G01 X28.6498 Y9.8735
G01 X28.6612 Y9.8706
G01 X28.6700 Y9.8700
G01 X28.6788 Y9.8706
G01 X28.6902 Y9.8735
G01 X28.6983 Y9.8771
G01 X28.7058 Y9.8818
G01 X28.7145 Y9.8897
G01 X28.7199 Y9.8966
G01 X28.7255 Y9.9070
G01 X28.7282 Y9.9154
G01 X28.7300 Y9.9271
G01 X28.7300 Y10.2600
G01 X28.7294 Y10.2688
G01 X28.7274 Y10.2774
G01 X28.7229 Y10.2883
G01 X28.7182 Y10.2958
G01 X28.7103 Y10.3045
G01 X28.7034 Y10.3099
G01 X28.6930 Y10.3155
G01 X28.6846 Y10.3182
G01 X28.6729 Y10.3200
G01 X22.1300 Y10.3200
G01 X22.1183 Y10.3189
G01 X22.1070 Y10.3155
G01 X22.0966 Y10.3099
G01 X22.0876 Y10.3024
G01 X22.0801 Y10.2934
G01 X22.0745 Y10.2830
G01 X22.0711 Y10.2717
G01 X22.0700 Y10.2600
G00 Z1.0000
G00 X25.5855 Y12.5207
G01 F76.20
G01 Z-0.3732
G01 F400.00
G01 X24.9152 Y12.5206
G01 X24.9042 Y12.5192
G01 X24.8936 Y12.5163
G01 X24.8835 Y12.5118
G01 X24.8742 Y12.5059
G01 X24.8658 Y12.4987
G01 X24.8586 Y12.4903
G01 X24.8545 Y12.4842
G01 X24.8495 Y12.4743
G01 X24.8461 Y12.4639
G01 X24.8446 Y12.4566
G01 X24.8439 Y12.4419
G01 X24.8453 Y12.4310
G01 X24.8471 Y12.4238
G01 X24.8495 Y12.4169
G01 X24.8545 Y12.4070
G01 X24.8633 Y12.3952
G01 X24.8713 Y12.3876
G01 X24.8772 Y12.3832
G01 X24.8901 Y12.3763
G01 X24.9006 Y12.3728
G01 X24.9078 Y12.3714
G01 X24.9189 Y12.3706
G01 X25.4717 Y12.3706
G01 X25.0854 Y11.4683
G01 X25.0829 Y11.4575
G01 X25.0820 Y11.4429
G01 X25.0839 Y11.4283
G01 X25.0887 Y11.4144
G01 X25.0961 Y11.4017
G01 X25.1059 Y11.3906
G01 X25.1176 Y11.3817
G01 X25.1308 Y11.3753
G01 X25.1414 Y11.3722
G01 X25.1560 Y11.3706
G01 X25.1707 Y11.3719
G01 X25.1848 Y11.3759
G01 X25.1979 Y11.3827
G01 X25.2067 Y11.3894
G01 X25.2167 Y11.4002
G01 X25.2244 Y11.4127
G01 X25.6559 Y12.4195
G01 X25.6581 Y12.4266
G01 X25.6601 Y12.4375
G01 X25.6606 Y12.4449
G01 X25.6598 Y12.4560
G01 X25.6585 Y12.4633
G01 X25.6551 Y12.4738
G01 X25.6482 Y12.4869
G01 X25.6414 Y12.4957
G01 X25.6362 Y12.5010
G01 X25.6305 Y12.5057
G01 X25.6211 Y12.5117
G01 X25.6144 Y12.5149
G01 X25.6039 Y12.5184
G01 X25.5929 Y12.5203
G01 X25.5855 Y12.5207
G00 Z1.0000
G00 X25.7921 Y14.6726
G01 F76.20
G01 Z-0.3732
G01 F400.00
G01 X26.3709 Y14.6729
G01 X26.3818 Y14.6748
G01 X26.3922 Y14.6783
G01 X26.4021 Y14.6833
G01 X26.4111 Y14.6896
G01 X26.4191 Y14.6972
G01 X26.4259 Y14.7059
G01 X26.4314 Y14.7155
G01 X26.4363 Y14.7294
G01 X26.4385 Y14.7439
G01 X26.4377 Y14.7586
G01 X26.4342 Y14.7729
G01 X26.4297 Y14.7830
G01 X26.4215 Y14.7952
G01 X26.4111 Y14.8056
G01 X26.3989 Y14.8138
G01 X26.3853 Y14.8194
G01 X26.3745 Y14.8218
G01 X26.3635 Y14.8227
G01 X26.1528 Y14.8227
G01 X26.1528 Y15.7513
G01 X26.1506 Y15.7659
G01 X26.1471 Y15.7763
G01 X26.1422 Y15.7862
G01 X26.1358 Y15.7952
G01 X26.1282 Y15.8032
G01 X26.1195 Y15.8100
G01 X26.1099 Y15.8155
G01 X26.0960 Y15.8204
G01 X26.0851 Y15.8223
G01 X26.0778 Y15.8227
G01 X26.0667 Y15.8218
G01 X26.0595 Y15.8204
G01 X26.0490 Y15.8169
G01 X26.0424 Y15.8138
G01 X26.0361 Y15.8100
G01 X26.0274 Y15.8032
G01 X26.0222 Y15.7980
G01 X26.0154 Y15.7892
G01 X25.9243 Y15.6526
G01 X25.8429 Y15.5712
G01 X25.7585 Y15.5290
G01 X25.7521 Y15.5254
G01 X25.7432 Y15.5189
G01 X25.7354 Y15.5111
G01 X25.7288 Y15.5022
G01 X25.7236 Y15.4925
G01 X25.7198 Y15.4821
G01 X25.7176 Y15.4713
G01 X25.7171 Y15.4639
G01 X25.7176 Y15.4529
G01 X25.7188 Y15.4457
G01 X25.7208 Y15.4386
G01 X25.7250 Y15.4283
G01 X25.7286 Y15.4219
G01 X25.7351 Y15.4130
G01 X25.7429 Y15.4052
G01 X25.7487 Y15.4007
G01 X25.7582 Y15.3950
G01 X25.7649 Y15.3920
G01 X25.7719 Y15.3896
G01 X25.7827 Y15.3875
G01 X25.7937 Y15.3869
G01 X25.8011 Y15.3874
G01 X25.8119 Y15.3895
G01 X25.8223 Y15.3932
G01 X25.9269 Y15.4458
G01 X25.9404 Y15.4565
G01 X26.0028 Y15.5188
G01 X26.0028 Y14.8227
G01 X25.7884 Y14.8226
G01 X25.7775 Y14.8212
G01 X25.7668 Y14.8183
G01 X25.7567 Y14.8138
G01 X25.7474 Y14.8079
G01 X25.7390 Y14.8007
G01 X25.7318 Y14.7923
G01 X25.7259 Y14.7830
G01 X25.7203 Y14.7694
G01 X25.7179 Y14.7586
G01 X25.7171 Y14.7476
G01 X25.7179 Y14.7366
G01 X25.7203 Y14.7258
G01 X25.7259 Y14.7122
G01 X25.7318 Y14.7029
G01 X25.7390 Y14.6946
G01 X25.7474 Y14.6873
G01 X25.7567 Y14.6814
G01 X25.7668 Y14.6770
G01 X25.7811 Y14.6734
G01 X25.7921 Y14.6726
G00 Z1.0000
G00 X24.9148 Y15.2988
G01 F76.20
G01 Z-0.3732
G01 F400.00
G01 X24.9148 Y15.6726
G01 X25.2030 Y15.6726
G01 X25.2715 Y15.6383
G01 X25.3019 Y15.6079
G01 X25.3361 Y15.5394
G01 X25.3361 Y15.4320
G01 X25.3019 Y15.3635
G01 X25.2715 Y15.3331
G01 X25.2030 Y15.2988
G01 X24.9148 Y15.2988
G00 Z1.0000
G00 X24.7647 Y15.7476
G01 F76.20
G01 Z-0.3732
G01 F400.00
G01 X24.7647 Y14.7476
G01 X24.7655 Y14.7366
G01 X24.7679 Y14.7258
G01 X24.7719 Y14.7155
G01 X24.7773 Y14.7059
G01 X24.7817 Y14.7000
G01 X24.7893 Y14.6920
G01 X24.7980 Y14.6852
G01 X24.8043 Y14.6814
G01 X24.8110 Y14.6783
G01 X24.8215 Y14.6748
G01 X24.8324 Y14.6729
G01 X24.8397 Y14.6726
G01 X24.8507 Y14.6734
G01 X24.8579 Y14.6748
G01 X24.8684 Y14.6783
G01 X24.8783 Y14.6833
G01 X24.8844 Y14.6873
G01 X24.8928 Y14.6946
G01 X24.8977 Y14.7000
G01 X24.9041 Y14.7090
G01 X24.9090 Y14.7189
G01 X24.9125 Y14.7294
G01 X24.9139 Y14.7366
G01 X24.9148 Y14.7476
G01 X24.9148 Y15.1488
G01 X25.0387 Y15.1488
G01 X25.3542 Y14.6988
G01 X25.3648 Y14.6886
G01 X25.3772 Y14.6807
G01 X25.3874 Y14.6764
G01 X25.4017 Y14.6732
G01 X25.4128 Y14.6726
G01 X25.4274 Y14.6744
G01 X25.4414 Y14.6789
G01 X25.4511 Y14.6841
G01 X25.4627 Y14.6931
G01 X25.4724 Y14.7042
G01 X25.4797 Y14.7170
G01 X25.4834 Y14.7274
G01 X25.4860 Y14.7419
G01 X25.4860 Y14.7529
G01 X25.4835 Y14.7674
G01 X25.4783 Y14.7812
G01 X25.4726 Y14.7907
G01 X25.2219 Y15.1488
G01 X25.2360 Y15.1504
G01 X25.2507 Y15.1551
G01 X25.3495 Y15.2043
G01 X25.3584 Y15.2096
G01 X25.3665 Y15.2160
G01 X25.4166 Y15.2660
G01 X25.4254 Y15.2766
G01 X25.4306 Y15.2855
G01 X25.4814 Y15.3878
G01 X25.4846 Y15.3989
G01 X25.4862 Y15.4143
G01 X25.4862 Y15.5571
G01 X25.4853 Y15.5687
G01 X25.4826 Y15.5800
G01 X25.4783 Y15.5907
G01 X25.4273 Y15.6920
G01 X25.4166 Y15.7054
G01 X25.3690 Y15.7531
G01 X25.3584 Y15.7619
G01 X25.3495 Y15.7671
G01 X25.2507 Y15.8164
G01 X25.2398 Y15.8202
G01 X25.2284 Y15.8223
G01 X24.8397 Y15.8227
G01 X24.8287 Y15.8218
G01 X24.8144 Y15.8183
G01 X24.8043 Y15.8138
G01 X24.7921 Y15.8056
G01 X24.7817 Y15.7952
G01 X24.7754 Y15.7862
G01 X24.7691 Y15.7729
G01 X24.7661 Y15.7623
G01 X24.7647 Y15.7476
G00 Z1.0000
G00 X22.7050 Y16.6100
G01 F76.20
G01 Z-0.3732
G01 F400.00
G01 X22.7050 Y16.2771
G01 X22.7076 Y16.2626
G01 X22.7121 Y16.2517
G01 X22.7186 Y16.2419
G01 X22.7292 Y16.2318
G01 X22.7420 Y16.2245
G01 X22.7562 Y16.2206
G01 X22.7709 Y16.2203
G01 X22.7824 Y16.2226
G01 X22.7959 Y16.2285
G01 X22.8074 Y16.2376
G01 X22.8165 Y16.2491
G01 X22.8224 Y16.2626
G01 X22.8244 Y16.2712
G01 X22.8250 Y16.2800
G01 X22.8250 Y16.5500
G01 X23.2050 Y16.5500
G01 X23.2050 Y16.2400
G01 X23.2056 Y16.2312
G01 X23.2076 Y16.2226
G01 X23.2121 Y16.2117
G01 X23.2168 Y16.2042
G01 X23.2247 Y16.1955
G01 X23.2316 Y16.1901
G01 X23.2420 Y16.1845
G01 X23.2533 Y16.1811
G01 X23.2621 Y16.1800
G01 X32.6150 Y16.1800
G01 X32.6238 Y16.1806
G01 X32.6324 Y16.1826
G01 X32.6433 Y16.1871
G01 X32.6508 Y16.1918
G01 X32.6574 Y16.1976
G01 X32.6632 Y16.2042
G01 X32.6679 Y16.2117
G01 X32.6715 Y16.2198
G01 X32.6744 Y16.2312
G01 X32.6750 Y16.2400
G01 X32.6750 Y44.7200
G01 X32.6744 Y44.7288
G01 X32.6724 Y44.7374
G01 X32.6693 Y44.7457
G01 X32.6632 Y44.7558
G01 X32.6574 Y44.7624
G01 X32.6508 Y44.7682
G01 X32.6433 Y44.7729
G01 X32.6352 Y44.7765
G01 X32.6238 Y44.7794
G01 X32.6150 Y44.7800
G01 X23.2650 Y44.7800
G01 X23.2562 Y44.7794
G01 X23.2476 Y44.7774
G01 X23.2367 Y44.7729
G01 X23.2292 Y44.7682
G01 X23.2226 Y44.7624
G01 X23.2168 Y44.7558
G01 X23.2121 Y44.7483
G01 X23.2085 Y44.7402
G01 X23.2056 Y44.7288
G01 X23.2050 Y44.7200
G01 X23.2050 Y16.6700
G01 X22.7591 Y16.6697
G01 X22.7476 Y16.6674
G01 X22.7393 Y16.6643
G01 X22.7292 Y16.6582
G01 X22.7205 Y16.6503
G01 X22.7151 Y16.6434
G01 X22.7095 Y16.6330
G01 X22.7061 Y16.6217
G01 X22.7050 Y16.6100
G00 Z1.0000
G00 X21.5772 Y18.7366
G01 F76.20
G01 Z-0.3732
G01 F400.00
G01 X22.1560 Y18.7369
G01 X22.1669 Y18.7388
G01 X22.1774 Y18.7423
G01 X22.1872 Y18.7473
G01 X22.1963 Y18.7536
G01 X22.2067 Y18.7640
G01 X22.2130 Y18.7730
G01 X22.2180 Y18.7829
G01 X22.2215 Y18.7934
G01 X22.2236 Y18.8079
G01 X22.2229 Y18.8226
G01 X22.2193 Y18.8369
G01 X22.2148 Y18.8470
G01 X22.2067 Y18.8592
G01 X22.1963 Y18.8696
G01 X22.1840 Y18.8778
G01 X22.1704 Y18.8834
G01 X22.1597 Y18.8858
G01 X22.1487 Y18.8867
G01 X21.9380 Y18.8867
G01 X21.9379 Y19.8153
G01 X21.9357 Y19.8299
G01 X21.9323 Y19.8403
G01 X21.9273 Y19.8502
G01 X21.9209 Y19.8592
G01 X21.9133 Y19.8672
G01 X21.9046 Y19.8740
G01 X21.8950 Y19.8795
G01 X21.8811 Y19.8844
G01 X21.8739 Y19.8859
G01 X21.8629 Y19.8867
G01 X21.8519 Y19.8858
G01 X21.8447 Y19.8844
G01 X21.8376 Y19.8823
G01 X21.8275 Y19.8778
G01 X21.8212 Y19.8740
G01 X21.8125 Y19.8672
G01 X21.8073 Y19.8620
G01 X21.8005 Y19.8532
G01 X21.7094 Y19.7166
G01 X21.6280 Y19.6352
G01 X21.5437 Y19.5930
G01 X21.5373 Y19.5894
G01 X21.5284 Y19.5829
G01 X21.5206 Y19.5751
G01 X21.5140 Y19.5662
G01 X21.5087 Y19.5565
G01 X21.5050 Y19.5461
G01 X21.5028 Y19.5353
G01 X21.5022 Y19.5279
G01 X21.5027 Y19.5169
G01 X21.5040 Y19.5097
G01 X21.5072 Y19.4991
G01 X21.5101 Y19.4923
G01 X21.5137 Y19.4859
G01 X21.5203 Y19.4770
G01 X21.5254 Y19.4717
G01 X21.5339 Y19.4647
G01 X21.5401 Y19.4607
G01 X21.5500 Y19.4560
G01 X21.5606 Y19.4527
G01 X21.5679 Y19.4515
G01 X21.5789 Y19.4509
G01 X21.5862 Y19.4514
G01 X21.5971 Y19.4535
G01 X21.6075 Y19.4572
G01 X21.7121 Y19.5098
G01 X21.7255 Y19.5205
G01 X21.7879 Y19.5828
G01 X21.7879 Y18.8867
G01 X21.5736 Y18.8866
G01 X21.5626 Y18.8852
G01 X21.5520 Y18.8823
G01 X21.5419 Y18.8778
G01 X21.5325 Y18.8719
G01 X21.5242 Y18.8647
G01 X21.5170 Y18.8563
G01 X21.5111 Y18.8470
G01 X21.5066 Y18.8369
G01 X21.5030 Y18.8226
G01 X21.5022 Y18.8116
G01 X21.5030 Y18.8006
G01 X21.5054 Y18.7898
G01 X21.5111 Y18.7762
G01 X21.5170 Y18.7669
G01 X21.5242 Y18.7586
G01 X21.5325 Y18.7513
G01 X21.5419 Y18.7454
G01 X21.5555 Y18.7398
G01 X21.5662 Y18.7374
G01 X21.5772 Y18.7366
G00 Z1.0000
G00 X21.2237 Y19.0973
G01 F76.20
G01 Z-0.3732
G01 F400.00
G01 X21.2233 Y19.8190
G01 X21.2205 Y19.8334
G01 X21.2148 Y19.8470
G01 X21.2067 Y19.8592
G01 X21.1963 Y19.8696
G01 X21.1840 Y19.8778
G01 X21.1704 Y19.8834
G01 X21.1560 Y19.8863
G01 X21.1413 Y19.8863
G01 X21.1304 Y19.8844
G01 X21.1166 Y19.8795
G01 X21.1070 Y19.8740
G01 X21.0956 Y19.8647
G01 X21.0884 Y19.8563
G01 X21.0808 Y19.8437
G01 X21.0759 Y19.8299
G01 X21.0740 Y19.8190
G01 X21.0736 Y19.1095
G01 X21.0355 Y18.9950
G01 X20.9653 Y18.9248
G01 X20.8508 Y18.8867
G01 X20.7604 Y18.8863
G01 X20.7531 Y18.8852
G01 X20.7424 Y18.8823
G01 X20.7356 Y18.8795
G01 X20.7260 Y18.8740
G01 X20.7147 Y18.8647
G01 X20.7053 Y18.8533
G01 X20.6984 Y18.8403
G01 X20.6941 Y18.8263
G01 X20.6927 Y18.8116
G01 X20.6941 Y18.7970
G01 X20.6984 Y18.7829
G01 X20.7034 Y18.7730
G01 X20.7097 Y18.7640
G01 X20.7147 Y18.7586
G01 X20.7260 Y18.7492
G01 X20.7390 Y18.7423
G01 X20.7531 Y18.7380
G01 X20.7677 Y18.7366
G01 X20.8664 Y18.7367
G01 X20.8767 Y18.7378
G01 X20.8867 Y18.7404
G01 X21.0295 Y18.7881
G01 X21.0367 Y18.7909
G01 X21.0469 Y18.7964
G01 X21.0589 Y18.8062
G01 X21.1541 Y18.9014
G01 X21.1593 Y18.9072
G01 X21.1659 Y18.9167
G01 X21.1722 Y18.9307
G01 X21.2199 Y19.0736
G01 X21.2230 Y19.0870
G01 X21.2237 Y19.0973
G00 Z1.0000
G00 X27.1455 Y15.4389
G01 F76.20
G01 Z-0.3732
G01 F400.00
G01 X27.3724 Y15.6982
G01 X27.3809 Y15.7101
G01 X27.3869 Y15.7234
G01 X27.3903 Y15.7376
G01 X27.3908 Y15.7522
G01 X27.3893 Y15.7630
G01 X27.3850 Y15.7770
G01 X27.3780 Y15.7898
G01 X27.3686 Y15.8010
G01 X27.3573 Y15.8102
G01 X27.3478 Y15.8156
G01 X27.3375 Y15.8195
G01 X27.3268 Y15.8219
G01 X27.3159 Y15.8227
G01 X26.6932 Y15.8226
G01 X26.6786 Y15.8204
G01 X26.6681 Y15.8169
G01 X26.6615 Y15.8138
G01 X26.6522 Y15.8079
G01 X26.6465 Y15.8032
G01 X26.6389 Y15.7952
G01 X26.6345 Y15.7893
G01 X26.6307 Y15.7830
G01 X26.6262 Y15.7729
G01 X26.6241 Y15.7659
G01 X26.6222 Y15.7550
G01 X26.6218 Y15.7476
G01 X26.6226 Y15.7366
G01 X26.6262 Y15.7223
G01 X26.6307 Y15.7122
G01 X26.6345 Y15.7059
G01 X26.6389 Y15.7000
G01 X26.6465 Y15.6920
G01 X26.6552 Y15.6852
G01 X26.6615 Y15.6814
G01 X26.6716 Y15.6770
G01 X26.6786 Y15.6748
G01 X26.6895 Y15.6729
G01 X26.6969 Y15.6726
G01 X27.1505 Y15.6726
G01 X26.9238 Y15.4133
G01 X26.9195 Y15.4073
G01 X26.9143 Y15.3977
G01 X26.9095 Y15.3839
G01 X26.9076 Y15.3694
G01 X26.9085 Y15.3549
G01 X26.9110 Y15.3442
G01 X26.9150 Y15.3340
G01 X26.9185 Y15.3276
G01 X26.9249 Y15.3187
G01 X26.9298 Y15.3133
G01 X26.9382 Y15.3062
G01 X26.9474 Y15.3004
G01 X26.9575 Y15.2960
G01 X26.9680 Y15.2930
G01 X26.9789 Y15.2917
G01 X27.1077 Y15.2916
G01 X27.1762 Y15.2574
G01 X27.2066 Y15.2270
G01 X27.2409 Y15.1585
G01 X27.2409 Y14.9558
G01 X27.2066 Y14.8873
G01 X27.1762 Y14.8569
G01 X27.1077 Y14.8227
G01 X26.8574 Y14.8227
G01 X26.7889 Y14.8569
G01 X26.7472 Y14.8985
G01 X26.7385 Y14.9052
G01 X26.7322 Y14.9090
G01 X26.7186 Y14.9147
G01 X26.7042 Y14.9175
G01 X26.6895 Y14.9175
G01 X26.6786 Y14.9156
G01 X26.6648 Y14.9107
G01 X26.6552 Y14.9052
G01 X26.6438 Y14.8959
G01 X26.6345 Y14.8845
G01 X26.6275 Y14.8716
G01 X26.6241 Y14.8611
G01 X26.6219 Y14.8465
G01 X26.6226 Y14.8318
G01 X26.6241 Y14.8246
G01 X26.6275 Y14.8141
G01 X26.6325 Y14.8043
G01 X26.6389 Y14.7953
G01 X26.6914 Y14.7422
G01 X26.7049 Y14.7315
G01 X26.8062 Y14.6805
G01 X26.8169 Y14.6761
G01 X26.8282 Y14.6735
G01 X26.8397 Y14.6726
G01 X27.1331 Y14.6730
G01 X27.1445 Y14.6751
G01 X27.1555 Y14.6789
G01 X27.2542 Y14.7281
G01 X27.2631 Y14.7334
G01 X27.2737 Y14.7422
G01 X27.3213 Y14.7898
G01 X27.3320 Y14.8033
G01 X27.3830 Y14.9045
G01 X27.3874 Y14.9153
G01 X27.3900 Y14.9265
G01 X27.3909 Y14.9381
G01 X27.3909 Y15.1762
G01 X27.3900 Y15.1877
G01 X27.3874 Y15.1990
G01 X27.3830 Y15.2097
G01 X27.3354 Y15.3050
G01 X27.3302 Y15.3139
G01 X27.3213 Y15.3245
G01 X27.2737 Y15.3721
G01 X27.2659 Y15.3789
G01 X27.2542 Y15.3862
G01 X27.1590 Y15.4338
G01 X27.1455 Y15.4389
G00 Z1.0000
G00 X29.2450 Y16.3000
G01 F76.20
G01 Z-0.3732
G01 F400.00
G01 X23.3250 Y16.3000
G01 X23.3250 Y16.5500
G01 X29.2450 Y16.5500
G01 X29.2450 Y16.3000
G00 Z1.0000
G00 X30.3250 Y15.9300
G01 F76.20
G01 Z-0.3732
G01 F400.00
G01 X32.8650 Y15.9300
G01 X32.8767 Y15.9311
G01 X32.8880 Y15.9345
G01 X32.8984 Y15.9401
G01 X32.9074 Y15.9476
G01 X32.9149 Y15.9566
G01 X32.9205 Y15.9670
G01 X32.9239 Y15.9783
G01 X32.9250 Y15.9900
G01 X32.9250 Y18.5300
G01 X32.9239 Y18.5417
G01 X32.9205 Y18.5530
G01 X32.9149 Y18.5634
G01 X32.9074 Y18.5724
G01 X32.9008 Y18.5782
G01 X32.8933 Y18.5829
G01 X32.8852 Y18.5865
G01 X32.8767 Y18.5889
G01 X32.8679 Y18.5900
G01 X32.8591 Y18.5897
G01 X32.8504 Y18.5882
G01 X32.8420 Y18.5855
G01 X32.8292 Y18.5782
G01 X32.8226 Y18.5724
G01 X32.8168 Y18.5658
G01 X32.8121 Y18.5583
G01 X32.8085 Y18.5502
G01 X32.8061 Y18.5417
G01 X32.8050 Y18.5329
G01 X32.8050 Y16.0500
G01 X30.3221 Y16.0500
G01 X30.3104 Y16.0482
G01 X30.2993 Y16.0443
G01 X30.2892 Y16.0382
G01 X30.2805 Y16.0303
G01 X30.2751 Y16.0234
G01 X30.2695 Y16.0130
G01 X30.2661 Y16.0017
G01 X30.2650 Y15.9900
G01 X30.2661 Y15.9783
G01 X30.2695 Y15.9670
G01 X30.2751 Y15.9566
G01 X30.2826 Y15.9476
G01 X30.2916 Y15.9401
G01 X30.3020 Y15.9345
G01 X30.3133 Y15.9311
G01 X30.3250 Y15.9300
G00 Z1.0000
G00 X32.5550 Y16.3000
G01 F76.20
G01 Z-0.3732
G01 F400.00
G01 X29.3650 Y16.3000
G01 X29.3650 Y16.6100
G01 X29.3644 Y16.6188
G01 X29.3624 Y16.6274
G01 X29.3579 Y16.6383
G01 X29.3532 Y16.6458
G01 X29.3453 Y16.6545
G01 X29.3384 Y16.6599
G01 X29.3280 Y16.6655
G01 X29.3167 Y16.6689
G01 X29.3079 Y16.6700
G01 X23.3250 Y16.6700
G01 X23.3250 Y44.6600
G01 X32.5550 Y44.6600
G01 X32.5550 Y16.3000
G00 Z1.0000
G00 X37.3100 Y12.8000
G01 F76.20
G01 Z-0.3732
G01 F400.00
G01 X37.3100 Y12.4700
G01 X37.3106 Y12.4612
G01 X37.3135 Y12.4498
G01 X37.3171 Y12.4417
G01 X37.3236 Y12.4319
G01 X37.3297 Y12.4255
G01 X37.3391 Y12.4185
G01 X37.3470 Y12.4145
G01 X37.3554 Y12.4118
G01 X37.3671 Y12.4100
G01 X37.3788 Y12.4106
G01 X37.3874 Y12.4126
G01 X37.3983 Y12.4171
G01 X37.4081 Y12.4236
G01 X37.4145 Y12.4297
G01 X37.4215 Y12.4391
G01 X37.4265 Y12.4498
G01 X37.4289 Y12.4583
G01 X37.4300 Y12.4700
G01 X37.4300 Y12.7400
G01 X43.8500 Y12.7400
G01 X43.8500 Y12.4700
G01 X43.8511 Y12.4583
G01 X43.8545 Y12.4470
G01 X43.8585 Y12.4391
G01 X43.8655 Y12.4297
G01 X43.8719 Y12.4236
G01 X43.8817 Y12.4171
G01 X43.8898 Y12.4135
G01 X43.9012 Y12.4106
G01 X43.9100 Y12.4100
G01 X43.9188 Y12.4106
G01 X43.9302 Y12.4135
G01 X43.9383 Y12.4171
G01 X43.9481 Y12.4236
G01 X43.9545 Y12.4297
G01 X43.9615 Y12.4391
G01 X43.9655 Y12.4470
G01 X43.9682 Y12.4554
G01 X43.9700 Y12.4671
G01 X43.9700 Y12.8000
G01 X43.9694 Y12.8088
G01 X43.9665 Y12.8202
G01 X43.9629 Y12.8283
G01 X43.9564 Y12.8381
G01 X43.9503 Y12.8445
G01 X43.9409 Y12.8515
G01 X43.9330 Y12.8555
G01 X43.9246 Y12.8582
G01 X43.9129 Y12.8600
G01 X37.3700 Y12.8600
G01 X37.3583 Y12.8589
G01 X37.3470 Y12.8555
G01 X37.3366 Y12.8499
G01 X37.3276 Y12.8424
G01 X37.3201 Y12.8334
G01 X37.3145 Y12.8230
G01 X37.3111 Y12.8117
G01 X37.3100 Y12.8000
G00 Z1.0000
G00 X39.3507 Y11.9376
G01 F76.20
G01 Z-0.3732
G01 F400.00
G01 X39.3507 Y10.9376
G01 X39.3515 Y10.9266
G01 X39.3539 Y10.9158
G01 X39.3579 Y10.9055
G01 X39.3633 Y10.8959
G01 X39.3701 Y10.8872
G01 X39.3753 Y10.8820
G01 X39.3810 Y10.8773
G01 X39.3903 Y10.8714
G01 X39.3970 Y10.8683
G01 X39.4075 Y10.8648
G01 X39.4184 Y10.8629
G01 X39.4257 Y10.8626
G01 X39.4367 Y10.8634
G01 X39.4475 Y10.8658
G01 X39.4544 Y10.8683
G01 X39.4643 Y10.8733
G01 X39.4704 Y10.8773
G01 X39.4788 Y10.8846
G01 X39.4837 Y10.8900
G01 X39.4901 Y10.8990
G01 X39.4950 Y10.9089
G01 X39.4985 Y10.9194
G01 X39.4999 Y10.9266
G01 X39.5008 Y10.9376
G01 X39.5008 Y11.3388
G01 X39.6247 Y11.3388
G01 X39.9402 Y10.8888
G01 X39.9508 Y10.8786
G01 X39.9632 Y10.8707
G01 X39.9734 Y10.8664
G01 X39.9877 Y10.8632
G01 X39.9988 Y10.8626
G01 X40.0134 Y10.8644
G01 X40.0239 Y10.8675
G01 X40.0371 Y10.8741
G01 X40.0487 Y10.8831
G01 X40.0584 Y10.8942
G01 X40.0641 Y10.9037
G01 X40.0694 Y10.9174
G01 X40.0720 Y10.9319
G01 X40.0720 Y10.9429
G01 X40.0695 Y10.9574
G01 X40.0643 Y10.9712
G01 X40.0586 Y10.9807
G01 X39.8079 Y11.3388
G01 X39.8220 Y11.3404
G01 X39.8367 Y11.3451
G01 X39.9355 Y11.3943
G01 X39.9444 Y11.3996
G01 X39.9525 Y11.4060
G01 X40.0026 Y11.4560
G01 X40.0114 Y11.4666
G01 X40.0166 Y11.4755
G01 X40.0674 Y11.5778
G01 X40.0706 Y11.5889
G01 X40.0722 Y11.6043
G01 X40.0722 Y11.7471
G01 X40.0713 Y11.7587
G01 X40.0686 Y11.7700
G01 X40.0643 Y11.7807
G01 X40.0133 Y11.8820
G01 X40.0026 Y11.8954
G01 X39.9550 Y11.9431
G01 X39.9444 Y11.9519
G01 X39.9355 Y11.9571
G01 X39.8367 Y12.0064
G01 X39.8258 Y12.0102
G01 X39.8144 Y12.0123
G01 X39.4257 Y12.0127
G01 X39.4147 Y12.0118
G01 X39.4004 Y12.0083
G01 X39.3871 Y12.0020
G01 X39.3781 Y11.9956
G01 X39.3677 Y11.9852
G01 X39.3614 Y11.9762
G01 X39.3551 Y11.9629
G01 X39.3521 Y11.9523
G01 X39.3507 Y11.9376
G00 Z1.0000
G00 X39.5008 Y11.4888
G01 F76.20
G01 Z-0.3732
G01 F400.00
G01 X39.5008 Y11.8626
G01 X39.7890 Y11.8626
G01 X39.8575 Y11.8283
G01 X39.8879 Y11.7979
G01 X39.9221 Y11.7294
G01 X39.9221 Y11.6220
G01 X39.8879 Y11.5535
G01 X39.8575 Y11.5231
G01 X39.7890 Y11.4888
G01 X39.5008 Y11.4888
G00 Z1.0000
G00 X40.3781 Y10.8626
G01 F76.20
G01 Z-0.3732
G01 F400.00
G01 X40.9569 Y10.8629
G01 X40.9678 Y10.8648
G01 X40.9782 Y10.8683
G01 X40.9881 Y10.8733
G01 X40.9971 Y10.8796
G01 X41.0051 Y10.8872
G01 X41.0119 Y10.8959
G01 X41.0188 Y10.9089
G01 X41.0223 Y10.9194
G01 X41.0245 Y10.9339
G01 X41.0237 Y10.9486
G01 X41.0202 Y10.9629
G01 X41.0157 Y10.9730
G01 X41.0075 Y10.9852
G01 X40.9971 Y10.9956
G01 X40.9849 Y11.0038
G01 X40.9713 Y11.0094
G01 X40.9605 Y11.0118
G01 X40.9495 Y11.0127
G01 X40.7388 Y11.0127
G01 X40.7388 Y11.9413
G01 X40.7366 Y11.9559
G01 X40.7331 Y11.9663
G01 X40.7282 Y11.9762
G01 X40.7218 Y11.9852
G01 X40.7142 Y11.9932
G01 X40.7055 Y12.0000
G01 X40.6925 Y12.0070
G01 X40.6820 Y12.0104
G01 X40.6748 Y12.0119
G01 X40.6638 Y12.0127
G01 X40.6527 Y12.0118
G01 X40.6455 Y12.0104
G01 X40.6385 Y12.0083
G01 X40.6284 Y12.0038
G01 X40.6221 Y12.0000
G01 X40.6134 Y11.9932
G01 X40.6082 Y11.9880
G01 X40.6014 Y11.9792
G01 X40.5103 Y11.8426
G01 X40.4289 Y11.7612
G01 X40.3445 Y11.7190
G01 X40.3381 Y11.7154
G01 X40.3292 Y11.7089
G01 X40.3214 Y11.7011
G01 X40.3148 Y11.6922
G01 X40.3096 Y11.6825
G01 X40.3058 Y11.6721
G01 X40.3036 Y11.6613
G01 X40.3031 Y11.6539
G01 X40.3032 Y11.6466
G01 X40.3048 Y11.6357
G01 X40.3068 Y11.6286
G01 X40.3110 Y11.6183
G01 X40.3146 Y11.6119
G01 X40.3211 Y11.6030
G01 X40.3289 Y11.5952
G01 X40.3347 Y11.5907
G01 X40.3442 Y11.5850
G01 X40.3509 Y11.5820
G01 X40.3615 Y11.5787
G01 X40.3687 Y11.5775
G01 X40.3797 Y11.5769
G01 X40.3871 Y11.5774
G01 X40.3979 Y11.5795
G01 X40.4083 Y11.5832
G01 X40.5129 Y11.6358
G01 X40.5264 Y11.6465
G01 X40.5888 Y11.7088
G01 X40.5888 Y11.0127
G01 X40.3744 Y11.0126
G01 X40.3635 Y11.0112
G01 X40.3528 Y11.0083
G01 X40.3427 Y11.0038
G01 X40.3334 Y10.9979
G01 X40.3250 Y10.9907
G01 X40.3178 Y10.9823
G01 X40.3103 Y10.9697
G01 X40.3063 Y10.9594
G01 X40.3039 Y10.9486
G01 X40.3031 Y10.9376
G01 X40.3039 Y10.9266
G01 X40.3063 Y10.9158
G01 X40.3103 Y10.9055
G01 X40.3178 Y10.8929
G01 X40.3250 Y10.8846
G01 X40.3334 Y10.8773
G01 X40.3460 Y10.8698
G01 X40.3563 Y10.8658
G01 X40.3671 Y10.8634
G01 X40.3781 Y10.8626
G00 Z1.0000
G00 X41.4212 Y11.6145
G01 F76.20
G01 Z-0.3732
G01 F400.00
G01 X41.4460 Y11.8626
G01 X41.8543 Y11.8626
G01 X41.8653 Y11.8634
G01 X41.8725 Y11.8648
G01 X41.8830 Y11.8683
G01 X41.8897 Y11.8714
G01 X41.8990 Y11.8773
G01 X41.9047 Y11.8820
G01 X41.9099 Y11.8872
G01 X41.9167 Y11.8959
G01 X41.9205 Y11.9022
G01 X41.9249 Y11.9123
G01 X41.9271 Y11.9194
G01 X41.9290 Y11.9303
G01 X41.9292 Y11.9413
G01 X41.9285 Y11.9486
G01 X41.9261 Y11.9594
G01 X41.9236 Y11.9663
G01 X41.9186 Y11.9762
G01 X41.9146 Y11.9823
G01 X41.9073 Y11.9907
G01 X41.9019 Y11.9956
G01 X41.8960 Y12.0000
G01 X41.8864 Y12.0055
G01 X41.8725 Y12.0104
G01 X41.8616 Y12.0123
G01 X41.8543 Y12.0127
G01 X41.3744 Y12.0126
G01 X41.3635 Y12.0112
G01 X41.3528 Y12.0083
G01 X41.3396 Y12.0020
G01 X41.3305 Y11.9957
G01 X41.3201 Y11.9853
G01 X41.3120 Y11.9731
G01 X41.3075 Y11.9630
G01 X41.3039 Y11.9487
G01 X41.2555 Y11.4652
G01 X41.2562 Y11.4505
G01 X41.2598 Y11.4362
G01 X41.2626 Y11.4294
G01 X41.2680 Y11.4198
G01 X41.2774 Y11.4084
G01 X41.2887 Y11.3991
G01 X41.3017 Y11.3921
G01 X41.3158 Y11.3878
G01 X41.3268 Y11.3865
G01 X41.3341 Y11.3865
G01 X41.3415 Y11.3872
G01 X41.3522 Y11.3896
G01 X41.3625 Y11.3936
G01 X41.3690 Y11.3971
G01 X41.3809 Y11.4058
G01 X41.4225 Y11.4474
G01 X41.4910 Y11.4816
G01 X41.6937 Y11.4816
G01 X41.7622 Y11.4474
G01 X41.7926 Y11.4170
G01 X41.8269 Y11.3485
G01 X41.8269 Y11.1458
G01 X41.7926 Y11.0773
G01 X41.7622 Y11.0469
G01 X41.6937 Y11.0127
G01 X41.4910 Y11.0127
G01 X41.4225 Y11.0469
G01 X41.3809 Y11.0885
G01 X41.3722 Y11.0952
G01 X41.3658 Y11.0990
G01 X41.3523 Y11.1047
G01 X41.3378 Y11.1075
G01 X41.3231 Y11.1075
G01 X41.3122 Y11.1056
G01 X41.2984 Y11.1007
G01 X41.2888 Y11.0952
G01 X41.2774 Y11.0859
G01 X41.2702 Y11.0776
G01 X41.2626 Y11.0649
G01 X41.2587 Y11.0546
G01 X41.2558 Y11.0402
G01 X41.2558 Y11.0255
G01 X41.2577 Y11.0146
G01 X41.2612 Y11.0041
G01 X41.2661 Y10.9943
G01 X41.2702 Y10.9882
G01 X41.2774 Y10.9798
G01 X41.3275 Y10.9298
G01 X41.3356 Y10.9234
G01 X41.3445 Y10.9181
G01 X41.4433 Y10.8689
G01 X41.4580 Y10.8642
G01 X41.4733 Y10.8626
G01 X41.7114 Y10.8626
G01 X41.7230 Y10.8635
G01 X41.7343 Y10.8661
G01 X41.7450 Y10.8705
G01 X41.8462 Y10.9215
G01 X41.8597 Y10.9322
G01 X41.9073 Y10.9798
G01 X41.9162 Y10.9904
G01 X41.9214 Y10.9993
G01 X41.9707 Y11.0980
G01 X41.9745 Y11.1090
G01 X41.9765 Y11.1204
G01 X41.9769 Y11.3662
G01 X41.9760 Y11.3777
G01 X41.9734 Y11.3890
G01 X41.9690 Y11.3997
G01 X41.9180 Y11.5010
G01 X41.9073 Y11.5145
G01 X41.8597 Y11.5621
G01 X41.8491 Y11.5709
G01 X41.8402 Y11.5762
G01 X41.7450 Y11.6238
G01 X41.7379 Y11.6269
G01 X41.7268 Y11.6301
G01 X41.7114 Y11.6317
G01 X41.4695 Y11.6316
G01 X41.4580 Y11.6301
G01 X41.4469 Y11.6269
G01 X41.4212 Y11.6145
G00 Z1.0000
G00 X44.9300 Y13.8700
G01 F76.20
G01 Z-0.3732
G01 F400.00
G01 X44.9311 Y13.8583
G01 X44.9345 Y13.8470
G01 X44.9401 Y13.8366
G01 X44.9476 Y13.8276
G01 X44.9566 Y13.8201
G01 X44.9670 Y13.8145
G01 X44.9783 Y13.8111
G01 X44.9900 Y13.8100
G01 X51.5329 Y13.8100
G01 X51.5446 Y13.8118
G01 X51.5530 Y13.8145
G01 X51.5609 Y13.8185
G01 X51.5703 Y13.8255
G01 X51.5764 Y13.8319
G01 X51.5829 Y13.8417
G01 X51.5865 Y13.8498
G01 X51.5894 Y13.8612
G01 X51.5900 Y13.8700
G01 X51.5900 Y14.2029
G01 X51.5882 Y14.2146
G01 X51.5855 Y14.2230
G01 X51.5815 Y14.2309
G01 X51.5745 Y14.2403
G01 X51.5681 Y14.2464
G01 X51.5583 Y14.2529
G01 X51.5502 Y14.2565
G01 X51.5388 Y14.2594
G01 X51.5300 Y14.2600
G01 X51.5212 Y14.2594
G01 X51.5098 Y14.2565
G01 X51.5017 Y14.2529
G01 X51.4919 Y14.2464
G01 X51.4855 Y14.2403
G01 X51.4785 Y14.2309
G01 X51.4745 Y14.2230
G01 X51.4711 Y14.2117
G01 X51.4700 Y14.2000
G01 X51.4700 Y13.9300
G01 X45.0500 Y13.9300
G01 X45.0500 Y14.2000
G01 X45.0489 Y14.2117
G01 X45.0465 Y14.2202
G01 X45.0415 Y14.2309
G01 X45.0345 Y14.2403
G01 X45.0281 Y14.2464
G01 X45.0183 Y14.2529
G01 X45.0074 Y14.2574
G01 X44.9988 Y14.2594
G01 X44.9871 Y14.2600
G01 X44.9754 Y14.2582
G01 X44.9670 Y14.2555
G01 X44.9591 Y14.2515
G01 X44.9497 Y14.2445
G01 X44.9436 Y14.2381
G01 X44.9371 Y14.2283
G01 X44.9335 Y14.2202
G01 X44.9306 Y14.2088
G01 X44.9300 Y14.2000
G01 X44.9300 Y13.8700
G00 Z1.0000
G00 X47.1208 Y15.2988
G01 F76.20
G01 Z-0.3732
G01 F400.00
G01 X47.1208 Y15.6726
G01 X47.4090 Y15.6726
G01 X47.4775 Y15.6383
G01 X47.5079 Y15.6079
G01 X47.5421 Y15.5394
G01 X47.5421 Y15.4320
G01 X47.5079 Y15.3635
G01 X47.4775 Y15.3331
G01 X47.4090 Y15.2988
G01 X47.1208 Y15.2988
G00 Z1.0000
G00 X46.9707 Y15.7476
G01 F76.20
G01 Z-0.3732
G01 F400.00
G01 X46.9707 Y14.7476
G01 X46.9715 Y14.7366
G01 X46.9739 Y14.7258
G01 X46.9779 Y14.7155
G01 X46.9833 Y14.7059
G01 X46.9901 Y14.6972
G01 X46.9953 Y14.6920
G01 X47.0010 Y14.6873
G01 X47.0103 Y14.6814
G01 X47.0170 Y14.6783
G01 X47.0275 Y14.6748
G01 X47.0384 Y14.6729
G01 X47.0457 Y14.6726
G01 X47.0567 Y14.6734
G01 X47.0675 Y14.6758
G01 X47.0744 Y14.6783
G01 X47.0843 Y14.6833
G01 X47.0904 Y14.6873
G01 X47.0988 Y14.6946
G01 X47.1037 Y14.7000
G01 X47.1101 Y14.7090
G01 X47.1150 Y14.7189
G01 X47.1185 Y14.7294
G01 X47.1199 Y14.7366
G01 X47.1208 Y14.7476
G01 X47.1208 Y15.1488
G01 X47.2447 Y15.1488
G01 X47.5602 Y14.6988
G01 X47.5708 Y14.6886
G01 X47.5832 Y14.6807
G01 X47.5934 Y14.6764
G01 X47.6077 Y14.6732
G01 X47.6188 Y14.6726
G01 X47.6334 Y14.6744
G01 X47.6439 Y14.6775
G01 X47.6571 Y14.6841
G01 X47.6687 Y14.6931
G01 X47.6784 Y14.7042
G01 X47.6841 Y14.7137
G01 X47.6894 Y14.7274
G01 X47.6920 Y14.7419
G01 X47.6920 Y14.7529
G01 X47.6895 Y14.7674
G01 X47.6843 Y14.7812
G01 X47.6786 Y14.7907
G01 X47.4279 Y15.1488
G01 X47.4420 Y15.1504
G01 X47.4567 Y15.1551
G01 X47.5555 Y15.2043
G01 X47.5644 Y15.2096
G01 X47.5725 Y15.2160
G01 X47.6226 Y15.2660
G01 X47.6314 Y15.2766
G01 X47.6366 Y15.2855
G01 X47.6874 Y15.3878
G01 X47.6906 Y15.3989
G01 X47.6922 Y15.4143
G01 X47.6922 Y15.5571
G01 X47.6913 Y15.5687
G01 X47.6886 Y15.5800
G01 X47.6843 Y15.5907
G01 X47.6333 Y15.6920
G01 X47.6226 Y15.7054
G01 X47.5750 Y15.7531
G01 X47.5644 Y15.7619
G01 X47.5555 Y15.7671
G01 X47.4567 Y15.8164
G01 X47.4458 Y15.8202
G01 X47.4344 Y15.8223
G01 X47.0457 Y15.8227
G01 X47.0347 Y15.8218
G01 X47.0204 Y15.8183
G01 X47.0071 Y15.8120
G01 X46.9981 Y15.8056
G01 X46.9877 Y15.7952
G01 X46.9814 Y15.7862
G01 X46.9751 Y15.7729
G01 X46.9721 Y15.7623
G01 X46.9707 Y15.7476
G00 Z1.0000
G00 X47.9981 Y14.6726
G01 F76.20
G01 Z-0.3732
G01 F400.00
G01 X48.5769 Y14.6729
G01 X48.5878 Y14.6748
G01 X48.5982 Y14.6783
G01 X48.6081 Y14.6833
G01 X48.6171 Y14.6896
G01 X48.6251 Y14.6972
G01 X48.6319 Y14.7059
G01 X48.6388 Y14.7189
G01 X48.6423 Y14.7294
G01 X48.6445 Y14.7439
G01 X48.6437 Y14.7586
G01 X48.6402 Y14.7729
G01 X48.6357 Y14.7830
G01 X48.6275 Y14.7952
G01 X48.6171 Y14.8056
G01 X48.6049 Y14.8138
G01 X48.5913 Y14.8194
G01 X48.5805 Y14.8218
G01 X48.5695 Y14.8227
G01 X48.3588 Y14.8227
G01 X48.3588 Y15.7513
G01 X48.3566 Y15.7659
G01 X48.3531 Y15.7763
G01 X48.3482 Y15.7862
G01 X48.3418 Y15.7952
G01 X48.3342 Y15.8032
G01 X48.3255 Y15.8100
G01 X48.3125 Y15.8170
G01 X48.3020 Y15.8204
G01 X48.2948 Y15.8219
G01 X48.2838 Y15.8227
G01 X48.2727 Y15.8218
G01 X48.2655 Y15.8204
G01 X48.2585 Y15.8183
G01 X48.2484 Y15.8138
G01 X48.2421 Y15.8100
G01 X48.2334 Y15.8032
G01 X48.2282 Y15.7980
G01 X48.2214 Y15.7892
G01 X48.1303 Y15.6526
G01 X48.0489 Y15.5712
G01 X47.9645 Y15.5290
G01 X47.9581 Y15.5254
G01 X47.9492 Y15.5189
G01 X47.9414 Y15.5111
G01 X47.9348 Y15.5022
G01 X47.9296 Y15.4925
G01 X47.9258 Y15.4821
G01 X47.9236 Y15.4713
G01 X47.9231 Y15.4639
G01 X47.9232 Y15.4566
G01 X47.9248 Y15.4457
G01 X47.9268 Y15.4386
G01 X47.9310 Y15.4283
G01 X47.9346 Y15.4219
G01 X47.9411 Y15.4130
G01 X47.9489 Y15.4052
G01 X47.9547 Y15.4007
G01 X47.9642 Y15.3950
G01 X47.9709 Y15.3920
G01 X47.9815 Y15.3887
G01 X47.9887 Y15.3875
G01 X47.9997 Y15.3869
G01 X48.0071 Y15.3874
G01 X48.0179 Y15.3895
G01 X48.0283 Y15.3932
G01 X48.1329 Y15.4458
G01 X48.1464 Y15.4565
G01 X48.2088 Y15.5188
G01 X48.2088 Y14.8227
G01 X47.9944 Y14.8226
G01 X47.9835 Y14.8212
G01 X47.9728 Y14.8183
G01 X47.9627 Y14.8138
G01 X47.9534 Y14.8079
G01 X47.9450 Y14.8007
G01 X47.9378 Y14.7923
G01 X47.9303 Y14.7797
G01 X47.9263 Y14.7694
G01 X47.9239 Y14.7586
G01 X47.9231 Y14.7476
G01 X47.9239 Y14.7366
G01 X47.9263 Y14.7258
G01 X47.9303 Y14.7155
G01 X47.9378 Y14.7029
G01 X47.9450 Y14.6946
G01 X47.9534 Y14.6873
G01 X47.9660 Y14.6798
G01 X47.9763 Y14.6758
G01 X47.9871 Y14.6734
G01 X47.9981 Y14.6726
G00 Z1.0000
G00 X49.2063 Y15.6726
G01 F76.20
G01 Z-0.3732
G01 F400.00
G01 X49.2661 Y15.6726
G01 X49.3346 Y15.6383
G01 X49.3650 Y15.6079
G01 X49.4035 Y15.5310
G01 X49.4469 Y15.3574
G01 X49.4469 Y15.1378
G01 X49.4035 Y14.9643
G01 X49.3650 Y14.8873
G01 X49.3346 Y14.8569
G01 X49.2661 Y14.8227
G01 X49.2063 Y14.8227
G01 X49.1378 Y14.8569
G01 X49.1074 Y14.8873
G01 X49.0689 Y14.9643
G01 X49.0255 Y15.1378
G01 X49.0255 Y15.3574
G01 X49.0689 Y15.5310
G01 X49.1074 Y15.6079
G01 X49.1378 Y15.6383
G01 X49.2063 Y15.6726
G00 Z1.0000
G00 X49.1558 Y15.8151
G01 F76.20
G01 Z-0.3732
G01 F400.00
G01 X49.0598 Y15.7671
G01 X49.0509 Y15.7619
G01 X49.0403 Y15.7531
G01 X48.9927 Y15.7054
G01 X48.9859 Y15.6976
G01 X48.9802 Y15.6890
G01 X48.9292 Y15.5870
G01 X48.9253 Y15.5753
G01 X48.8777 Y15.3849
G01 X48.8758 Y15.3740
G01 X48.8758 Y15.1212
G01 X48.8777 Y15.1104
G01 X48.9277 Y14.9121
G01 X48.9786 Y14.8093
G01 X48.9838 Y14.8004
G01 X48.9903 Y14.7923
G01 X49.0403 Y14.7422
G01 X49.0509 Y14.7334
G01 X49.0598 Y14.7281
G01 X49.1621 Y14.6774
G01 X49.1732 Y14.6742
G01 X49.1847 Y14.6727
G01 X49.2915 Y14.6730
G01 X49.3066 Y14.6761
G01 X49.3174 Y14.6805
G01 X49.4126 Y14.7281
G01 X49.4215 Y14.7334
G01 X49.4296 Y14.7398
G01 X49.4797 Y14.7898
G01 X49.4885 Y14.8004
G01 X49.4938 Y14.8093
G01 X49.5431 Y14.9083
G01 X49.5471 Y14.9199
G01 X49.5947 Y15.1104
G01 X49.5966 Y15.1212
G01 X49.5966 Y15.3740
G01 X49.5947 Y15.3849
G01 X49.5447 Y15.5832
G01 X49.4922 Y15.6890
G01 X49.4865 Y15.6976
G01 X49.4797 Y15.7054
G01 X49.4321 Y15.7531
G01 X49.4215 Y15.7619
G01 X49.4126 Y15.7671
G01 X49.3174 Y15.8147
G01 X49.3066 Y15.8191
G01 X49.2992 Y15.8211
G01 X49.2877 Y15.8226
G01 X49.1869 Y15.8226
G01 X49.1703 Y15.8204
G01 X49.1558 Y15.8151
G00 Z1.0000
G00 X48.9505 Y18.4826
G01 F76.20
G01 Z-0.3732
G01 F400.00
G01 X49.5293 Y18.4829
G01 X49.5401 Y18.4848
G01 X49.5506 Y18.4883
G01 X49.5605 Y18.4933
G01 X49.5695 Y18.4996
G01 X49.5775 Y18.5072
G01 X49.5843 Y18.5159
G01 X49.5912 Y18.5289
G01 X49.5947 Y18.5394
G01 X49.5969 Y18.5539
G01 X49.5961 Y18.5686
G01 X49.5926 Y18.5829
G01 X49.5881 Y18.5930
G01 X49.5799 Y18.6052
G01 X49.5695 Y18.6156
G01 X49.5573 Y18.6238
G01 X49.5437 Y18.6294
G01 X49.5329 Y18.6318
G01 X49.5219 Y18.6327
G01 X49.3112 Y18.6327
G01 X49.3111 Y19.5613
G01 X49.3090 Y19.5759
G01 X49.3055 Y19.5863
G01 X49.3005 Y19.5962
G01 X49.2942 Y19.6052
G01 X49.2866 Y19.6132
G01 X49.2779 Y19.6200
G01 X49.2649 Y19.6270
G01 X49.2544 Y19.6304
G01 X49.2472 Y19.6319
G01 X49.2361 Y19.6327
G01 X49.2288 Y19.6323
G01 X49.2179 Y19.6304
G01 X49.2074 Y19.6269
G01 X49.2008 Y19.6238
G01 X49.1944 Y19.6200
G01 X49.1857 Y19.6132
G01 X49.1805 Y19.6080
G01 X49.1738 Y19.5992
G01 X49.0826 Y19.4626
G01 X49.0013 Y19.3812
G01 X48.9169 Y19.3390
G01 X48.9105 Y19.3354
G01 X48.9016 Y19.3289
G01 X48.8938 Y19.3211
G01 X48.8872 Y19.3122
G01 X48.8820 Y19.3025
G01 X48.8782 Y19.2921
G01 X48.8766 Y19.2849
G01 X48.8755 Y19.2739
G01 X48.8756 Y19.2666
G01 X48.8772 Y19.2557
G01 X48.8804 Y19.2451
G01 X48.8834 Y19.2383
G01 X48.8890 Y19.2289
G01 X48.8935 Y19.2230
G01 X48.9013 Y19.2152
G01 X48.9071 Y19.2107
G01 X48.9133 Y19.2067
G01 X48.9233 Y19.2020
G01 X48.9338 Y19.1987
G01 X48.9411 Y19.1975
G01 X48.9521 Y19.1969
G01 X48.9595 Y19.1974
G01 X48.9703 Y19.1995
G01 X48.9807 Y19.2032
G01 X49.0853 Y19.2558
G01 X49.0988 Y19.2665
G01 X49.1612 Y19.3288
G01 X49.1612 Y18.6327
G01 X48.9468 Y18.6326
G01 X48.9358 Y18.6312
G01 X48.9252 Y18.6283
G01 X48.9151 Y18.6238
G01 X48.9058 Y18.6179
G01 X48.8974 Y18.6107
G01 X48.8902 Y18.6023
G01 X48.8843 Y18.5930
G01 X48.8787 Y18.5794
G01 X48.8763 Y18.5686
G01 X48.8754 Y18.5576
G01 X48.8763 Y18.5466
G01 X48.8787 Y18.5358
G01 X48.8843 Y18.5222
G01 X48.8902 Y18.5129
G01 X48.8974 Y18.5046
G01 X48.9058 Y18.4973
G01 X48.9151 Y18.4914
G01 X48.9287 Y18.4858
G01 X48.9395 Y18.4834
G01 X48.9505 Y18.4826
G00 Z1.0000
G00 X47.9981 Y18.4826
G01 F76.20
G01 Z-0.3732
G01 F400.00
G01 X48.5769 Y18.4829
G01 X48.5878 Y18.4848
G01 X48.5982 Y18.4883
G01 X48.6081 Y18.4933
G01 X48.6171 Y18.4996
G01 X48.6251 Y18.5072
G01 X48.6319 Y18.5159
G01 X48.6388 Y18.5289
G01 X48.6423 Y18.5394
G01 X48.6445 Y18.5539
G01 X48.6437 Y18.5686
G01 X48.6402 Y18.5829
G01 X48.6357 Y18.5930
G01 X48.6275 Y18.6052
G01 X48.6171 Y18.6156
G01 X48.6049 Y18.6238
G01 X48.5913 Y18.6294
G01 X48.5805 Y18.6318
G01 X48.5695 Y18.6327
G01 X48.3588 Y18.6327
G01 X48.3588 Y19.5613
G01 X48.3566 Y19.5759
G01 X48.3531 Y19.5863
G01 X48.3482 Y19.5962
G01 X48.3418 Y19.6052
G01 X48.3342 Y19.6132
G01 X48.3255 Y19.6200
G01 X48.3125 Y19.6270
G01 X48.3020 Y19.6304
G01 X48.2948 Y19.6319
G01 X48.2838 Y19.6327
G01 X48.2764 Y19.6323
G01 X48.2655 Y19.6304
G01 X48.2550 Y19.6269
G01 X48.2484 Y19.6238
G01 X48.2421 Y19.6200
G01 X48.2334 Y19.6132
G01 X48.2282 Y19.6080
G01 X48.2214 Y19.5992
G01 X48.1303 Y19.4626
G01 X48.0489 Y19.3812
G01 X47.9645 Y19.3390
G01 X47.9581 Y19.3354
G01 X47.9492 Y19.3289
G01 X47.9414 Y19.3211
G01 X47.9348 Y19.3122
G01 X47.9296 Y19.3025
G01 X47.9258 Y19.2921
G01 X47.9242 Y19.2849
G01 X47.9231 Y19.2739
G01 X47.9232 Y19.2666
G01 X47.9248 Y19.2557
G01 X47.9280 Y19.2451
G01 X47.9310 Y19.2383
G01 X47.9366 Y19.2289
G01 X47.9411 Y19.2230
G01 X47.9489 Y19.2152
G01 X47.9547 Y19.2107
G01 X47.9609 Y19.2067
G01 X47.9709 Y19.2020
G01 X47.9815 Y19.1987
G01 X47.9887 Y19.1975
G01 X47.9997 Y19.1969
G01 X48.0071 Y19.1974
G01 X48.0179 Y19.1995
G01 X48.0283 Y19.2032
G01 X48.1329 Y19.2558
G01 X48.1464 Y19.2665
G01 X48.2088 Y19.3288
G01 X48.2088 Y18.6327
G01 X47.9944 Y18.6326
G01 X47.9835 Y18.6312
G01 X47.9728 Y18.6283
G01 X47.9627 Y18.6238
G01 X47.9534 Y18.6179
G01 X47.9450 Y18.6107
G01 X47.9378 Y18.6023
G01 X47.9319 Y18.5930
G01 X47.9263 Y18.5794
G01 X47.9239 Y18.5686
G01 X47.9231 Y18.5576
G01 X47.9239 Y18.5466
G01 X47.9263 Y18.5358
G01 X47.9319 Y18.5222
G01 X47.9378 Y18.5129
G01 X47.9450 Y18.5046
G01 X47.9534 Y18.4973
G01 X47.9627 Y18.4914
G01 X47.9763 Y18.4858
G01 X47.9871 Y18.4834
G01 X47.9981 Y18.4826
G00 Z1.0000
G00 X47.1208 Y19.1088
G01 F76.20
G01 Z-0.3732
G01 F400.00
G01 X47.1208 Y19.4826
G01 X47.4090 Y19.4826
G01 X47.4775 Y19.4483
G01 X47.5079 Y19.4179
G01 X47.5421 Y19.3494
G01 X47.5421 Y19.2420
G01 X47.5079 Y19.1735
G01 X47.4775 Y19.1431
G01 X47.4090 Y19.1088
G01 X47.1208 Y19.1088
G00 Z1.0000
G00 X46.9707 Y19.5576
G01 F76.20
G01 Z-0.3732
G01 F400.00
G01 X46.9707 Y18.5576
G01 X46.9715 Y18.5466
G01 X46.9739 Y18.5358
G01 X46.9779 Y18.5255
G01 X46.9833 Y18.5159
G01 X46.9877 Y18.5100
G01 X46.9953 Y18.5020
G01 X47.0010 Y18.4973
G01 X47.0103 Y18.4914
G01 X47.0204 Y18.4870
G01 X47.0275 Y18.4848
G01 X47.0384 Y18.4829
G01 X47.0494 Y18.4827
G01 X47.0567 Y18.4834
G01 X47.0675 Y18.4858
G01 X47.0744 Y18.4883
G01 X47.0843 Y18.4933
G01 X47.0933 Y18.4996
G01 X47.0988 Y18.5046
G01 X47.1060 Y18.5129
G01 X47.1101 Y18.5190
G01 X47.1150 Y18.5289
G01 X47.1185 Y18.5394
G01 X47.1199 Y18.5466
G01 X47.1208 Y18.5576
G01 X47.1208 Y18.9588
G01 X47.2447 Y18.9588
G01 X47.5602 Y18.5088
G01 X47.5708 Y18.4986
G01 X47.5800 Y18.4924
G01 X47.5934 Y18.4864
G01 X47.6077 Y18.4832
G01 X47.6188 Y18.4826
G01 X47.6334 Y18.4844
G01 X47.6439 Y18.4875
G01 X47.6571 Y18.4941
G01 X47.6687 Y18.5031
G01 X47.6784 Y18.5142
G01 X47.6841 Y18.5237
G01 X47.6894 Y18.5374
G01 X47.6920 Y18.5519
G01 X47.6920 Y18.5629
G01 X47.6895 Y18.5774
G01 X47.6843 Y18.5912
G01 X47.6786 Y18.6007
G01 X47.4279 Y18.9588
G01 X47.4420 Y18.9604
G01 X47.4567 Y18.9651
G01 X47.5555 Y19.0143
G01 X47.5644 Y19.0196
G01 X47.5725 Y19.0260
G01 X47.6226 Y19.0760
G01 X47.6314 Y19.0866
G01 X47.6366 Y19.0955
G01 X47.6874 Y19.1978
G01 X47.6906 Y19.2089
G01 X47.6922 Y19.2243
G01 X47.6922 Y19.3671
G01 X47.6913 Y19.3787
G01 X47.6886 Y19.3900
G01 X47.6843 Y19.4007
G01 X47.6333 Y19.5020
G01 X47.6226 Y19.5154
G01 X47.5750 Y19.5631
G01 X47.5644 Y19.5719
G01 X47.5555 Y19.5771
G01 X47.4567 Y19.6264
G01 X47.4458 Y19.6302
G01 X47.4344 Y19.6323
G01 X47.0457 Y19.6327
G01 X47.0347 Y19.6318
G01 X47.0204 Y19.6283
G01 X47.0071 Y19.6220
G01 X46.9981 Y19.6156
G01 X46.9877 Y19.6052
G01 X46.9814 Y19.5962
G01 X46.9751 Y19.5829
G01 X46.9721 Y19.5723
G01 X46.9707 Y19.5576
G00 Z1.0000
G00 X44.9300 Y20.4200
G01 F76.20
G01 Z-0.3732
G01 F400.00
G01 X44.9300 Y20.0900
G01 X44.9306 Y20.0812
G01 X44.9326 Y20.0726
G01 X44.9371 Y20.0617
G01 X44.9418 Y20.0542
G01 X44.9497 Y20.0455
G01 X44.9591 Y20.0385
G01 X44.9670 Y20.0345
G01 X44.9783 Y20.0311
G01 X44.9871 Y20.0300
G01 X44.9988 Y20.0306
G01 X45.0074 Y20.0326
G01 X45.0183 Y20.0371
G01 X45.0281 Y20.0436
G01 X45.0345 Y20.0497
G01 X45.0415 Y20.0591
G01 X45.0465 Y20.0698
G01 X45.0489 Y20.0783
G01 X45.0500 Y20.0900
G01 X45.0500 Y20.3600
G01 X51.4700 Y20.3600
G01 X51.4700 Y20.0900
G01 X51.4711 Y20.0783
G01 X51.4745 Y20.0670
G01 X51.4785 Y20.0591
G01 X51.4855 Y20.0497
G01 X51.4919 Y20.0436
G01 X51.5017 Y20.0371
G01 X51.5098 Y20.0335
G01 X51.5212 Y20.0306
G01 X51.5300 Y20.0300
G01 X51.5388 Y20.0306
G01 X51.5502 Y20.0335
G01 X51.5583 Y20.0371
G01 X51.5681 Y20.0436
G01 X51.5745 Y20.0497
G01 X51.5815 Y20.0591
G01 X51.5855 Y20.0670
G01 X51.5882 Y20.0754
G01 X51.5900 Y20.0871
G01 X51.5900 Y20.4200
G01 X51.5894 Y20.4288
G01 X51.5874 Y20.4374
G01 X51.5829 Y20.4483
G01 X51.5782 Y20.4558
G01 X51.5703 Y20.4645
G01 X51.5609 Y20.4715
G01 X51.5530 Y20.4755
G01 X51.5417 Y20.4789
G01 X51.5329 Y20.4800
G01 X44.9900 Y20.4800
G01 X44.9783 Y20.4789
G01 X44.9670 Y20.4755
G01 X44.9566 Y20.4699
G01 X44.9476 Y20.4624
G01 X44.9401 Y20.4534
G01 X44.9345 Y20.4430
G01 X44.9311 Y20.4317
G01 X44.9300 Y20.4200
G00 Z1.0000
G00 X44.9300 Y22.7600
G01 F76.20
G01 Z-0.3732
G01 F400.00
G01 X44.9311 Y22.7483
G01 X44.9345 Y22.7370
G01 X44.9401 Y22.7266
G01 X44.9476 Y22.7176
G01 X44.9566 Y22.7101
G01 X44.9670 Y22.7045
G01 X44.9783 Y22.7011
G01 X44.9900 Y22.7000
G01 X51.5329 Y22.7000
G01 X51.5417 Y22.7011
G01 X51.5530 Y22.7045
G01 X51.5609 Y22.7085
G01 X51.5703 Y22.7155
G01 X51.5782 Y22.7242
G01 X51.5829 Y22.7317
G01 X51.5874 Y22.7426
G01 X51.5894 Y22.7512
G01 X51.5900 Y22.7600
G01 X51.5900 Y23.0929
G01 X51.5882 Y23.1046
G01 X51.5855 Y23.1130
G01 X51.5815 Y23.1209
G01 X51.5745 Y23.1303
G01 X51.5681 Y23.1364
G01 X51.5583 Y23.1429
G01 X51.5502 Y23.1465
G01 X51.5388 Y23.1494
G01 X51.5300 Y23.1500
G01 X51.5212 Y23.1494
G01 X51.5098 Y23.1465
G01 X51.5017 Y23.1429
G01 X51.4919 Y23.1364
G01 X51.4855 Y23.1303
G01 X51.4785 Y23.1209
G01 X51.4745 Y23.1130
G01 X51.4711 Y23.1017
G01 X51.4700 Y23.0900
G01 X51.4700 Y22.8200
G01 X45.0500 Y22.8200
G01 X45.0500 Y23.0900
G01 X45.0489 Y23.1017
G01 X45.0465 Y23.1102
G01 X45.0415 Y23.1209
G01 X45.0345 Y23.1303
G01 X45.0281 Y23.1364
G01 X45.0183 Y23.1429
G01 X45.0074 Y23.1474
G01 X44.9988 Y23.1494
G01 X44.9871 Y23.1500
G01 X44.9783 Y23.1489
G01 X44.9670 Y23.1455
G01 X44.9591 Y23.1415
G01 X44.9497 Y23.1345
G01 X44.9418 Y23.1258
G01 X44.9371 Y23.1183
G01 X44.9326 Y23.1074
G01 X44.9306 Y23.0988
G01 X44.9300 Y23.0900
G01 X44.9300 Y22.7600
G00 Z1.0000
G00 X44.9300 Y25.5000
G01 F76.20
G01 Z-0.3732
G01 F400.00
G01 X44.9300 Y25.1700
G01 X44.9306 Y25.1612
G01 X44.9326 Y25.1526
G01 X44.9371 Y25.1417
G01 X44.9418 Y25.1342
G01 X44.9497 Y25.1255
G01 X44.9591 Y25.1185
G01 X44.9670 Y25.1145
G01 X44.9783 Y25.1111
G01 X44.9871 Y25.1100
G01 X44.9988 Y25.1106
G01 X45.0074 Y25.1126
G01 X45.0183 Y25.1171
G01 X45.0281 Y25.1236
G01 X45.0345 Y25.1297
G01 X45.0415 Y25.1391
G01 X45.0465 Y25.1498
G01 X45.0489 Y25.1583
G01 X45.0500 Y25.1700
G01 X45.0500 Y25.4400
G01 X51.4700 Y25.4400
G01 X51.4700 Y25.1700
G01 X51.4711 Y25.1583
G01 X51.4745 Y25.1470
G01 X51.4785 Y25.1391
G01 X51.4855 Y25.1297
G01 X51.4919 Y25.1236
G01 X51.5017 Y25.1171
G01 X51.5098 Y25.1135
G01 X51.5212 Y25.1106
G01 X51.5300 Y25.1100
G01 X51.5388 Y25.1106
G01 X51.5502 Y25.1135
G01 X51.5583 Y25.1171
G01 X51.5681 Y25.1236
G01 X51.5745 Y25.1297
G01 X51.5815 Y25.1391
G01 X51.5855 Y25.1470
G01 X51.5882 Y25.1554
G01 X51.5900 Y25.1671
G01 X51.5900 Y25.5000
G01 X51.5894 Y25.5088
G01 X51.5874 Y25.5174
G01 X51.5829 Y25.5283
G01 X51.5782 Y25.5358
G01 X51.5703 Y25.5445
G01 X51.5609 Y25.5515
G01 X51.5530 Y25.5555
G01 X51.5417 Y25.5589
G01 X51.5329 Y25.5600
G01 X44.9900 Y25.5600
G01 X44.9783 Y25.5589
G01 X44.9670 Y25.5555
G01 X44.9566 Y25.5499
G01 X44.9476 Y25.5424
G01 X44.9401 Y25.5334
G01 X44.9345 Y25.5230
G01 X44.9311 Y25.5117
G01 X44.9300 Y25.5000
G00 Z1.0000
G00 X47.3389 Y24.6376
G01 F76.20
G01 Z-0.3732
G01 F400.00
G01 X47.3389 Y23.6376
G01 X47.3397 Y23.6266
G01 X47.3421 Y23.6158
G01 X47.3461 Y23.6055
G01 X47.3515 Y23.5959
G01 X47.3559 Y23.5900
G01 X47.3635 Y23.5820
G01 X47.3692 Y23.5773
G01 X47.3785 Y23.5714
G01 X47.3886 Y23.5670
G01 X47.3957 Y23.5648
G01 X47.4065 Y23.5629
G01 X47.4176 Y23.5627
G01 X47.4249 Y23.5634
G01 X47.4357 Y23.5658
G01 X47.4426 Y23.5683
G01 X47.4525 Y23.5733
G01 X47.4615 Y23.5796
G01 X47.4670 Y23.5846
G01 X47.4742 Y23.5929
G01 X47.4783 Y23.5990
G01 X47.4832 Y23.6089
G01 X47.4867 Y23.6194
G01 X47.4881 Y23.6266
G01 X47.4889 Y23.6376
G01 X47.4889 Y24.0388
G01 X47.6129 Y24.0388
G01 X47.9284 Y23.5888
G01 X47.9390 Y23.5786
G01 X47.9482 Y23.5724
G01 X47.9616 Y23.5664
G01 X47.9759 Y23.5632
G01 X47.9870 Y23.5626
G01 X48.0016 Y23.5644
G01 X48.0121 Y23.5675
G01 X48.0253 Y23.5741
G01 X48.0369 Y23.5831
G01 X48.0466 Y23.5942
G01 X48.0523 Y23.6037
G01 X48.0576 Y23.6174
G01 X48.0602 Y23.6319
G01 X48.0602 Y23.6429
G01 X48.0577 Y23.6574
G01 X48.0525 Y23.6712
G01 X48.0468 Y23.6807
G01 X47.7961 Y24.0388
G01 X47.8102 Y24.0404
G01 X47.8249 Y24.0451
G01 X47.9237 Y24.0943
G01 X47.9326 Y24.0996
G01 X47.9407 Y24.1060
G01 X47.9908 Y24.1560
G01 X47.9996 Y24.1666
G01 X48.0048 Y24.1755
G01 X48.0555 Y24.2778
G01 X48.0588 Y24.2889
G01 X48.0604 Y24.3043
G01 X48.0604 Y24.4471
G01 X48.0595 Y24.4587
G01 X48.0568 Y24.4700
G01 X48.0524 Y24.4807
G01 X48.0015 Y24.5820
G01 X47.9908 Y24.5954
G01 X47.9432 Y24.6431
G01 X47.9326 Y24.6519
G01 X47.9237 Y24.6571
G01 X47.8249 Y24.7064
G01 X47.8140 Y24.7102
G01 X47.8026 Y24.7123
G01 X47.4139 Y24.7127
G01 X47.4029 Y24.7118
G01 X47.3886 Y24.7083
G01 X47.3753 Y24.7020
G01 X47.3663 Y24.6956
G01 X47.3559 Y24.6852
G01 X47.3495 Y24.6762
G01 X47.3433 Y24.6629
G01 X47.3403 Y24.6523
G01 X47.3389 Y24.6376
G00 Z1.0000
G00 X47.4889 Y24.1888
G01 F76.20
G01 Z-0.3732
G01 F400.00
G01 X47.4889 Y24.5626
G01 X47.7771 Y24.5626
G01 X47.8456 Y24.5283
G01 X47.8760 Y24.4979
G01 X47.9103 Y24.4294
G01 X47.9103 Y24.3220
G01 X47.8760 Y24.2535
G01 X47.8456 Y24.2231
G01 X47.7771 Y24.1888
G01 X47.4889 Y24.1888
G00 Z1.0000
G00 X48.6343 Y23.7127
G01 F76.20
G01 Z-0.3732
G01 F400.00
G01 X48.4578 Y23.7126
G01 X48.4433 Y23.7104
G01 X48.4328 Y23.7069
G01 X48.4198 Y23.7000
G01 X48.4085 Y23.6907
G01 X48.3991 Y23.6793
G01 X48.3922 Y23.6663
G01 X48.3879 Y23.6523
G01 X48.3865 Y23.6376
G01 X48.3879 Y23.6230
G01 X48.3922 Y23.6089
G01 X48.3953 Y23.6022
G01 X48.4013 Y23.5929
G01 X48.4059 Y23.5872
G01 X48.4139 Y23.5796
G01 X48.4198 Y23.5752
G01 X48.4294 Y23.5698
G01 X48.4397 Y23.5658
G01 X48.4469 Y23.5640
G01 X48.4615 Y23.5626
G01 X48.6559 Y23.5627
G01 X48.6674 Y23.5642
G01 X48.6821 Y23.5689
G01 X48.7808 Y23.6181
G01 X48.7925 Y23.6254
G01 X48.8003 Y23.6322
G01 X48.8479 Y23.6798
G01 X48.8552 Y23.6882
G01 X48.9563 Y23.8404
G01 X48.9608 Y23.8505
G01 X48.9629 Y23.8575
G01 X49.0105 Y24.0480
G01 X49.0124 Y24.0588
G01 X49.0128 Y24.4471
G01 X49.0112 Y24.4625
G01 X49.0079 Y24.4736
G01 X48.9572 Y24.5759
G01 X48.9520 Y24.5848
G01 X48.9432 Y24.5954
G01 X48.8930 Y24.6454
G01 X48.8849 Y24.6519
G01 X48.8760 Y24.6571
G01 X48.7808 Y24.7047
G01 X48.7701 Y24.7091
G01 X48.7550 Y24.7123
G01 X48.5568 Y24.7127
G01 X48.5452 Y24.7118
G01 X48.5339 Y24.7091
G01 X48.5267 Y24.7064
G01 X48.4249 Y24.6555
G01 X48.4163 Y24.6498
G01 X48.4085 Y24.6431
G01 X48.3608 Y24.5954
G01 X48.3520 Y24.5848
G01 X48.3468 Y24.5759
G01 X48.2975 Y24.4772
G01 X48.2937 Y24.4663
G01 X48.2916 Y24.4549
G01 X48.2912 Y24.2090
G01 X48.2921 Y24.1975
G01 X48.2937 Y24.1899
G01 X48.2992 Y24.1755
G01 X48.3468 Y24.0803
G01 X48.3520 Y24.0713
G01 X48.3608 Y24.0608
G01 X48.4136 Y24.0085
G01 X48.4280 Y23.9991
G01 X48.5267 Y23.9498
G01 X48.5376 Y23.9460
G01 X48.5529 Y23.9436
G01 X48.7550 Y23.9439
G01 X48.7664 Y23.9460
G01 X48.7773 Y23.9498
G01 X48.8390 Y23.9805
G01 X48.8205 Y23.9065
G01 X48.7365 Y23.7807
G01 X48.7028 Y23.7469
G01 X48.6343 Y23.7127
G00 Z1.0000
G00 X48.8627 Y24.2268
G01 F76.20
G01 Z-0.3732
G01 F400.00
G01 X48.8284 Y24.1583
G01 X48.7980 Y24.1279
G01 X48.7295 Y24.0936
G01 X48.5745 Y24.0936
G01 X48.5060 Y24.1279
G01 X48.4756 Y24.1583
G01 X48.4413 Y24.2268
G01 X48.4413 Y24.4294
G01 X48.4756 Y24.4979
G01 X48.5060 Y24.5283
G01 X48.5745 Y24.5626
G01 X48.7295 Y24.5626
G01 X48.7980 Y24.5283
G01 X48.8284 Y24.4979
G01 X48.8627 Y24.4294
G01 X48.8627 Y24.2268
G00 Z1.0000
G00 X41.6800 Y23.5300
G01 F76.20
G01 Z-0.3732
G01 F400.00
G01 X41.9500 Y23.5300
G01 X41.9500 Y17.1100
G01 X41.6800 Y17.1100
G01 X41.6683 Y17.1089
G01 X41.6598 Y17.1065
G01 X41.6491 Y17.1015
G01 X41.6397 Y17.0945
G01 X41.6336 Y17.0881
G01 X41.6271 Y17.0783
G01 X41.6226 Y17.0674
G01 X41.6206 Y17.0588
G01 X41.6200 Y17.0471
G01 X41.6218 Y17.0354
G01 X41.6245 Y17.0270
G01 X41.6285 Y17.0191
G01 X41.6355 Y17.0097
G01 X41.6419 Y17.0036
G01 X41.6517 Y16.9971
G01 X41.6598 Y16.9935
G01 X41.6712 Y16.9906
G01 X41.6800 Y16.9900
G01 X42.0129 Y16.9900
G01 X42.0246 Y16.9918
G01 X42.0357 Y16.9957
G01 X42.0458 Y17.0018
G01 X42.0545 Y17.0097
G01 X42.0599 Y17.0166
G01 X42.0655 Y17.0270
G01 X42.0689 Y17.0383
G01 X42.0700 Y17.0500
G01 X42.0700 Y23.5900
G01 X42.0689 Y23.6017
G01 X42.0665 Y23.6102
G01 X42.0629 Y23.6183
G01 X42.0564 Y23.6281
G01 X42.0503 Y23.6345
G01 X42.0434 Y23.6399
G01 X42.0357 Y23.6443
G01 X42.0246 Y23.6482
G01 X42.0159 Y23.6497
G01 X41.6800 Y23.6500
G01 X41.6683 Y23.6489
G01 X41.6570 Y23.6455
G01 X41.6466 Y23.6399
G01 X41.6376 Y23.6324
G01 X41.6318 Y23.6258
G01 X41.6257 Y23.6157
G01 X41.6218 Y23.6046
G01 X41.6203 Y23.5959
G01 X41.6203 Y23.5841
G01 X41.6226 Y23.5726
G01 X41.6257 Y23.5643
G01 X41.6318 Y23.5542
G01 X41.6397 Y23.5455
G01 X41.6491 Y23.5385
G01 X41.6570 Y23.5345
G01 X41.6683 Y23.5311
G01 X41.6800 Y23.5300
G00 Z1.0000
G00 X39.2100 Y23.5900
G01 F76.20
G01 Z-0.3732
G01 F400.00
G01 X39.2100 Y17.0471
G01 X39.2118 Y17.0354
G01 X39.2145 Y17.0270
G01 X39.2185 Y17.0191
G01 X39.2255 Y17.0097
G01 X39.2319 Y17.0036
G01 X39.2417 Y16.9971
G01 X39.2498 Y16.9935
G01 X39.2612 Y16.9906
G01 X39.2700 Y16.9900
G01 X39.6029 Y16.9900
G01 X39.6117 Y16.9911
G01 X39.6230 Y16.9945
G01 X39.6309 Y16.9985
G01 X39.6403 Y17.0055
G01 X39.6464 Y17.0119
G01 X39.6529 Y17.0217
G01 X39.6565 Y17.0298
G01 X39.6589 Y17.0383
G01 X39.6600 Y17.0471
G01 X39.6594 Y17.0588
G01 X39.6574 Y17.0674
G01 X39.6529 Y17.0783
G01 X39.6482 Y17.0858
G01 X39.6403 Y17.0945
G01 X39.6334 Y17.0999
G01 X39.6230 Y17.1055
G01 X39.6117 Y17.1089
G01 X39.6000 Y17.1100
G01 X39.3300 Y17.1100
G01 X39.3300 Y23.5300
G01 X39.6000 Y23.5300
G01 X39.6117 Y23.5311
G01 X39.6202 Y23.5335
G01 X39.6309 Y23.5385
G01 X39.6403 Y23.5455
G01 X39.6464 Y23.5519
G01 X39.6529 Y23.5617
G01 X39.6574 Y23.5726
G01 X39.6594 Y23.5812
G01 X39.6600 Y23.5929
G01 X39.6582 Y23.6046
G01 X39.6555 Y23.6130
G01 X39.6515 Y23.6209
G01 X39.6445 Y23.6303
G01 X39.6381 Y23.6364
G01 X39.6283 Y23.6429
G01 X39.6202 Y23.6465
G01 X39.6088 Y23.6494
G01 X39.6000 Y23.6500
G01 X39.2700 Y23.6500
G01 X39.2583 Y23.6489
G01 X39.2470 Y23.6455
G01 X39.2366 Y23.6399
G01 X39.2276 Y23.6324
G01 X39.2201 Y23.6234
G01 X39.2145 Y23.6130
G01 X39.2111 Y23.6017
G01 X39.2100 Y23.5900
G00 Z1.0000
G00 X40.4880 Y20.8975
G01 F76.20
G01 Z-0.3732
G01 F400.00
G01 X40.5222 Y20.9660
G01 X40.5526 Y20.9964
G01 X40.6211 Y21.0307
G01 X40.7762 Y21.0307
G01 X40.8447 Y20.9964
G01 X40.8751 Y20.9660
G01 X40.9093 Y20.8975
G01 X40.9093 Y20.7425
G01 X40.8751 Y20.6740
G01 X40.8447 Y20.6436
G01 X40.7762 Y20.6093
G01 X40.6211 Y20.6093
G01 X40.5526 Y20.6436
G01 X40.5222 Y20.6740
G01 X40.4880 Y20.7425
G01 X40.4880 Y20.8975
G00 Z1.0000
G00 X40.3379 Y20.7425
G01 F76.20
G01 Z-0.3732
G01 F400.00
G01 X40.3037 Y20.6740
G01 X40.2733 Y20.6436
G01 X40.2048 Y20.6093
G01 X40.1926 Y20.6093
G01 X40.1241 Y20.6436
G01 X40.0937 Y20.6740
G01 X40.0594 Y20.7425
G01 X40.0594 Y20.8975
G01 X40.0937 Y20.9660
G01 X40.1241 Y20.9964
G01 X40.1926 Y21.0307
G01 X40.2048 Y21.0307
G01 X40.2733 Y20.9964
G01 X40.3037 Y20.9660
G01 X40.3379 Y20.8975
G01 X40.3379 Y20.7425
G00 Z1.0000
G00 X40.4130 Y20.5710
G01 F76.20
G01 Z-0.3732
G01 F400.00
G01 X40.4576 Y20.5265
G01 X40.4686 Y20.5182
G01 X40.5734 Y20.4655
G01 X40.5843 Y20.4617
G01 X40.5957 Y20.4596
G01 X40.7939 Y20.4592
G01 X40.8093 Y20.4608
G01 X40.8167 Y20.4628
G01 X40.8275 Y20.4672
G01 X40.9227 Y20.5148
G01 X40.9371 Y20.5242
G01 X40.9898 Y20.5765
G01 X41.0005 Y20.5899
G01 X41.0531 Y20.6947
G01 X41.0569 Y20.7056
G01 X41.0590 Y20.7170
G01 X41.0594 Y20.9152
G01 X41.0578 Y20.9306
G01 X41.0559 Y20.9381
G01 X41.0515 Y20.9488
G01 X41.0039 Y21.0440
G01 X40.9945 Y21.0584
G01 X40.9422 Y21.1112
G01 X40.9287 Y21.1218
G01 X40.8240 Y21.1745
G01 X40.8130 Y21.1783
G01 X40.7978 Y21.1807
G01 X40.6034 Y21.1808
G01 X40.5919 Y21.1799
G01 X40.5843 Y21.1783
G01 X40.5699 Y21.1728
G01 X40.4686 Y21.1218
G01 X40.4576 Y21.1135
G01 X40.4130 Y21.0690
G01 X40.3683 Y21.1135
G01 X40.3573 Y21.1218
G01 X40.2525 Y21.1745
G01 X40.2416 Y21.1783
G01 X40.2302 Y21.1804
G01 X40.1710 Y21.1807
G01 X40.1633 Y21.1799
G01 X40.1520 Y21.1772
G01 X40.1413 Y21.1728
G01 X40.0461 Y21.1252
G01 X40.0317 Y21.1158
G01 X39.9789 Y21.0635
G01 X39.9682 Y21.0501
G01 X39.9156 Y20.9453
G01 X39.9118 Y20.9344
G01 X39.9097 Y20.9230
G01 X39.9093 Y20.7248
G01 X39.9102 Y20.7132
G01 X39.9129 Y20.7019
G01 X39.9173 Y20.6912
G01 X39.9649 Y20.5960
G01 X39.9701 Y20.5871
G01 X39.9789 Y20.5765
G01 X40.0266 Y20.5288
G01 X40.0400 Y20.5182
G01 X40.1448 Y20.4655
G01 X40.1595 Y20.4608
G01 X40.1710 Y20.4593
G01 X40.2263 Y20.4593
G01 X40.2416 Y20.4617
G01 X40.2525 Y20.4655
G01 X40.3513 Y20.5148
G01 X40.3602 Y20.5200
G01 X40.3708 Y20.5288
G01 X40.4130 Y20.5710
G00 Z1.0000
G00 X40.4332 Y19.6569
G01 F76.20
G01 Z-0.3732
G01 F400.00
G01 X40.0594 Y19.6569
G01 X40.0594 Y19.9451
G01 X40.0937 Y20.0136
G01 X40.1241 Y20.0440
G01 X40.1926 Y20.0783
G01 X40.3000 Y20.0783
G01 X40.3685 Y20.0440
G01 X40.3989 Y20.0136
G01 X40.4332 Y19.9451
G01 X40.4332 Y19.6569
G00 Z1.0000
G00 X39.9844 Y19.5069
G01 F76.20
G01 Z-0.3732
G01 F400.00
G01 X40.9844 Y19.5069
G01 X40.9954 Y19.5077
G01 X41.0062 Y19.5101
G01 X41.0165 Y19.5141
G01 X41.0261 Y19.5195
G01 X41.0348 Y19.5263
G01 X41.0400 Y19.5315
G01 X41.0468 Y19.5402
G01 X41.0506 Y19.5465
G01 X41.0550 Y19.5566
G01 X41.0580 Y19.5673
G01 X41.0591 Y19.5746
G01 X41.0593 Y19.5856
G01 X41.0580 Y19.5965
G01 X41.0562 Y19.6037
G01 X41.0522 Y19.6140
G01 X41.0487 Y19.6205
G01 X41.0447 Y19.6266
G01 X41.0374 Y19.6350
G01 X41.0320 Y19.6399
G01 X41.0230 Y19.6463
G01 X41.0131 Y19.6512
G01 X41.0026 Y19.6547
G01 X40.9954 Y19.6561
G01 X40.9844 Y19.6569
G01 X40.5832 Y19.6569
G01 X40.5832 Y19.7809
G01 X41.0332 Y20.0964
G01 X41.0434 Y20.1070
G01 X41.0513 Y20.1194
G01 X41.0556 Y20.1296
G01 X41.0588 Y20.1439
G01 X41.0594 Y20.1550
G01 X41.0576 Y20.1696
G01 X41.0545 Y20.1801
G01 X41.0479 Y20.1933
G01 X41.0389 Y20.2049
G01 X41.0278 Y20.2146
G01 X41.0183 Y20.2203
G01 X41.0046 Y20.2256
G01 X40.9901 Y20.2282
G01 X40.9791 Y20.2282
G01 X40.9646 Y20.2257
G01 X40.9508 Y20.2205
G01 X40.9413 Y20.2148
G01 X40.5832 Y19.9641
G01 X40.5816 Y19.9782
G01 X40.5769 Y19.9929
G01 X40.5277 Y20.0917
G01 X40.5224 Y20.1006
G01 X40.5160 Y20.1087
G01 X40.4660 Y20.1588
G01 X40.4554 Y20.1676
G01 X40.4465 Y20.1728
G01 X40.3442 Y20.2235
G01 X40.3331 Y20.2268
G01 X40.3177 Y20.2284
G01 X40.1749 Y20.2284
G01 X40.1633 Y20.2275
G01 X40.1520 Y20.2248
G01 X40.1413 Y20.2204
G01 X40.0400 Y20.1695
G01 X40.0266 Y20.1588
G01 X39.9789 Y20.1112
G01 X39.9701 Y20.1006
G01 X39.9649 Y20.0917
G01 X39.9156 Y19.9929
G01 X39.9118 Y19.9820
G01 X39.9097 Y19.9706
G01 X39.9093 Y19.5819
G01 X39.9102 Y19.5709
G01 X39.9137 Y19.5566
G01 X39.9200 Y19.5433
G01 X39.9264 Y19.5343
G01 X39.9368 Y19.5239
G01 X39.9458 Y19.5175
G01 X39.9591 Y19.5113
G01 X39.9734 Y19.5077
G01 X39.9844 Y19.5069
G00 Z1.0000
G00 X44.9300 Y17.6800
G01 F76.20
G01 Z-0.3732
G01 F400.00
G01 X44.9311 Y17.6683
G01 X44.9345 Y17.6570
G01 X44.9401 Y17.6466
G01 X44.9476 Y17.6376
G01 X44.9566 Y17.6301
G01 X44.9670 Y17.6245
G01 X44.9783 Y17.6211
G01 X44.9900 Y17.6200
G01 X51.5329 Y17.6200
G01 X51.5417 Y17.6211
G01 X51.5530 Y17.6245
G01 X51.5609 Y17.6285
G01 X51.5703 Y17.6355
G01 X51.5782 Y17.6442
G01 X51.5829 Y17.6517
G01 X51.5874 Y17.6626
G01 X51.5894 Y17.6712
G01 X51.5900 Y17.6800
G01 X51.5900 Y18.0129
G01 X51.5882 Y18.0246
G01 X51.5855 Y18.0330
G01 X51.5815 Y18.0409
G01 X51.5745 Y18.0503
G01 X51.5681 Y18.0564
G01 X51.5583 Y18.0629
G01 X51.5502 Y18.0665
G01 X51.5388 Y18.0694
G01 X51.5300 Y18.0700
G01 X51.5212 Y18.0694
G01 X51.5098 Y18.0665
G01 X51.5017 Y18.0629
G01 X51.4919 Y18.0564
G01 X51.4855 Y18.0503
G01 X51.4785 Y18.0409
G01 X51.4745 Y18.0330
G01 X51.4711 Y18.0217
G01 X51.4700 Y18.0100
G01 X51.4700 Y17.7400
G01 X45.0500 Y17.7400
G01 X45.0500 Y18.0100
G01 X45.0489 Y18.0217
G01 X45.0465 Y18.0302
G01 X45.0415 Y18.0409
G01 X45.0345 Y18.0503
G01 X45.0281 Y18.0564
G01 X45.0183 Y18.0629
G01 X45.0074 Y18.0674
G01 X44.9988 Y18.0694
G01 X44.9871 Y18.0700
G01 X44.9783 Y18.0689
G01 X44.9670 Y18.0655
G01 X44.9591 Y18.0615
G01 X44.9497 Y18.0545
G01 X44.9418 Y18.0458
G01 X44.9371 Y18.0383
G01 X44.9326 Y18.0274
G01 X44.9306 Y18.0188
G01 X44.9300 Y18.0100
G01 X44.9300 Y17.6800
G00 Z1.0000
G00 X44.9300 Y16.6100
G01 F76.20
G01 Z-0.3732
G01 F400.00
G01 X44.9300 Y16.2800
G01 X44.9306 Y16.2712
G01 X44.9326 Y16.2626
G01 X44.9371 Y16.2517
G01 X44.9418 Y16.2442
G01 X44.9497 Y16.2355
G01 X44.9591 Y16.2285
G01 X44.9670 Y16.2245
G01 X44.9783 Y16.2211
G01 X44.9871 Y16.2200
G01 X44.9988 Y16.2206
G01 X45.0074 Y16.2226
G01 X45.0183 Y16.2271
G01 X45.0281 Y16.2336
G01 X45.0345 Y16.2397
G01 X45.0415 Y16.2491
G01 X45.0465 Y16.2598
G01 X45.0489 Y16.2683
G01 X45.0500 Y16.2800
G01 X45.0500 Y16.5500
G01 X51.4700 Y16.5500
G01 X51.4700 Y16.2800
G01 X51.4711 Y16.2683
G01 X51.4745 Y16.2570
G01 X51.4785 Y16.2491
G01 X51.4855 Y16.2397
G01 X51.4919 Y16.2336
G01 X51.5017 Y16.2271
G01 X51.5098 Y16.2235
G01 X51.5212 Y16.2206
G01 X51.5300 Y16.2200
G01 X51.5388 Y16.2206
G01 X51.5502 Y16.2235
G01 X51.5583 Y16.2271
G01 X51.5681 Y16.2336
G01 X51.5745 Y16.2397
G01 X51.5815 Y16.2491
G01 X51.5855 Y16.2570
G01 X51.5882 Y16.2654
G01 X51.5900 Y16.2771
G01 X51.5900 Y16.6100
G01 X51.5894 Y16.6188
G01 X51.5874 Y16.6274
G01 X51.5829 Y16.6383
G01 X51.5782 Y16.6458
G01 X51.5703 Y16.6545
G01 X51.5609 Y16.6615
G01 X51.5530 Y16.6655
G01 X51.5417 Y16.6689
G01 X51.5329 Y16.6700
G01 X44.9900 Y16.6700
G01 X44.9783 Y16.6689
G01 X44.9670 Y16.6655
G01 X44.9566 Y16.6599
G01 X44.9476 Y16.6524
G01 X44.9401 Y16.6434
G01 X44.9345 Y16.6330
G01 X44.9311 Y16.6217
G01 X44.9300 Y16.6100
G00 Z1.0000
G00 X37.3100 Y10.0600
G01 F76.20
G01 Z-0.3732
G01 F400.00
G01 X37.3111 Y10.0483
G01 X37.3145 Y10.0370
G01 X37.3201 Y10.0266
G01 X37.3276 Y10.0176
G01 X37.3366 Y10.0101
G01 X37.3470 Y10.0045
G01 X37.3583 Y10.0011
G01 X37.3700 Y10.0000
G01 X43.9129 Y10.0000
G01 X43.9246 Y10.0018
G01 X43.9330 Y10.0045
G01 X43.9409 Y10.0085
G01 X43.9503 Y10.0155
G01 X43.9564 Y10.0219
G01 X43.9629 Y10.0317
G01 X43.9665 Y10.0398
G01 X43.9694 Y10.0512
G01 X43.9700 Y10.0600
G01 X43.9700 Y10.3929
G01 X43.9682 Y10.4046
G01 X43.9655 Y10.4130
G01 X43.9615 Y10.4209
G01 X43.9545 Y10.4303
G01 X43.9481 Y10.4364
G01 X43.9383 Y10.4429
G01 X43.9302 Y10.4465
G01 X43.9188 Y10.4494
G01 X43.9100 Y10.4500
G01 X43.9012 Y10.4494
G01 X43.8898 Y10.4465
G01 X43.8817 Y10.4429
G01 X43.8719 Y10.4364
G01 X43.8655 Y10.4303
G01 X43.8585 Y10.4209
G01 X43.8545 Y10.4130
G01 X43.8511 Y10.4017
G01 X43.8500 Y10.3900
G01 X43.8500 Y10.1200
G01 X37.4300 Y10.1200
G01 X37.4300 Y10.3900
G01 X37.4289 Y10.4017
G01 X37.4265 Y10.4102
G01 X37.4215 Y10.4209
G01 X37.4145 Y10.4303
G01 X37.4081 Y10.4364
G01 X37.3983 Y10.4429
G01 X37.3874 Y10.4474
G01 X37.3788 Y10.4494
G01 X37.3671 Y10.4500
G01 X37.3554 Y10.4482
G01 X37.3470 Y10.4455
G01 X37.3391 Y10.4415
G01 X37.3297 Y10.4345
G01 X37.3236 Y10.4281
G01 X37.3171 Y10.4183
G01 X37.3135 Y10.4102
G01 X37.3106 Y10.3988
G01 X37.3100 Y10.3900
G01 X37.3100 Y10.0600
G00 Z1.0000
G00 X35.7196 Y6.7740
G01 F76.20
G01 Z-0.3732
G01 F400.00
G01 X35.9267 Y7.3966
G01 X35.9286 Y7.4112
G01 X35.9275 Y7.4259
G01 X35.9237 Y7.4401
G01 X35.9171 Y7.4532
G01 X35.9081 Y7.4648
G01 X35.8969 Y7.4745
G01 X35.8842 Y7.4818
G01 X35.8702 Y7.4864
G01 X35.8556 Y7.4882
G01 X35.8409 Y7.4872
G01 X35.8302 Y7.4846
G01 X35.8168 Y7.4786
G01 X35.8047 Y7.4702
G01 X35.7969 Y7.4624
G01 X35.7884 Y7.4504
G01 X35.7836 Y7.4404
G01 X35.5443 Y6.7227
G01 X35.5416 Y6.7121
G01 X35.5405 Y6.7012
G01 X35.5406 Y6.6940
G01 X35.5421 Y6.6832
G01 X35.5452 Y6.6727
G01 X35.5516 Y6.6596
G01 X35.5580 Y6.6508
G01 X35.5656 Y6.6429
G01 X35.5742 Y6.6363
G01 X35.5837 Y6.6310
G01 X35.5939 Y6.6271
G01 X35.6046 Y6.6247
G01 X35.6155 Y6.6239
G01 X36.0166 Y6.6239
G01 X36.0166 Y6.3656
G01 X36.0181 Y6.3510
G01 X36.0223 Y6.3369
G01 X36.0273 Y6.3270
G01 X36.0314 Y6.3209
G01 X36.0386 Y6.3126
G01 X36.0441 Y6.3076
G01 X36.0500 Y6.3032
G01 X36.0596 Y6.2978
G01 X36.0664 Y6.2950
G01 X36.0770 Y6.2920
G01 X36.0917 Y6.2906
G01 X36.1027 Y6.2914
G01 X36.1099 Y6.2928
G01 X36.1204 Y6.2963
G01 X36.1270 Y6.2994
G01 X36.1364 Y6.3053
G01 X36.1421 Y6.3100
G01 X36.1519 Y6.3209
G01 X36.1595 Y6.3335
G01 X36.1635 Y6.3438
G01 X36.1663 Y6.3583
G01 X36.1667 Y6.6239
G01 X36.2419 Y6.6243
G01 X36.2563 Y6.6271
G01 X36.2699 Y6.6328
G01 X36.2792 Y6.6387
G01 X36.2849 Y6.6434
G01 X36.2925 Y6.6513
G01 X36.2989 Y6.6604
G01 X36.3038 Y6.6702
G01 X36.3063 Y6.6772
G01 X36.3087 Y6.6879
G01 X36.3096 Y6.6990
G01 X36.3087 Y6.7100
G01 X36.3073 Y6.7172
G01 X36.3038 Y6.7277
G01 X36.2989 Y6.7375
G01 X36.2925 Y6.7466
G01 X36.2849 Y6.7546
G01 X36.2792 Y6.7592
G01 X36.2699 Y6.7651
G01 X36.2563 Y6.7708
G01 X36.2419 Y6.7736
G01 X36.1667 Y6.7740
G01 X36.1666 Y7.0360
G01 X36.1645 Y7.0505
G01 X36.1610 Y7.0610
G01 X36.1541 Y7.0740
G01 X36.1473 Y7.0827
G01 X36.1393 Y7.0903
G01 X36.1334 Y7.0947
G01 X36.1237 Y7.1001
G01 X36.1134 Y7.1041
G01 X36.1027 Y7.1065
G01 X36.0953 Y7.1072
G01 X36.0880 Y7.1072
G01 X36.0770 Y7.1059
G01 X36.0699 Y7.1041
G01 X36.0596 Y7.1001
G01 X36.0500 Y7.0947
G01 X36.0441 Y7.0903
G01 X36.0386 Y7.0853
G01 X36.0314 Y7.0770
G01 X36.0273 Y7.0709
G01 X36.0223 Y7.0610
G01 X36.0181 Y7.0469
G01 X36.0166 Y7.0323
G01 X36.0166 Y6.7740
G01 X35.7196 Y6.7740
G00 Z1.0000
G00 X34.6631 Y6.2906
G01 F76.20
G01 Z-0.3732
